; generated by PrusaSlicer 2.9.0 on 2025-01-19 at 22:16:53 UTC

; 

; external perimeters extrusion width = 0.36mm
; perimeters extrusion width = 0.36mm
; infill extrusion width = 0.36mm
; solid infill extrusion width = 0.36mm
; top infill extrusion width = 0.36mm
; first layer extrusion width = 0.60mm

; external perimeters extrusion width = 0.36mm
; perimeters extrusion width = 0.36mm
; infill extrusion width = 0.36mm
; solid infill extrusion width = 0.36mm
; top infill extrusion width = 0.36mm
; first layer extrusion width = 0.60mm

; external perimeters extrusion width = 0.36mm
; perimeters extrusion width = 0.36mm
; infill extrusion width = 0.36mm
; solid infill extrusion width = 0.36mm
; top infill extrusion width = 0.36mm
; first layer extrusion width = 0.60mm

; external perimeters extrusion width = 0.36mm
; perimeters extrusion width = 0.36mm
; infill extrusion width = 0.36mm
; solid infill extrusion width = 0.36mm
; top infill extrusion width = 0.36mm
; first layer extrusion width = 0.60mm

M190 S75 ; set bed temperature and wait for it to be reached
M104 S235 ; set temperature
;TYPE:Custom
G28 ; Auto home
G1 Z15 F300 ;Move up slightly
G90 ;Switch to absolute positioning
M82 ;Extruder absolute mode
G0 X10 Y20 F1500 ;Move to X10 Y20 at 1500mms
G1 Z0.5 ;Move Z to 0.8
G1 F400 X160 E35 ;Extrude a line of filament
G1 F1200 Z10 ;Raise Z
M109 S235 ; set temperature and wait for it to be reached
G21 ; set units to millimeters
G90 ; use absolute coordinates
M82 ; use absolute distances for extrusion
G92 E0
; Filament gcode
M107
;LAYER_CHANGE
;Z:0.3
;HEIGHT:0.3
G1 E-1 F1800
G1 Z.3 F6600
G1 X98.588 Y93.469
G1 E.00001 F1800
;TYPE:Skirt/Brim
;WIDTH:0.6
G1 X100.366 Y91.818 E.15399
G1 X102.582 Y90.829 E.308
G1 X104.452 Y90.59 E.42765
G1 X130.548 Y90.59 E2.08384
G1 X132.942 Y90.987 E2.23785
G1 X135.079 Y92.136 E2.39184
G1 X136.731 Y93.914 E2.54587
G1 X137.719 Y96.131 E2.69991
G1 X137.959 Y98 E2.8195
G1 X137.959 Y136 E5.23118
G1 X137.561 Y138.394 E5.3852
G1 X136.412 Y140.531 E5.53919
G1 X134.634 Y142.182 E5.69318
G1 X132.418 Y143.171 E5.84719
G1 X130.548 Y143.41 E5.96684
G1 X106.926 Y143.386 E7.46601
G1 X105.74 Y143.24 E7.54185
G1 X104.38 Y142.9 E7.63082
G1 X103.266 Y142.47 E7.7066
G1 X102.03 Y141.809 E7.79556
G1 X101.053 Y141.121 E7.8714
G1 X100.015 Y140.18 E7.96032
G1 X99.33 Y139.398 E8.0263
G1 X98.643 Y138.422 E8.10205
G1 X97.982 Y137.185 E8.19106
G1 X97.552 Y136.071 E8.26684
G1 X97.211 Y134.711 E8.35582
G1 X97.065 Y133.526 E8.43159
G1 X97.041 Y98 E10.68625
G1 X97.439 Y95.606 E10.84027
G1 X98.559 Y93.522 E10.99042
G1 X98.559 Y93.522 F6600
G1 X99.044 Y93.795
G1 F1800
G1 X99.119 Y93.661 E11.00017
G1 X100.881 Y92.125 E11.14852
G1 X103.055 Y91.269 E11.2968
G1 X104.452 Y91.125 E11.38593
G1 X130.548 Y91.125 E13.04212
G1 X132.851 Y91.522 E13.19044
G1 X134.888 Y92.668 E13.33877
G1 X136.423 Y94.429 E13.48703
G1 X137.28 Y96.603 E13.63534
G1 X137.423 Y98 E13.72446
G1 X137.423 Y136 E16.13614
G1 X137.026 Y138.303 E16.28446
G1 X135.881 Y140.339 E16.43271
G1 X134.119 Y141.875 E16.58106
G1 X131.945 Y142.731 E16.72934
G1 X130.548 Y142.875 E16.81847
G1 X106.965 Y142.852 E18.31517
G1 X105.832 Y142.712 E18.38762
G1 X104.548 Y142.391 E18.47162
G1 X103.483 Y141.98 E18.54407
G1 X102.316 Y141.356 E18.62806
G1 X101.383 Y140.699 E18.70048
G1 X100.403 Y139.81 E18.78445
G1 X99.753 Y139.069 E18.84701
G1 X99.095 Y138.135 E18.91952
G1 X98.472 Y136.968 E19.00348
G1 X98.061 Y135.903 E19.07593
G1 X97.739 Y134.62 E19.15988
G1 X97.599 Y133.487 E19.23233
G1 X97.577 Y98 E21.48452
G1 X97.974 Y95.697 E21.63284
G1 X99.015 Y93.847 E21.76756
G1 X99.015 Y93.847 F6600
G1 X99.492 Y94.129
G1 F1800
G1 X99.65 Y93.861 E21.7873
G1 X101.392 Y92.448 E21.92965
G1 X104.452 Y91.661 E22.13017
G1 X130.548 Y91.661 E23.78636
G1 X132.756 Y92.058 E23.92874
G1 X134.687 Y93.199 E24.07109
G1 X136.1 Y94.941 E24.21344
G1 X136.887 Y98 E24.4139
G1 X136.887 Y136 E26.82558
G1 X136.491 Y138.208 E26.96795
G1 X135.35 Y140.139 E27.1103
G1 X133.608 Y141.552 E27.25265
G1 X130.548 Y142.339 E27.45317
G1 X107.004 Y142.318 E28.94739
G1 X105.923 Y142.185 E29.01651
G1 X104.717 Y141.882 E29.09543
G1 X103.7 Y141.49 E29.1646
G1 X102.603 Y140.904 E29.24353
G1 X101.712 Y140.277 E29.31268
G1 X100.791 Y139.441 E29.39162
G1 X100.079 Y138.616 E29.46078
G1 X99.388 Y137.582 E29.53971
G1 X98.898 Y136.609 E29.60885
G1 X98.479 Y135.437 E29.68784
G1 X98.267 Y134.528 E29.74708
G1 X98.134 Y133.447 E29.8162
G1 X98.113 Y98 E32.06585
G1 X98.509 Y95.792 E32.20822
G1 X99.462 Y94.18 E32.32707
G1 X99.462 Y94.18 F6600
G1 X99.93 Y94.473
G1 F1800
G1 X100.18 Y94.071 E32.35711
G1 X101.899 Y92.788 E32.49324
G1 X104.452 Y92.197 E32.65955
G1 X130.548 Y92.197 E34.31574
G1 X132.657 Y92.593 E34.45193
G1 X134.477 Y93.729 E34.58809
G1 X135.76 Y95.448 E34.72422
G1 X136.352 Y98 E34.89048
G1 X136.352 Y136 E37.30216
G1 X135.955 Y138.108 E37.4383
G1 X134.82 Y139.929 E37.57448
G1 X133.101 Y141.212 E37.71061
G1 X130.548 Y141.803 E37.87692
G1 X107.328 Y141.798 E39.35058
G1 X106.169 Y141.684 E39.42449
G1 X105.157 Y141.456 E39.49033
G1 X104.06 Y141.064 E39.56426
G1 X102.889 Y140.451 E39.64814
G1 X102.165 Y139.95 E39.70402
G1 X101.38 Y139.273 E39.76981
G1 X100.597 Y138.41 E39.84376
G1 X100 Y137.562 E39.90958
G1 X99.573 Y136.792 E39.96546
G1 X99.127 Y135.715 E40.03944
G1 X98.85 Y134.716 E40.10523
G1 X98.679 Y133.563 E40.17921
G1 X98.648 Y98 E42.43622
G1 X99.045 Y95.892 E42.57236
G1 X99.898 Y94.523 E42.67473
G1 X99.898 Y94.523 F6600
G1 X100.355 Y94.827
G1 F1800
G1 X100.709 Y94.293 E42.71539
G1 X102.401 Y93.148 E42.84505
G1 X104.452 Y92.732 E42.97787
G1 X130.548 Y92.732 E44.63406
G1 X132.553 Y93.128 E44.76377
G1 X134.256 Y94.257 E44.89344
G1 X135.401 Y95.949 E45.0231
G1 X135.816 Y98 E45.1559
G1 X135.816 Y136 E47.56758
G1 X135.42 Y138.004 E47.69722
G1 X134.291 Y139.707 E47.82689
G1 X132.599 Y140.852 E47.95655
G1 X130.548 Y141.268 E48.08937
G1 X107.342 Y141.262 E49.56214
G1 X106.26 Y141.156 E49.63114
G1 X105.3 Y140.94 E49.69359
G1 X104.277 Y140.574 E49.76254
G1 X103.176 Y139.999 E49.84137
G1 X101.749 Y138.885 E49.95626
G1 X101.019 Y138.08 E50.02523
G1 X100.453 Y137.276 E50.08763
G1 X100.051 Y136.551 E50.14024
G1 X99.635 Y135.547 E50.20921
G1 X99.373 Y134.599 E50.27163
G1 X99.213 Y133.524 E50.34061
G1 X99.184 Y98 E52.59515
G1 X99.58 Y95.996 E52.72479
G1 X100.322 Y94.877 E52.81
G1 E51.81
G92 E0
G1 X100.322 Y94.877 F6600
G92 E0
G1 X123.62 Y110.41
G1 E1 F1800
;TYPE:External perimeter
;WIDTH:0.6
G1 X123.553 Y110.421 E1.00431
G1 X123.027 Y110.361 E1.03791
G1 X122.557 Y110.157 E1.07043
G1 X122.171 Y109.837 E1.10225
G1 X121.884 Y109.413 E1.13474
G1 X121.727 Y108.926 E1.16721
G1 X121.715 Y108.414 E1.19971
G1 X121.847 Y107.919 E1.23222
G1 X122.114 Y107.482 E1.26472
G1 X122.502 Y107.131 E1.29793
G1 X122.954 Y106.913 E1.32978
G1 X123.459 Y106.829 E1.36227
G1 X123.967 Y106.89 E1.39474
G1 X124.438 Y107.093 E1.42729
G1 X124.832 Y107.42 E1.45979
G1 X125.118 Y107.844 E1.49225
G1 X125.273 Y108.332 E1.52475
G1 X125.284 Y108.844 E1.55725
G1 X125.15 Y109.339 E1.5898
G1 X124.882 Y109.775 E1.62228
G1 X124.502 Y110.119 E1.65481
G1 X124.04 Y110.341 E1.68734
G1 X123.679 Y110.4 E1.71055
G1 X123.279 Y110.385 F6600
G1 E.71055 F1800
G92 E0
G1 X124.521 Y100.869 F6600
G1 E1 F1800
G1 X124.852 Y101.149 E1.02751
;WIDTH:0.605172
G1 X125.152 Y101.587 E1.06153
G1 X125.304 Y102.067 E1.09379
;WIDTH:0.6
G1 X125.349 Y102.589 E1.12704
G1 X125.244 Y103.096 E1.1599
G1 X125.016 Y103.545 E1.19186
G1 X124.661 Y103.94 E1.22557
G1 X124.213 Y104.224 E1.25923
G1 X123.705 Y104.376 E1.29288
G1 X123.174 Y104.386 E1.32659
G1 X122.661 Y104.253 E1.36022
G1 X122.203 Y103.986 E1.39387
G1 X121.833 Y103.605 E1.42758
G1 X121.581 Y103.138 E1.46126
;WIDTH:0.631154
G1 X121.507 Y102.883 E1.47909
;WIDTH:0.662308
G1 X121.432 Y102.628 E1.49792
;WIDTH:0.677218
G1 X121.451 Y102.089 E1.53708
G1 X121.554 Y101.838 E1.55678
;WIDTH:0.638609
G1 X121.657 Y101.588 E1.57518
;WIDTH:0.6
G1 X121.691 Y101.524 E1.57978
G1 X122.005 Y101.096 E1.61347
G1 X122.423 Y100.769 E1.64715
G1 X122.903 Y100.568 E1.68018
G1 X123.432 Y100.504 E1.714
G1 X123.957 Y100.584 E1.7477
G1 X124.446 Y100.807 E1.78181
G1 X124.475 Y100.831 E1.7842
G1 X124.78 Y101.089 F6600
G1 E.7842 F1800
G92 E0
G1 X127.637 Y99.406 F6600
G1 E1 F1800
G1 X127.673 Y99.402 E1.0023
G1 X128.198 Y99.482 E1.036
G1 X128.688 Y99.704 E1.07014
G1 X129.093 Y100.046 E1.10378
G1 X129.391 Y100.485 E1.13745
;WIDTH:0.638611
G1 X129.494 Y100.736 E1.15591
;WIDTH:0.677223
G1 X129.598 Y100.986 E1.17557
G1 X129.619 Y101.516 E1.21409
;WIDTH:0.665394
G1 X129.543 Y101.776 E1.23338
;WIDTH:0.632697
G1 X129.468 Y102.036 E1.2516
;WIDTH:0.6
G1 X129.215 Y102.502 E1.28525
G1 X128.846 Y102.883 E1.31891
G1 X128.388 Y103.15 E1.35256
G1 X127.881 Y103.282 E1.38581
G1 X127.37 Y103.279 E1.41824
G1 X126.884 Y103.144 E1.45025
G1 X126.444 Y102.883 E1.48272
G1 X126.079 Y102.508 E1.51593
G1 X125.831 Y102.04 E1.54954
;WIDTH:0.606558
G1 X125.701 Y101.52 E1.58397
G1 X125.731 Y100.989 E1.61814
;WIDTH:0.6
G1 X125.746 Y100.917 E1.62281
G1 X125.933 Y100.421 E1.65645
G1 X126.247 Y99.993 E1.69014
G1 X126.664 Y99.666 E1.72377
G1 X127.145 Y99.465 E1.75685
G1 X127.578 Y99.413 E1.78453
G1 X127.976 Y99.451 F6600
G1 E.78453 F1800
G92 E0
G1 X125.014 Y99.924 F6600
G1 E1 F1800
;TYPE:Perimeter
;WIDTH:0.555795
G1 X125.011 Y99.928 E1.00029
G1 X124.798 Y99.809 E1.0145
;WIDTH:0.547871
G1 X124.536 Y99.74 E1.03002
;WIDTH:0.498047
G1 X124.275 Y99.672 E1.04388
;WIDTH:0.448223
G1 X124.014 Y99.603 E1.05616
;WIDTH:0.3984
G1 X123.397 Y99.55 E1.08067
;WIDTH:0.403654
G1 X122.735 Y99.61 E1.10739
;WIDTH:0.44179
G1 X122.539 Y99.662 E1.11646
;WIDTH:0.479926
G1 X122.343 Y99.713 E1.12643
;WIDTH:0.518062
G1 X122.147 Y99.765 E1.13733
G1 X121.83 Y99.935 E1.15667
G1 X121.83 Y99.33 E1.18919
G1 X122.057 Y99.33 E1.20139
G1 X122.29 Y99.311 E1.21396
;WIDTH:0.478623
G1 X122.523 Y99.291 E1.22544
;WIDTH:0.439184
G1 X122.756 Y99.271 E1.23583
;WIDTH:0.399745
G1 X123.397 Y99.252 E1.26131
;WIDTH:0.3984
G1 X124.036 Y99.27 E1.28661
;WIDTH:0.448223
G1 X124.322 Y99.295 E1.29967
;WIDTH:0.498047
G1 X124.608 Y99.32 E1.31442
;WIDTH:0.547871
G1 X124.893 Y99.345 E1.33081
;WIDTH:0.555795
G1 X125.426 Y99.349 E1.36185
G1 X125.34 Y99.441 E1.36918
G1 X125.047 Y99.874 E1.39962
G1 E.39962
G92 E0
G1 X125.047 Y99.874 F6600
G1 X127.637 Y99.002
G1 E1 F1800
;WIDTH:0.380202
G1 X127.545 Y98.995 E1.00345
;WIDTH:0.398649
G1 X127.327 Y99.01 E1.0121
;WIDTH:0.447182
G1 X127.109 Y99.025 E1.02201
;WIDTH:0.495715
G1 X126.892 Y99.04 E1.03313
;WIDTH:0.530476
G1 X126.745 Y99.085 E1.04162
;WIDTH:0.565238
G1 X126.598 Y99.13 E1.05074
;WIDTH:0.6
G1 X126.451 Y99.175 E1.0605
G1 X126.264 Y99.289 E1.0744
G1 X125.759 Y99.738 E1.11729
G1 X125.42 Y100.242 E1.15584
G1 X125.232 Y100.771 E1.19147
G1 X125.14 Y100.68 E1.19968
G1 X124.596 Y100.277 E1.24265
G1 X123.957 Y100.034 E1.28604
G1 X123.397 Y99.966 E1.32184
G1 X122.811 Y100.041 E1.35933
G1 X122.209 Y100.278 E1.40039
G1 X121.667 Y100.68 E1.44322
G1 X121.336 Y101.098 E1.47706
G1 X121.336 Y98.836 E1.62062
G1 X126.38 Y98.836 E1.94074
G1 X126.519 Y98.814 E1.94967
;WIDTH:0.556267
G1 X126.658 Y98.792 E1.95787
;WIDTH:0.512535
G1 X126.796 Y98.77 E1.96529
;WIDTH:0.468803
G1 X126.935 Y98.748 E1.97203
;WIDTH:0.425071
G1 X127.074 Y98.726 E1.97804
;WIDTH:0.381339
G1 X127.747 Y98.711 E2.00332
;WIDTH:0.381211
G1 X128.094 Y98.726 E2.01636
;WIDTH:0.412618
G1 X128.442 Y98.742 E2.03073
;WIDTH:0.456273
G1 X128.628 Y98.764 E2.03943
;WIDTH:0.499928
G1 X128.815 Y98.786 E2.04915
;WIDTH:0.543583
G1 X129.001 Y98.807 E2.05978
;WIDTH:0.587238
G1 X129.187 Y98.829 E2.07138
;WIDTH:0.622736
G1 X129.435 Y98.847 E2.08783
;WIDTH:0.658234
G1 X129.684 Y98.865 E2.1054
G1 X129.684 Y99.162 E2.1263
G1 X129.684 Y99.904 E2.17851
G1 X129.554 Y99.721 E2.19431
G1 X129.199 Y99.392 E2.22837
G1 X129.073 Y99.333 E2.23816
;WIDTH:0.608359
G1 X128.946 Y99.275 E2.24716
;WIDTH:0.558484
G1 X128.819 Y99.216 E2.25536
;WIDTH:0.50861
G1 X128.607 Y99.157 E2.26694
;WIDTH:0.465807
G1 X128.396 Y99.099 E2.27735
;WIDTH:0.423004
G1 X128.184 Y99.04 E2.2867
;WIDTH:0.380202
G1 X127.697 Y99.006 E2.30497
G1 E1.30497
G92 E0
G1 X127.697 Y99.006 F6600
G1 X121.264 Y108.976
G1 E1 F1800
;WIDTH:0.455911
G1 X121.257 Y108.415 E1.02603
;WIDTH:0.472853
G1 X121.272 Y108.207 E1.03612
G1 E.03612
G92 E0
G1 X121.272 Y108.207 F6600
G1 X123.702 Y111.923
G1 E1 F1800
;WIDTH:0.430699
G1 X123.746 Y111.908 E1.00202
;WIDTH:0.400911
G1 X124.179 Y111.854 E1.01942
;WIDTH:0.450683
G1 X124.311 Y111.842 E1.02549
;WIDTH:0.500455
G1 X124.443 Y111.829 E1.03234
;WIDTH:0.550227
G1 X124.575 Y111.816 E1.03998
;WIDTH:0.6
G1 X124.706 Y111.803 E1.04833
G1 X125.104 Y111.622 E1.07608
G1 X125.553 Y111.334 E1.10993
G1 X125.883 Y111.048 E1.13764
G1 X126.234 Y110.645 E1.17156
G1 X126.471 Y110.276 E1.19939
G1 X126.692 Y109.792 E1.23316
G1 X126.863 Y109.168 E1.27422
G1 X126.891 Y108.408 E1.32249
G1 X126.815 Y107.879 E1.35641
G1 X126.692 Y107.46 E1.38412
G1 X126.358 Y106.802 E1.43095
G1 X126.01 Y106.324 E1.46847
G1 X125.553 Y105.919 E1.50722
G1 X125.05 Y105.601 E1.54499
G1 X125.439 Y105.358 E1.5741
G1 X125.861 Y105.008 E1.6089
G1 X126.227 Y104.609 E1.64326
G1 X126.72 Y104.768 E1.67614
G1 X127.266 Y104.884 E1.71157
G1 X127.885 Y104.889 E1.75086
G1 X128.642 Y104.748 E1.79973
G1 X128.642 Y112.092 E2.26582
G1 X124.768 Y112.09 E2.51168
G1 X124.642 Y112.114 E2.51982
;WIDTH:0.55145
G1 X124.517 Y112.138 E2.52717
;WIDTH:0.5029
G1 X124.391 Y112.163 E2.53384
;WIDTH:0.45435
G1 X124.265 Y112.187 E2.53977
;WIDTH:0.405801
G1 X123.785 Y112.204 E2.5592
;WIDTH:0.420488
G1 X123.702 Y112.171 E2.56297
;WIDTH:0.469777
G1 X123.619 Y112.137 E2.56728
;WIDTH:0.519065
G1 X123.537 Y112.104 E2.57204
;WIDTH:0.568354
G1 X123.454 Y112.071 E2.57737
;WIDTH:0.617643
G1 X123.371 Y112.038 E2.58323
G1 X123.446 Y112.012 E2.58843
;WIDTH:0.570907
G1 X123.521 Y111.986 E2.59319
;WIDTH:0.524171
G1 X123.596 Y111.96 E2.59751
;WIDTH:0.477435
G1 X123.645 Y111.942 E2.60006
G1 X123.645 Y111.942 F6600
G1 X123.676 Y111.484
;WIDTH:0.6
G1 F1800
G1 X124.16 Y111.416 E2.63108
G1 X124.882 Y111.135 E2.68025
G1 X125.203 Y110.929 E2.70446
G1 X125.533 Y110.643 E2.73217
G1 X125.783 Y110.355 E2.75637
G1 X126.019 Y109.988 E2.78406
G1 X126.178 Y109.641 E2.80828
G1 X126.335 Y109.076 E2.8455
G1 X126.355 Y108.408 E2.88791
G1 X126.301 Y108.03 E2.91214
G1 X126.178 Y107.612 E2.93979
G1 X126.019 Y107.265 E2.96401
G1 X125.783 Y106.897 E2.99176
G1 X125.533 Y106.609 E3.01596
G1 X125.109 Y106.249 E3.05126
G1 X124.484 Y105.937 E3.09559
G1 X124.02 Y105.822 E3.12593
;WIDTH:0.587471
G1 X123.613 Y105.829 E3.15116
;WIDTH:0.542026
G1 X123.206 Y105.836 E3.1742
;WIDTH:0.539285
G1 X123.041 Y105.856 E3.18355
;WIDTH:0.581989
G1 X122.877 Y105.876 E3.19368
;WIDTH:0.624692
G1 X122.712 Y105.896 E3.20471
;WIDTH:0.667396
G1 X122.548 Y105.916 E3.21651
;WIDTH:0.7101
G1 X122.383 Y105.936 E3.22923
G1 X121.926 Y106.176 E3.26872
G1 X121.926 Y105.136 E3.34829
G1 X122.34 Y105.332 E3.38334
G1 X122.452 Y105.342 E3.39194
;WIDTH:0.668146
G1 X122.66 Y105.357 E3.40686
;WIDTH:0.62331
G1 X122.867 Y105.372 E3.4206
;WIDTH:0.578474
G1 X123.074 Y105.387 E3.43324
;WIDTH:0.533638
G1 X123.282 Y105.402 E3.44484
;WIDTH:0.538137
G1 X123.637 Y105.402 E3.46477
;WIDTH:0.587471
G1 X123.992 Y105.402 E3.48677
;WIDTH:0.6
G1 X124.515 Y105.259 E3.52118
G1 X125.161 Y104.901 E3.56805
G1 X125.47 Y104.643 E3.5936
G1 X125.833 Y104.247 E3.62769
G1 X126.042 Y103.892 E3.65383
G1 X126.183 Y103.977 E3.66428
G1 X126.613 Y104.181 E3.69449
G1 X127.309 Y104.35 E3.73995
G1 X127.884 Y104.353 E3.77644
G1 X128.244 Y104.303 E3.79951
G1 X128.678 Y104.181 E3.82812
G1 X129.177 Y103.935 E3.86343
G1 X129.177 Y112.628 E4.41513
G1 X124.203 Y112.625 E4.73081
G1 X123.579 Y112.619 E4.77041
G1 X123.051 Y112.501 E4.80475
G1 X122.644 Y112.292 E4.83379
G1 X122.372 Y112.058 E4.85656
G1 X122.151 Y111.773 E4.87945
G1 X121.991 Y111.448 E4.90244
G1 X121.888 Y110.997 E4.9318
G1 X121.944 Y111.039 E4.93624
G1 X122.507 Y111.312 E4.97595
G1 X122.95 Y111.432 E5.00508
G1 X123.613 Y111.493 E5.04734
G1 X123.616 Y111.492 E5.04754
G1 E4.04754
G92 E0
G1 X123.616 Y111.492 F6600
G1 X129.713 Y113.164
G1 E1 F1800
G1 X123.766 Y113.161 E1.37743
G1 X123.213 Y113.106 E1.4127
G1 X122.774 Y112.971 E1.44185
G1 X122.368 Y112.752 E1.47113
