; generated by PrusaSlicer 2.9.0 on 2025-01-18 at 23:44:19 UTC

; 

; external perimeters extrusion width = 0.36mm
; perimeters extrusion width = 0.36mm
; infill extrusion width = 0.36mm
; solid infill extrusion width = 0.36mm
; top infill extrusion width = 0.36mm
; support material extrusion width = 0.40mm
; first layer extrusion width = 0.60mm

; external perimeters extrusion width = 0.36mm
; perimeters extrusion width = 0.36mm
; infill extrusion width = 0.36mm
; solid infill extrusion width = 0.36mm
; top infill extrusion width = 0.36mm
; support material extrusion width = 0.40mm
; first layer extrusion width = 0.60mm

M190 S75 ; set bed temperature and wait for it to be reached
M104 S235 ; set temperature
;TYPE:Custom
G28 ; Auto home
G1 Z15 F300 ;Move up slightly
G90 ;Switch to absolute positioning
M82 ;Extruder absolute mode
G0 X10 Y20 F1500 ;Move to X10 Y20 at 1500mms
G1 Z0.5 ;Move Z to 0.8
G1 F400 X160 E35 ;Extrude a line of filament
G1 F1200 Z10 ;Raise Z
M109 S235 ; set temperature and wait for it to be reached
G21 ; set units to millimeters
G90 ; use absolute coordinates
M82 ; use absolute distances for extrusion
G92 E0
; Filament gcode
M107
;LAYER_CHANGE
;Z:0.3
;HEIGHT:0.3
G1 E-1 F1800
G1 Z.3 F6600
G1 X86.621 Y98.984
G1 E.00001 F1800
;TYPE:Skirt/Brim
;WIDTH:0.6
G1 X86.946 Y98.7 E.02739
G1 X89.19 Y97.777 E.18138
G1 X90.847 Y97.59 E.28721
G1 X146.24 Y97.59 E3.80273
G1 X148.633 Y97.987 E3.95668
G1 X150.771 Y99.136 E4.11072
G1 X152.422 Y100.914 E4.26471
G1 X153.41 Y103.131 E4.41875
G1 X153.65 Y105 E4.53834
G1 X153.647 Y129.219 E6.0754
G1 X152.742 Y159.814 E8.01797
G1 X152.274 Y162.195 E8.17197
G1 X151.062 Y164.297 E8.32596
G1 X149.236 Y165.895 E8.47996
G1 X146.992 Y166.818 E8.63395
G1 X145.335 Y167.005 E8.73978
G1 X89.943 Y167.005 E12.25524
G1 X87.549 Y166.608 E12.40925
G1 X85.412 Y165.459 E12.56324
G1 X83.76 Y163.681 E12.71727
G1 X82.772 Y161.465 E12.87125
G1 X82.532 Y159.595 E12.9909
G1 X82.535 Y135.376 E14.52796
G1 X83.44 Y104.781 E16.47053
G1 X83.908 Y102.4 E16.62453
G1 X85.12 Y100.298 E16.77852
G1 X86.576 Y99.024 E16.90131
G1 X86.576 Y99.024 F6600
G1 X86.928 Y99.452
G1 F1800
G1 X87.452 Y99.022 E16.94433
G1 X89.65 Y98.23 E17.09261
G1 X90.847 Y98.125 E17.16887
G1 X146.24 Y98.125 E20.68439
G1 X148.542 Y98.522 E20.83264
G1 X150.579 Y99.668 E20.98097
G1 X152.114 Y101.429 E21.12923
G1 X152.971 Y103.603 E21.27754
G1 X153.114 Y105 E21.36666
G1 X153.111 Y129.203 E22.90271
G1 X152.207 Y159.798 E24.84527
G1 X151.742 Y162.088 E24.99357
G1 X150.537 Y164.09 E25.14187
G1 X148.731 Y165.573 E25.29018
G1 X146.532 Y166.365 E25.43852
G1 X145.335 Y166.47 E25.51478
G1 X89.943 Y166.47 E29.03024
G1 X87.64 Y166.073 E29.17856
G1 X85.603 Y164.927 E29.32689
G1 X84.068 Y163.166 E29.47515
G1 X83.211 Y160.992 E29.62346
G1 X83.068 Y159.595 E29.71258
G1 X83.068 Y135.595 E31.23574
G1 X83.975 Y104.797 E33.19119
G1 X84.44 Y102.507 E33.33949
G1 X85.646 Y100.505 E33.48782
G1 X86.881 Y99.49 E33.58927
G1 X86.881 Y99.49 F6600
G1 X87.213 Y99.925
G1 F1800
G1 X87.953 Y99.36 E33.64836
G1 X90.847 Y98.661 E33.83731
G1 X146.24 Y98.661 E37.35283
G1 X148.447 Y99.058 E37.49515
G1 X150.378 Y100.199 E37.6375
G1 X151.792 Y101.941 E37.77989
G1 X152.579 Y105 E37.98035
G1 X152.576 Y129.187 E39.51538
G1 X151.671 Y159.782 E41.45795
G1 X151.209 Y161.977 E41.60031
G1 X150.012 Y163.874 E41.74267
G1 X148.229 Y165.235 E41.88503
G1 X145.335 Y165.934 E42.07398
G1 X89.943 Y165.934 E45.58944
G1 X87.735 Y165.537 E45.73182
G1 X85.804 Y164.396 E45.87417
G1 X84.391 Y162.654 E46.01652
G1 X83.603 Y159.595 E46.217
G1 X83.603 Y135.595 E47.74016
G1 X84.511 Y104.813 E49.69459
G1 X84.973 Y102.618 E49.83695
G1 X86.17 Y100.721 E49.97931
G1 X87.165 Y99.961 E50.05877
G1 X87.165 Y99.961 F6600
G1 X87.473 Y100.4
G1 F1800
G1 X88.45 Y99.715 E50.1345
G1 X90.847 Y99.197 E50.29014
G1 X146.24 Y99.197 E53.80566
G1 X148.348 Y99.593 E53.94178
G1 X150.168 Y100.729 E54.07794
G1 X151.452 Y102.448 E54.21411
G1 X152.043 Y105 E54.38036
G1 X152.04 Y129.172 E55.91444
G1 X151.136 Y159.767 E57.857
G1 X150.677 Y161.862 E57.99311
G1 X149.488 Y163.648 E58.12928
G1 X147.732 Y164.88 E58.26542
G1 X145.335 Y165.399 E58.42107
G1 X89.943 Y165.399 E61.93653
G1 X87.834 Y165.002 E62.07273
G1 X86.014 Y163.867 E62.20886
G1 X84.73 Y162.147 E62.34508
G1 X84.139 Y159.595 E62.51133
G1 X84.139 Y135.595 E64.03449
G1 X85.046 Y104.828 E65.98797
G1 X85.505 Y102.733 E66.12408
G1 X86.694 Y100.947 E66.26025
G1 X87.424 Y100.435 E66.31684
G1 X87.424 Y100.435 F6600
G1 X87.703 Y100.875
G1 F1800
G1 X88.941 Y100.089 E66.40991
G1 X90.847 Y99.732 E66.53298
G1 X146.24 Y99.732 E70.0485
G1 X148.244 Y100.128 E70.17814
G1 X149.947 Y101.257 E70.30781
G1 X151.092 Y102.949 E70.43747
G1 X151.507 Y105 E70.57027
G1 X151.505 Y129.156 E72.10333
G1 X150.6 Y159.751 E74.0459
G1 X150.145 Y161.743 E74.17558
G1 X148.966 Y163.411 E74.30521
G1 X147.241 Y164.506 E74.43488
G1 X145.335 Y164.863 E74.55795
G1 X89.943 Y164.863 E78.07341
G1 X87.938 Y164.467 E78.20312
G1 X86.235 Y163.338 E78.33279
G1 X85.09 Y161.646 E78.46245
G1 X84.675 Y159.595 E78.59525
G1 X84.677 Y135.439 E80.12831
G1 X85.582 Y104.844 E82.07088
G1 X86.037 Y102.853 E82.2005
G1 X87.216 Y101.184 E82.33019
G1 X87.653 Y100.907 E82.36303
G1 E81.36303
G92 E0
G1 X87.653 Y100.907 F6600
G92 E0
G1 X92.754 Y127.093
G1 E1 F1800
;TYPE:Perimeter
;WIDTH:0.6
G1 X92.754 Y106.907 E2.28111
G1 X144.333 Y106.907 E5.55458
G1 X144.333 Y117 E6.19513
G1 X144.333 Y127.093 E6.83568
G1 X92.814 Y127.093 E10.10534
G1 X92.814 Y127.093 F6600
G1 X92.218 Y127.629
G1 F1800
G1 X92.218 Y106.371 E11.45448
G1 X144.868 Y106.371 E14.79592
G1 X144.868 Y117 E15.47049
G1 X144.868 Y127.629 E16.14506
G1 X92.278 Y127.629 E19.48269
G1 X92.278 Y127.629 F6600
G1 X91.683 Y128.164
G1 F1800
G1 X91.683 Y105.836 E20.89974
G1 X145.404 Y105.836 E24.30915
G1 X145.404 Y117 E25.01767
G1 X145.404 Y128.164 E25.72619
G1 X91.743 Y128.164 E29.13179
G1 X91.743 Y128.164 F6600
G1 X91.147 Y128.7
;TYPE:External perimeter
G1 F1800
G1 X91.147 Y105.3 E30.61687
G1 X145.94 Y105.3 E34.09431
G1 X145.94 Y117 E34.83685
G1 X145.94 Y128.7 E35.57939
G1 X91.207 Y128.7 E39.05302
G1 X91.148 Y128.304 F6600
G1 E38.05302 F1800
G92 E0
G1 X144.172 Y108.151 F6600
G1 E1 F1800
;TYPE:Solid infill
;WIDTH:0.600198
G1 X143.33 Y107.309 E1.0756
G1 X142.572 Y107.309 E1.12372
G1 X143.931 Y108.667 E1.24569
G1 X143.931 Y109.425 E1.29381
G1 X141.814 Y107.309 E1.48384
G1 X141.057 Y107.309 E1.5319
G1 X143.931 Y110.183 E1.78995
G1 X143.931 Y110.941 E1.83807
G1 X140.299 Y107.309 E2.16417
G1 X139.541 Y107.309 E2.21229
G1 X143.931 Y111.698 E2.60641
G1 X143.931 Y112.456 E2.65453
G1 X138.783 Y107.309 E3.11671
G1 X138.026 Y107.309 E3.16477
G1 X143.931 Y113.214 E3.69496
G1 X143.931 Y113.972 E3.74308
G1 X137.268 Y107.309 E4.34133
G1 X136.51 Y107.309 E4.38945
G1 X143.931 Y114.73 E5.05575
G1 X143.931 Y115.487 E5.10381
G1 X135.752 Y107.309 E5.83813
G1 X134.995 Y107.309 E5.88619
G1 X143.931 Y116.245 E6.68852
G1 X143.931 Y117.003 E6.73664
G1 X134.237 Y107.309 E7.60703
G1 X133.479 Y107.309 E7.65515
G1 X143.931 Y117.761 E8.5936
G1 X143.931 Y118.518 E8.64166
G1 X132.721 Y107.309 E9.64812
G1 X131.964 Y107.309 E9.69618
G1 X143.931 Y119.276 E10.77065
G1 X143.931 Y120.034 E10.81877
G1 X131.206 Y107.309 E11.9613
G1 X130.448 Y107.309 E12.00942
G1 X143.931 Y120.792 E13.22001
G1 X143.931 Y121.549 E13.26807
G1 X129.69 Y107.309 E14.54667
G1 X128.933 Y107.309 E14.59473
G1 X143.931 Y122.307 E15.94135
G1 X143.931 Y123.065 E15.98947
G1 X128.175 Y107.309 E17.40414
G1 X127.417 Y107.309 E17.45226
G1 X143.931 Y123.823 E18.93499
G1 X143.931 Y124.58 E18.98305
G1 X126.659 Y107.309 E20.5338
G1 X125.901 Y107.309 E20.58192
G1 X143.931 Y125.338 E22.20072
G1 X143.931 Y126.096 E22.24884
G1 X125.144 Y107.309 E23.93566
G1 X124.386 Y107.309 E23.98378
G1 X143.769 Y126.691 E25.72406
G1 X143.011 Y126.691 E25.77218
G1 X123.628 Y107.309 E27.51246
G1 X122.87 Y107.309 E27.56058
G1 X142.253 Y126.691 E29.30086
G1 X141.496 Y126.691 E29.34892
G1 X122.113 Y107.309 E31.0892
G1 X121.355 Y107.309 E31.13732
G1 X140.738 Y126.691 E32.8776
G1 X139.98 Y126.691 E32.92572
G1 X120.597 Y107.309 E34.666
G1 X119.839 Y107.309 E34.71412
G1 X139.222 Y126.691 E36.4544
G1 X138.464 Y126.691 E36.50252
G1 X119.082 Y107.309 E38.24276
G1 X118.324 Y107.309 E38.29088
G1 X137.707 Y126.691 E40.03116
G1 X136.949 Y126.691 E40.07928
G1 X117.566 Y107.309 E41.81956
G1 X116.808 Y107.309 E41.86768
G1 X136.191 Y126.691 E43.60796
G1 X135.433 Y126.691 E43.65608
G1 X116.051 Y107.309 E45.39632
G1 X115.293 Y107.309 E45.44444
G1 X134.676 Y126.691 E47.18472
G1 X133.918 Y126.691 E47.23284
G1 X114.535 Y107.309 E48.97312
G1 X113.777 Y107.309 E49.02124
G1 X133.16 Y126.691 E50.76152
G1 X132.402 Y126.691 E50.80964
G1 X113.02 Y107.309 E52.54988
G1 X112.262 Y107.309 E52.598
G1 X131.645 Y126.691 E54.33828
G1 X130.887 Y126.691 E54.3864
G1 X111.504 Y107.309 E56.12668
G1 X110.746 Y107.309 E56.1748
G1 X130.129 Y126.691 E57.91508
G1 X129.371 Y126.691 E57.9632
G1 X109.989 Y107.309 E59.70344
G1 X109.231 Y107.309 E59.75156
G1 X128.614 Y126.691 E61.49184
G1 X127.856 Y126.691 E61.53996
G1 X108.473 Y107.309 E63.28024
G1 X107.715 Y107.309 E63.32836
G1 X127.098 Y126.691 E65.06864
G1 X126.34 Y126.691 E65.11676
G1 X106.957 Y107.309 E66.85704
G1 X106.2 Y107.309 E66.9051
G1 X125.583 Y126.691 E68.64538
G1 X124.825 Y126.691 E68.6935
G1 X105.442 Y107.309 E70.43378
G1 X104.684 Y107.309 E70.4819
G1 X124.067 Y126.691 E72.22218
G1 X123.309 Y126.691 E72.2703
G1 X103.926 Y107.309 E74.01058
G1 X103.169 Y107.309 E74.05864
G1 X122.552 Y126.691 E75.79892
G1 X121.794 Y126.691 E75.84704
G1 X102.411 Y107.309 E77.58732
G1 X101.653 Y107.309 E77.63544
G1 X121.036 Y126.691 E79.37572
G1 X120.278 Y126.691 E79.42384
G1 X100.895 Y107.309 E81.16412
G1 X100.138 Y107.309 E81.21218
G1 X119.52 Y126.691 E82.95242
G1 X118.763 Y126.691 E83.00048
G1 X99.38 Y107.309 E84.74076
G1 X98.622 Y107.309 E84.78888
G1 X118.005 Y126.691 E86.52916
G1 X117.247 Y126.691 E86.57728
G1 X97.864 Y107.309 E88.31756
G1 X97.107 Y107.309 E88.36562
G1 X116.489 Y126.691 E90.10586
G1 X115.732 Y126.691 E90.15392
G1 X96.349 Y107.309 E91.8942
G1 X95.591 Y107.309 E91.94232
G1 X114.974 Y126.691 E93.6826
G1 X114.216 Y126.691 E93.73072
G1 X94.833 Y107.309 E95.471
G1 X94.076 Y107.309 E95.51906
G1 X113.458 Y126.691 E97.2593
G1 X112.701 Y126.691 E97.30736
G1 X93.318 Y107.309 E99.04764
G1 X93.156 Y107.309 E99.05793
G1 X93.156 Y107.904 E99.09571
G1 X111.943 Y126.691 E100.78253
G1 X111.185 Y126.691 E100.83065
G1 X93.156 Y108.662 E102.44941
G1 X93.156 Y109.42 E102.49753
G1 X110.427 Y126.691 E104.04823
G1 X109.67 Y126.691 E104.09629
G1 X93.156 Y110.178 E105.57898
G1 X93.156 Y110.935 E105.62704
G1 X108.912 Y126.691 E107.04171
G1 X108.154 Y126.691 E107.08983
G1 X93.156 Y111.693 E108.43645
G1 X93.156 Y112.451 E108.48457
G1 X107.396 Y126.691 E109.76313
G1 X106.639 Y126.691 E109.81119
G1 X93.156 Y113.209 E111.02173
G1 X93.156 Y113.966 E111.06979
G1 X105.881 Y126.691 E112.21232
G1 X105.123 Y126.691 E112.26044
G1 X93.156 Y114.724 E113.33491
G1 X93.156 Y115.482 E113.38303
G1 X104.365 Y126.691 E114.38945
G1 X103.608 Y126.691 E114.43751
G1 X93.156 Y116.24 E115.37591
G1 X93.156 Y116.997 E115.42397
G1 X102.85 Y126.691 E116.29436
G1 X102.092 Y126.691 E116.34248
G1 X93.156 Y117.755 E117.14481
G1 X93.156 Y118.513 E117.19293
G1 X101.334 Y126.691 E117.9272
G1 X100.577 Y126.691 E117.97526
G1 X93.156 Y119.271 E118.64152
G1 X93.156 Y120.028 E118.68958
G1 X99.819 Y126.691 E119.28783
G1 X99.061 Y126.691 E119.33595
G1 X93.156 Y120.786 E119.86614
G1 X93.156 Y121.544 E119.91426
G1 X98.303 Y126.691 E120.37639
G1 X97.545 Y126.691 E120.42451
G1 X93.156 Y122.302 E120.81858
G1 X93.156 Y123.059 E120.86664
G1 X96.788 Y126.691 E121.19274
G1 X96.03 Y126.691 E121.24086
G1 X93.156 Y123.817 E121.49891
G1 X93.156 Y124.575 E121.54703
G1 X95.272 Y126.691 E121.73702
G1 X94.514 Y126.691 E121.78514
G1 X93.156 Y125.333 E121.90707
G1 X93.156 Y126.09 E121.95513
G1 X93.998 Y126.932 E122.03073
G1 E121.03073
G92 E0
G1 X93.998 Y126.932 F6600
G92 E0
G1 X143.428 Y157.688
G1 E1 F1800
;TYPE:Perimeter
;WIDTH:0.6
G1 X91.849 Y157.688 E4.27347
G1 X91.849 Y137.502 E5.55458
G1 X143.428 Y137.502 E8.82805
G1 X143.428 Y147.595 E9.4686
G1 X143.428 Y157.628 E10.10535
G1 X143.428 Y157.628 F6600
G1 X143.964 Y158.224
G1 F1800
G1 X91.314 Y158.224 E13.44679
G1 X91.314 Y136.966 E14.79593
G1 X143.964 Y136.966 E18.13737
G1 X143.964 Y147.595 E18.81194
G1 X143.964 Y158.164 E19.4827
G1 X143.964 Y158.164 F6600
G1 X144.499 Y158.76
G1 F1800
G1 X90.778 Y158.76 E22.89211
G1 X90.778 Y136.431 E24.30922
G1 X144.499 Y136.431 E27.71863
G1 X144.499 Y147.595 E28.42715
G1 X144.499 Y158.7 E29.13193
G1 X144.499 Y158.7 F6600
G1 X145.035 Y159.295
;TYPE:External perimeter
G1 F1800
G1 X90.243 Y159.295 E32.60931
G1 X90.243 Y135.895 E34.09439
G1 X145.035 Y135.895 E37.57177
G1 X145.035 Y147.595 E38.31431
G1 X145.035 Y159.235 E39.05304
G1 X144.639 Y159.294 F6600
G1 E38.05304 F1800
G92 E0
G1 X143.267 Y138.746 F6600
G1 E1 F1800
;TYPE:Solid infill
;WIDTH:0.600198
G1 X142.425 Y137.904 E1.0756
G1 X141.668 Y137.904 E1.12366
G1 X143.026 Y139.263 E1.24563
G1 X143.026 Y140.02 E1.29369
G1 X140.91 Y137.904 E1.48368
G1 X140.152 Y137.904 E1.5318
G1 X143.026 Y140.778 E1.78985
G1 X143.026 Y141.536 E1.83797
G1 X139.394 Y137.904 E2.16407
G1 X138.637 Y137.904 E2.21213
G1 X143.026 Y142.294 E2.60625
G1 X143.026 Y143.051 E2.65431
G1 X137.879 Y137.904 E3.11644
G1 X137.121 Y137.904 E3.16456
G1 X143.026 Y143.809 E3.69475
G1 X143.026 Y144.567 E3.74287
G1 X136.363 Y137.904 E4.34112
G1 X135.605 Y137.904 E4.38924
G1 X143.026 Y145.325 E5.05554
G1 X143.026 Y146.082 E5.1036
G1 X134.848 Y137.904 E5.83787
G1 X134.09 Y137.904 E5.88599
G1 X143.026 Y146.84 E6.68832
G1 X143.026 Y147.598 E6.73644
G1 X133.332 Y137.904 E7.60683
G1 X132.574 Y137.904 E7.65495
G1 X143.026 Y148.356 E8.5934
G1 X143.026 Y149.113 E8.64146
G1 X131.817 Y137.904 E9.64788
G1 X131.059 Y137.904 E9.696
G1 X143.026 Y149.871 E10.77047
G1 X143.026 Y150.629 E10.81859
G1 X130.301 Y137.904 E11.96112
G1 X129.543 Y137.904 E12.00924
G1 X143.026 Y151.387 E13.21983
G1 X143.026 Y152.144 E13.26789
G1 X128.786 Y137.904 E14.54645
G1 X128.028 Y137.904 E14.59457
G1 X143.026 Y152.902 E15.94119
G1 X143.026 Y153.66 E15.98931
G1 X127.27 Y137.904 E17.40398
G1 X126.512 Y137.904 E17.4521
G1 X143.026 Y154.418 E18.93483
G1 X143.026 Y155.176 E18.98295
G1 X125.755 Y137.904 E20.5337
G1 X124.997 Y137.904 E20.58182
G1 X143.026 Y155.933 E22.20058
G1 X143.026 Y156.691 E22.2487
G1 X124.239 Y137.904 E23.93552
G1 X123.481 Y137.904 E23.98364
G1 X142.864 Y157.287 E25.72397
G1 X142.106 Y157.287 E25.77209
G1 X122.724 Y137.904 E27.51237
G1 X121.966 Y137.904 E27.56049
G1 X141.349 Y157.287 E29.30082
G1 X140.591 Y157.287 E29.34894
G1 X121.208 Y137.904 E31.08927
G1 X120.45 Y137.904 E31.13739
G1 X139.833 Y157.287 E32.87772
G1 X139.075 Y157.287 E32.92584
G1 X119.693 Y137.904 E34.66612
G1 X118.935 Y137.904 E34.71424
G1 X138.318 Y157.287 E36.45457
G1 X137.56 Y157.287 E36.50269
G1 X118.177 Y137.904 E38.24302
G1 X117.419 Y137.904 E38.29114
G1 X136.802 Y157.287 E40.03147
G1 X136.044 Y157.287 E40.07959
G1 X116.661 Y137.904 E41.81992
G1 X115.904 Y137.904 E41.86798
G1 X135.287 Y157.287 E43.60831
G1 X134.529 Y157.287 E43.65643
G1 X115.146 Y137.904 E45.39676
G1 X114.388 Y137.904 E45.44488
G1 X133.771 Y157.287 E47.18521
G1 X133.013 Y157.287 E47.23333
G1 X113.63 Y137.904 E48.97366
G1 X112.873 Y137.904 E49.02172
G1 X132.256 Y157.287 E50.76205
G1 X131.498 Y157.287 E50.81017
G1 X112.115 Y137.904 E52.5505
G1 X111.357 Y137.904 E52.59862
G1 X130.74 Y157.287 E54.33895
G1 X129.982 Y157.287 E54.38707
G1 X110.599 Y137.904 E56.1274
G1 X109.842 Y137.904 E56.17546
G1 X129.225 Y157.287 E57.91579
G1 X128.467 Y157.287 E57.96391
G1 X109.084 Y137.904 E59.70424
G1 X108.326 Y137.904 E59.75236
G1 X127.709 Y157.287 E61.49269
G1 X126.951 Y157.287 E61.54081
G1 X107.568 Y137.904 E63.28114
G1 X106.811 Y137.904 E63.3292
G1 X126.193 Y157.287 E65.06948
G1 X125.436 Y157.287 E65.11754
G1 X106.053 Y137.904 E66.85787
G1 X105.295 Y137.904 E66.90599
G1 X124.678 Y157.287 E68.64632
G1 X123.92 Y157.287 E68.69444
G1 X104.537 Y137.904 E70.43477
G1 X103.78 Y137.904 E70.48283
G1 X123.162 Y157.287 E72.22311
G1 X122.405 Y157.287 E72.27117
