; generated by PrusaSlicer 2.9.0 on 2025-01-18 at 23:45:22 UTC

; 

; external perimeters extrusion width = 0.36mm
; perimeters extrusion width = 0.36mm
; infill extrusion width = 0.36mm
; solid infill extrusion width = 0.36mm
; top infill extrusion width = 0.36mm
; support material extrusion width = 0.40mm
; first layer extrusion width = 0.60mm

; external perimeters extrusion width = 0.36mm
; perimeters extrusion width = 0.36mm
; infill extrusion width = 0.36mm
; solid infill extrusion width = 0.36mm
; top infill extrusion width = 0.36mm
; support material extrusion width = 0.40mm
; first layer extrusion width = 0.60mm

M190 S75 ; set bed temperature and wait for it to be reached
M104 S235 ; set temperature
;TYPE:Custom
G28 ; Auto home
G1 Z15 F300 ;Move up slightly
G90 ;Switch to absolute positioning
M82 ;Extruder absolute mode
G0 X10 Y20 F1500 ;Move to X10 Y20 at 1500mms
G1 Z0.5 ;Move Z to 0.8
G1 F400 X160 E35 ;Extrude a line of filament
G1 F1200 Z10 ;Raise Z
M109 S235 ; set temperature and wait for it to be reached
G21 ; set units to millimeters
G90 ; use absolute coordinates
M82 ; use absolute distances for extrusion
G92 E0
; Filament gcode
M107
;LAYER_CHANGE
;Z:0.3
;HEIGHT:0.3
G1 E-1 F1800
G1 Z.3 F6600
G1 X87.325 Y51.759
G1 E.00001 F1800
;TYPE:Skirt/Brim
;WIDTH:0.6
G1 X89.111 Y50.117 E.15397
G1 X91.332 Y49.139 E.30799
G1 X93.166 Y48.908 E.4253
G1 X148.559 Y48.908 E3.94082
G1 X150.953 Y49.306 E4.09484
G1 X153.09 Y50.455 E4.24883
G1 X154.742 Y52.233 E4.40286
G1 X155.73 Y54.449 E4.55684
G1 X155.97 Y56.319 E4.67649
G1 X155.97 Y106.355 E7.85203
G1 X155.695 Y162.672 E11.42624
G1 X155.286 Y165.064 E11.58025
G1 X154.127 Y167.195 E11.7342
G1 X152.34 Y168.838 E11.88826
G1 X150.119 Y169.815 E12.04225
G1 X148.285 Y170.046 E12.15956
G1 X92.892 Y170.046 E15.67508
G1 X90.498 Y169.649 E15.82909
G1 X88.361 Y168.499 E15.98311
G1 X86.71 Y166.721 E16.1371
G1 X85.721 Y164.505 E16.29111
G1 X85.482 Y162.636 E16.41069
G1 X85.482 Y112.6 E19.58623
G1 X85.756 Y56.283 E23.16044
G1 X86.165 Y53.891 E23.31445
G1 X87.296 Y51.812 E23.46465
G1 X87.296 Y51.812 F6600
G1 X87.779 Y52.087
G1 F1800
G1 X87.855 Y51.954 E23.47437
G1 X89.624 Y50.427 E23.62268
G1 X91.802 Y49.581 E23.77097
G1 X93.166 Y49.444 E23.85797
G1 X148.559 Y49.444 E27.37349
G1 X150.862 Y49.841 E27.52181
G1 X152.899 Y50.987 E27.67014
G1 X154.434 Y52.748 E27.8184
G1 X155.291 Y54.922 E27.96671
G1 X155.434 Y56.319 E28.05583
G1 X155.434 Y106.352 E31.23118
G1 X155.16 Y162.669 E34.80539
G1 X154.751 Y164.97 E34.95371
G1 X153.596 Y167.001 E35.10199
G1 X151.827 Y168.528 E35.2503
G1 X149.649 Y169.374 E35.39859
G1 X148.285 Y169.51 E35.48559
G1 X92.892 Y169.51 E39.00111
G1 X90.589 Y169.113 E39.14943
G1 X88.553 Y167.968 E39.29768
G1 X87.017 Y166.206 E39.44603
G1 X86.161 Y164.033 E39.59425
G1 X86.017 Y162.636 E39.68338
G1 X86.017 Y112.602 E42.85879
G1 X86.292 Y56.285 E46.433
G1 X86.7 Y53.985 E46.58125
G1 X87.75 Y52.139 E46.71603
G1 X87.75 Y52.139 F6600
G1 X88.226 Y52.423
G1 F1800
G1 X88.385 Y52.156 E46.73575
G1 X90.134 Y50.752 E46.87809
G1 X93.166 Y49.98 E47.07666
G1 X148.559 Y49.98 E50.59218
G1 X150.767 Y50.377 E50.73456
G1 X152.698 Y51.517 E50.87687
G1 X154.111 Y53.259 E51.01922
G1 X154.898 Y56.319 E51.21974
G1 X154.898 Y106.35 E54.39496
G1 X154.624 Y162.666 E57.96911
G1 X154.216 Y164.872 E58.11149
G1 X153.066 Y166.798 E58.25386
G1 X151.317 Y168.202 E58.3962
G1 X148.285 Y168.975 E58.59478
G1 X92.892 Y168.975 E62.1103
G1 X90.684 Y168.578 E62.25268
G1 X88.753 Y167.437 E62.39503
G1 X87.34 Y165.695 E62.53738
G1 X86.553 Y162.636 E62.73784
G1 X86.553 Y112.605 E65.91306
G1 X86.827 Y56.288 E69.48727
G1 X87.235 Y54.082 E69.62965
G1 X88.195 Y52.475 E69.74845
G1 X88.195 Y52.475 F6600
G1 X88.662 Y52.769
G1 F1800
G1 X88.914 Y52.369 E69.77845
G1 X90.64 Y51.094 E69.91464
G1 X93.166 Y50.515 E70.07911
G1 X148.559 Y50.515 E73.59463
G1 X150.668 Y50.912 E73.73083
G1 X152.488 Y52.047 E73.86696
G1 X153.771 Y53.767 E74.00314
G1 X154.363 Y56.319 E74.1694
G1 X154.363 Y106.347 E77.34443
G1 X154.088 Y162.664 E80.91864
G1 X153.682 Y164.77 E81.05476
G1 X152.537 Y166.585 E81.19096
G1 X150.812 Y167.86 E81.3271
G1 X148.285 Y168.439 E81.49163
G1 X92.892 Y168.439 E85.00715
G1 X90.783 Y168.042 E85.14335
G1 X88.963 Y166.907 E85.27948
G1 X87.68 Y165.188 E85.41561
G1 X87.089 Y162.636 E85.58186
G1 X87.089 Y112.607 E88.75696
G1 X87.363 Y56.29 E92.33117
G1 X87.77 Y54.184 E92.4673
G1 X88.63 Y52.82 E92.56964
G1 X88.63 Y52.82 F6600
G1 X89.085 Y53.125
G1 F1800
G1 X89.442 Y52.593 E92.6103
G1 X91.139 Y51.456 E92.73994
G1 X93.166 Y51.051 E92.87113
G1 X148.559 Y51.051 E96.38665
G1 X150.564 Y51.447 E96.51636
G1 X152.267 Y52.576 E96.64603
G1 X153.412 Y54.268 E96.77569
G1 X153.827 Y56.319 E96.90849
G1 X153.827 Y106.344 E100.08333
G1 X153.553 Y162.661 E103.65754
G1 X153.147 Y164.664 E103.78725
G1 X152.009 Y166.361 E103.91692
G1 X150.312 Y167.498 E104.04656
G1 X148.285 Y167.903 E104.17775
G1 X92.892 Y167.903 E107.69327
G1 X90.888 Y167.507 E107.82291
G1 X89.185 Y166.378 E107.95258
G1 X88.04 Y164.686 E108.08224
G1 X87.624 Y162.636 E108.215
G1 X87.624 Y112.61 E111.38991
G1 X87.899 Y56.293 E114.96412
G1 X88.305 Y54.291 E115.09376
G1 X89.052 Y53.175 E115.17899
G1 E114.17899
G92 E0
G1 X89.052 Y53.175 F6600
G92 E0
G1 X95.073 Y58.226
G1 E1 F1800
;TYPE:Perimeter
;WIDTH:0.6
G1 X146.653 Y58.226 E4.27353
G1 X146.653 Y81.319 E5.73913
G1 X146.653 Y104.412 E7.20473
G1 X95.073 Y104.412 E10.47826
G1 X95.073 Y58.286 E13.40565
G1 X95.073 Y58.286 F6600
G1 X94.538 Y57.69
G1 F1800
G1 X147.188 Y57.69 E16.74709
G1 X147.188 Y81.319 E18.24671
G1 X147.188 Y104.947 E19.74626
G1 X94.538 Y104.947 E23.0877
G1 X94.538 Y57.75 E26.08306
G1 X94.538 Y57.75 F6600
G1 X94.002 Y57.154
G1 F1800
G1 X147.724 Y57.154 E29.49253
G1 X147.724 Y81.319 E31.02616
G1 X147.724 Y105.483 E32.55973
G1 X94.002 Y105.483 E35.9692
G1 X94.002 Y57.214 E39.0326
G1 X94.002 Y57.214 F6600
G1 X93.466 Y56.619
;TYPE:External perimeter
G1 F1800
G1 X148.259 Y56.619 E42.51004
G1 X148.259 Y81.319 E44.07763
G1 X148.259 Y106.019 E45.64522
G1 X93.466 Y106.019 E49.12266
G1 X93.466 Y56.679 E52.25403
G1 X93.862 Y56.619 F6600
G1 E51.25403 F1800
G92 E0
G1 X146.492 Y59.472 F6600
G1 E1 F1800
;TYPE:Solid infill
;WIDTH:0.601505
G1 X145.647 Y58.627 E1.07605
G1 X144.887 Y58.627 E1.12442
G1 X146.251 Y59.991 E1.24719
G1 X146.251 Y60.75 E1.2955
G1 X144.128 Y58.627 E1.48658
G1 X143.368 Y58.627 E1.53495
G1 X146.251 Y61.51 E1.79444
G1 X146.251 Y62.27 E1.84281
G1 X142.609 Y58.627 E2.17065
G1 X141.849 Y58.627 E2.21902
G1 X146.251 Y63.029 E2.61522
G1 X146.251 Y63.789 E2.66359
G1 X141.089 Y58.627 E3.1282
G1 X140.33 Y58.627 E3.17651
G1 X146.251 Y64.548 E3.70943
G1 X146.251 Y65.308 E3.7578
G1 X139.57 Y58.627 E4.35913
G1 X138.81 Y58.627 E4.4075
G1 X146.251 Y66.068 E5.07723
G1 X146.251 Y66.827 E5.12554
G1 X138.051 Y58.627 E5.86358
G1 X137.291 Y58.627 E5.91195
G1 X146.251 Y67.587 E6.7184
G1 X146.251 Y68.346 E6.76671
G1 X136.532 Y58.627 E7.64147
G1 X135.772 Y58.627 E7.68984
G1 X146.251 Y69.106 E8.63301
G1 X146.251 Y69.866 E8.68138
G1 X135.012 Y58.627 E9.69295
G1 X134.253 Y58.627 E9.74126
G1 X146.251 Y70.625 E10.82114
G1 X146.251 Y71.385 E10.86951
G1 X133.493 Y58.627 E12.0178
G1 X132.734 Y58.627 E12.06611
G1 X146.251 Y72.144 E13.28271
G1 X146.251 Y72.904 E13.33108
G1 X131.974 Y58.627 E14.61609
G1 X131.214 Y58.627 E14.66446
G1 X146.251 Y73.664 E16.01787
G1 X146.251 Y74.423 E16.06618
G1 X130.455 Y58.627 E17.4879
G1 X129.695 Y58.627 E17.53627
G1 X146.251 Y75.183 E19.0264
G1 X146.251 Y75.943 E19.07477
G1 X128.936 Y58.627 E20.63326
G1 X128.176 Y58.627 E20.68163
G1 X146.251 Y76.702 E22.30848
G1 X146.251 Y77.462 E22.35685
G1 X127.416 Y58.627 E24.0521
G1 X126.657 Y58.627 E24.10041
G1 X146.251 Y78.221 E25.86398
G1 X146.251 Y78.981 E25.91235
G1 X125.897 Y58.627 E27.74432
G1 X125.138 Y58.627 E27.79263
G1 X146.251 Y79.741 E29.69296
G1 X146.251 Y80.5 E29.74127
G1 X124.378 Y58.627 E31.70996
G1 X123.618 Y58.627 E31.75833
G1 X146.251 Y81.26 E33.79542
G1 X146.251 Y82.019 E33.84373
G1 X122.859 Y58.627 E35.94914
G1 X122.099 Y58.627 E35.99751
G1 X146.251 Y82.779 E38.17132
G1 X146.251 Y83.539 E38.21969
G1 X121.339 Y58.627 E40.4619
G1 X120.58 Y58.627 E40.51021
G1 X146.251 Y84.298 E42.82074
G1 X146.251 Y85.058 E42.86911
G1 X119.82 Y58.627 E45.24804
G1 X119.061 Y58.627 E45.29635
G1 X146.251 Y85.817 E47.7436
G1 X146.251 Y86.577 E47.79197
G1 X118.301 Y58.627 E50.30762
G1 X117.541 Y58.627 E50.35599
G1 X146.251 Y87.337 E52.94004
G1 X146.251 Y88.096 E52.98835
G1 X116.782 Y58.627 E55.64072
G1 X116.022 Y58.627 E55.68909
G1 X146.251 Y88.856 E58.40986
G1 X146.251 Y89.615 E58.45817
G1 X115.263 Y58.627 E61.24726
G1 X114.503 Y58.627 E61.29563
G1 X146.251 Y90.375 E64.15312
G1 X146.251 Y91.135 E64.20149
G1 X113.743 Y58.627 E67.12738
G1 X112.984 Y58.627 E67.17569
G1 X146.251 Y91.894 E70.1699
G1 X146.251 Y92.654 E70.21827
G1 X112.224 Y58.627 E73.28088
G1 X111.465 Y58.627 E73.32919
G1 X146.251 Y93.414 E76.46016
G1 X146.251 Y94.173 E76.50847
G1 X110.705 Y58.627 E79.7078
G1 X109.945 Y58.627 E79.75617
G1 X146.251 Y94.933 E83.0239
G1 X146.251 Y95.692 E83.07221
G1 X109.186 Y58.627 E86.40826
G1 X108.426 Y58.627 E86.45663
G1 X146.251 Y96.452 E89.86108
G1 X146.251 Y97.212 E89.90945
G1 X107.667 Y58.627 E93.38226
G1 X106.907 Y58.627 E93.43063
G1 X146.251 Y97.971 E96.9718
G1 X146.251 Y98.731 E97.02017
G1 X106.147 Y58.627 E100.62975
G1 X105.388 Y58.627 E100.67806
G1 X146.251 Y99.49 E104.35595
G1 X146.251 Y100.25 E104.40432
G1 X104.628 Y58.627 E108.15061
G1 X103.868 Y58.627 E108.19898
G1 X146.251 Y101.01 E112.01368
G1 X146.251 Y101.769 E112.06199
G1 X103.109 Y58.627 E115.945
G1 X102.349 Y58.627 E115.99337
G1 X146.251 Y102.529 E119.94479
G1 X146.251 Y103.288 E119.9931
G1 X101.59 Y58.627 E124.01283
G1 X100.83 Y58.627 E124.0612
G1 X146.213 Y104.01 E128.14591
G1 X145.453 Y104.01 E128.19428
G1 X100.07 Y58.627 E132.27899
G1 X99.311 Y58.627 E132.3273
G1 X144.694 Y104.01 E136.41201
G1 X143.934 Y104.01 E136.46038
G1 X98.551 Y58.627 E140.54509
G1 X97.792 Y58.627 E140.5934
G1 X143.174 Y104.01 E144.67807
G1 X142.415 Y104.01 E144.72638
G1 X97.032 Y58.627 E148.81109
G1 X96.272 Y58.627 E148.85946
G1 X141.655 Y104.01 E152.94417
G1 X140.896 Y104.01 E152.99248
G1 X95.513 Y58.627 E157.07719
G1 X95.475 Y58.627 E157.07961
G1 X95.475 Y59.349 E157.12556
G1 X140.136 Y104.01 E161.14529
G1 X139.376 Y104.01 E161.19366
G1 X95.475 Y60.109 E165.14499
G1 X95.475 Y60.868 E165.1933
G1 X138.617 Y104.01 E169.07631
G1 X137.857 Y104.01 E169.12468
G1 X95.475 Y61.628 E172.93929
G1 X95.475 Y62.387 E172.9876
G1 X137.098 Y104.01 E176.73389
G1 X136.338 Y104.01 E176.78226
G1 X95.475 Y63.147 E180.46015
G1 X95.475 Y63.907 E180.50852
G1 X135.578 Y104.01 E184.11801
G1 X134.819 Y104.01 E184.16632
G1 X95.475 Y64.666 E187.70749
G1 X95.475 Y65.426 E187.75586
G1 X134.059 Y104.01 E191.22863
G1 X133.3 Y104.01 E191.27694
G1 X95.475 Y66.185 E194.68139
G1 X95.475 Y66.945 E194.72976
G1 X132.54 Y104.01 E198.06581
G1 X131.78 Y104.01 E198.11418
G1 X95.475 Y67.705 E201.38182
G1 X95.475 Y68.464 E201.43013
G1 X131.021 Y104.01 E204.62946
G1 X130.261 Y104.01 E204.67783
G1 X95.475 Y69.224 E207.80876
G1 X95.475 Y69.983 E207.85707
G1 X129.502 Y104.01 E210.91968
G1 X128.742 Y104.01 E210.96805
G1 X95.475 Y70.743 E213.96226
G1 X95.475 Y71.503 E214.01063
G1 X127.982 Y104.01 E216.93643
G1 X127.223 Y104.01 E216.98474
G1 X95.475 Y72.262 E219.84223
G1 X95.475 Y73.022 E219.8906
G1 X126.463 Y104.01 E222.67969
G1 X125.704 Y104.01 E222.728
G1 X95.475 Y73.782 E225.44873
G1 X95.475 Y74.541 E225.49704
G1 X124.944 Y104.01 E228.14941
G1 X124.184 Y104.01 E228.19778
G1 X95.475 Y75.301 E230.78174
G1 X95.475 Y76.06 E230.83005
G1 X123.425 Y104.01 E233.3457
G1 X122.665 Y104.01 E233.39407
G1 X95.475 Y76.82 E235.84132
G1 X95.475 Y77.58 E235.88969
G1 X121.905 Y104.01 E238.26853
G1 X121.146 Y104.01 E238.31684
G1 X95.475 Y78.339 E240.62737
G1 X95.475 Y79.099 E240.67574
G1 X120.386 Y104.01 E242.91786
G1 X119.627 Y104.01 E242.96617
G1 X95.475 Y79.858 E245.13998
G1 X95.475 Y80.618 E245.18835
G1 X118.867 Y104.01 E247.29376
G1 X118.107 Y104.01 E247.34213
G1 X95.475 Y81.378 E249.37913
G1 X95.475 Y82.137 E249.42744
G1 X117.348 Y104.01 E251.39613
G1 X116.588 Y104.01 E251.4445
G1 X95.475 Y82.897 E253.34478
G1 X95.475 Y83.656 E253.39309
G1 X115.829 Y104.01 E255.22506
G1 X115.069 Y104.01 E255.27343
G1 X95.475 Y84.416 E257.037
G1 X95.475 Y85.176 E257.08537
G1 X114.309 Y104.01 E258.78053
G1 X113.55 Y104.01 E258.82884
G1 X95.475 Y85.935 E260.45569
G1 X95.475 Y86.695 E260.50406
G1 X112.79 Y104.01 E262.0625
G1 X112.031 Y104.01 E262.11081
G1 X95.475 Y87.454 E263.60094
G1 X95.475 Y88.214 E263.64931
G1 X111.271 Y104.01 E265.07103
G1 X110.511 Y104.01 E265.1194
G1 X95.475 Y88.974 E266.47272
G1 X95.475 Y89.733 E266.52103
G1 X109.752 Y104.01 E267.80604
G1 X108.992 Y104.01 E267.85441
G1 X95.475 Y90.493 E269.07101
G1 X95.475 Y91.253 E269.11938
G1 X108.233 Y104.01 E270.26762
G1 X107.473 Y104.01 E270.31599
G1 X95.475 Y92.012 E271.39587
G1 X95.475 Y92.772 E271.44424
G1 X106.713 Y104.01 E272.45572
G1 X105.954 Y104.01 E272.50403
G1 X95.475 Y93.531 E273.4472
G1 X95.475 Y94.291 E273.49557
G1 X105.194 Y104.01 E274.37033
G1 X104.434 Y104.01 E274.4187
G1 X95.475 Y95.051 E275.22506
G1 X95.475 Y95.81 E275.27337
G1 X103.675 Y104.01 E276.01141
G1 X102.915 Y104.01 E276.05978
G1 X95.475 Y96.57 E276.72942
G1 X95.475 Y97.329 E276.77773
G1 X102.156 Y104.01 E277.37906
G1 X101.396 Y104.01 E277.42743
G1 X95.475 Y98.089 E277.96035
G1 X95.475 Y98.849 E278.00872
G1 X100.636 Y104.01 E278.47324
G1 X99.877 Y104.01 E278.52155
G1 X95.475 Y99.608 E278.91775
G1 X95.475 Y100.368 E278.96612
G1 X99.117 Y104.01 E279.29392
G1 X98.358 Y104.01 E279.34223
G1 X95.475 Y101.127 E279.60172
G1 X95.475 Y101.887 E279.65009
G1 X97.598 Y104.01 E279.84117
G1 X96.838 Y104.01 E279.88954
G1 X95.475 Y102.647 E280.01222
G1 X95.475 Y103.406 E280.06053
G1 X96.32 Y104.251 E280.13658
G1 E279.13658
G92 E0
G1 X96.32 Y104.251 F6600
G92 E0
G1 X146.378 Y114.542
G1 E1 F1800
;TYPE:Perimeter
;WIDTH:0.6
G1 X146.378 Y137.636 E2.46566
G1 X146.378 Y160.729 E3.93126
G1 X94.799 Y160.729 E7.20473
G1 X94.799 Y114.542 E10.13599
G1 X146.318 Y114.542 E13.40565
G1 X146.318 Y114.542 F6600
G1 X146.914 Y114.007
G1 F1800
G1 X146.914 Y137.636 E14.90527
G1 X146.914 Y161.264 E16.40482
G1 X94.263 Y161.264 E19.74632
G1 X94.263 Y114.007 E22.74549
G1 X146.854 Y114.007 E26.08318
G1 X146.854 Y114.007 F6600
G1 X147.449 Y113.471
G1 F1800
G1 X147.449 Y137.636 E27.61681
G1 X147.449 Y161.8 E29.15038
G1 X93.728 Y161.8 E32.55979
G1 X93.728 Y113.471 E35.62699
G1 X147.389 Y113.471 E39.03259
G1 X147.389 Y113.471 F6600
G1 X147.985 Y112.936
;TYPE:External perimeter
G1 F1800
G1 X147.985 Y137.636 E40.60018
G1 X147.985 Y162.336 E42.16777
G1 X93.192 Y162.336 E45.64521
G1 X93.192 Y112.936 E48.78039
G1 X147.925 Y112.936 E52.25402
G1 X147.984 Y113.331 F6600
G1 E51.25402 F1800
G92 E0
G1 X146.217 Y115.789 F6600
G1 E1 F1800
;TYPE:Solid infill
;WIDTH:0.601505
G1 X145.373 Y114.944 E1.07601
G1 X144.613 Y114.944 E1.12438
G1 X145.976 Y116.308 E1.2471
G1 X145.976 Y117.067 E1.29541
G1 X143.853 Y114.944 E1.48649
G1 X143.094 Y114.944 E1.5348
G1 X145.976 Y117.827 E1.79424
G1 X145.976 Y118.586 E1.84255
G1 X142.334 Y114.944 E2.17035
G1 X141.575 Y114.944 E2.21866
G1 X145.976 Y119.346 E2.61482
G1 X145.976 Y120.106 E2.66319
G1 X140.815 Y114.944 E3.12775
G1 X140.055 Y114.944 E3.17612
G1 X145.976 Y120.865 E3.70904
G1 X145.976 Y121.625 E3.75741
G1 X139.296 Y114.944 E4.35869
G1 X138.536 Y114.944 E4.40706
G1 X145.976 Y122.385 E5.07674
G1 X145.976 Y123.144 E5.12505
G1 X137.776 Y114.944 E5.86309
G1 X137.017 Y114.944 E5.9114
G1 X145.976 Y123.904 E6.7178
G1 X145.976 Y124.663 E6.76611
G1 X136.257 Y114.944 E7.64087
G1 X135.498 Y114.944 E7.68918
G1 X145.976 Y125.423 E8.6323
G1 X145.976 Y126.183 E8.68067
G1 X134.738 Y114.944 E9.6922
G1 X133.978 Y114.944 E9.74057
G1 X145.976 Y126.942 E10.82045
G1 X145.976 Y127.702 E10.86882
G1 X133.219 Y114.944 E12.01706
G1 X132.459 Y114.944 E12.06543
G1 X145.976 Y128.461 E13.28203
G1 X145.976 Y129.221 E13.3304
G1 X131.7 Y114.944 E14.61536
G1 X130.94 Y114.944 E14.66373
G1 X145.976 Y129.981 E16.0171
G1 X145.976 Y130.74 E16.06541
G1 X130.18 Y114.944 E17.48713
G1 X129.421 Y114.944 E17.53544
