; generated by PrusaSlicer 2.8.1+win64 on 2025-01-25 at 15:23:07 UTC

; 

; external perimeters extrusion width = 0.36mm
; perimeters extrusion width = 0.36mm
; infill extrusion width = 0.36mm
; solid infill extrusion width = 0.36mm
; top infill extrusion width = 0.36mm
; support material extrusion width = 0.40mm
; first layer extrusion width = 0.60mm

M190 S75 ; set bed temperature and wait for it to be reached
M104 S235 ; set temperature
;TYPE:Custom
G28 ; Auto home
G1 Z15 F300 ;Move up slightly
G90 ;Switch to absolute positioning
M82 ;Extruder absolute mode
G0 X10 Y20 F1500 ;Move to X10 Y20 at 1500mms
G1 Z0.5 ;Move Z to 0.8
G1 F400 X160 E35 ;Extrude a line of filament
G1 F1200 Z10 ;Raise Z
M109 S235 ; set temperature and wait for it to be reached
G21 ; set units to millimeters
G90 ; use absolute coordinates
M82 ; use absolute distances for extrusion
G92 E0
; Filament gcode
M107
;LAYER_CHANGE
;Z:0.2
;HEIGHT:0.2
G1 E-1 F1800
G1 Z.2 F4800
G1 X39.509 Y52.991
G1 E0 F1800
;TYPE:Skirt/Brim
;WIDTH:0.6
G1 F1500
G1 X41.303 Y51.856 E.09342
G1 X44.034 Y50.593 E.22583
G1 X46.06 Y49.961 E.31922
G1 X48.143 Y49.551 E.41264
G1 X50.258 Y49.37 E.50605
G1 X51.611 Y49.376 E.56559
G1 X53.608 Y49.551 E.65381
G1 X55.691 Y49.961 E.74723
G1 X57.717 Y50.593 E.84062
G1 X59.664 Y51.44 E.93405
G1 X61.507 Y52.493 E1.02746
G1 X63.225 Y53.739 E1.12085
G1 X65.41 Y55.808 E1.25327
G1 X66.209 Y56.75 E1.30763
G1 X67.44 Y58.479 E1.40103
G1 X68.477 Y60.331 E1.49443
G1 X69.307 Y62.285 E1.58785
G1 X70.112 Y65.185 E1.72029
G1 X70.408 Y67.286 E1.81366
G1 X70.475 Y69.408 E1.90709
G1 X70.408 Y70.641 E1.96143
G1 X70.112 Y72.743 E2.05484
G1 X69.591 Y74.801 E2.14826
G1 X68.85 Y76.79 E2.24166
G1 X67.44 Y79.449 E2.3741
G1 X66.209 Y81.178 E2.4675
G1 X64.799 Y82.765 E2.56092
G1 X63.225 Y84.189 E2.65432
G1 X62.144 Y85.003 E2.71387
G1 X60.448 Y86.072 E2.80209
G1 X58.543 Y87.006 E2.89545
G1 X56.547 Y87.73 E2.98888
G1 X54.485 Y88.233 E3.08228
G1 X52.38 Y88.51 E3.17571
G1 X50.258 Y88.558 E3.26911
G1 X47.267 Y88.233 E3.4015
G1 X45.204 Y87.73 E3.49494
G1 X43.209 Y87.006 E3.58833
G1 X41.303 Y86.072 E3.68173
G1 X39.509 Y84.936 E3.77517
G1 X37.849 Y83.614 E3.86855
G1 X36.871 Y82.679 E3.92809
G1 X35.542 Y81.178 E4.01631
G1 X34.311 Y79.449 E4.10971
G1 X33.275 Y77.596 E4.20313
G1 X32.445 Y75.643 E4.29651
G1 X31.831 Y73.611 E4.38992
G1 X31.44 Y71.525 E4.48331
G1 X31.277 Y68.52 E4.61574
G1 X31.344 Y67.286 E4.67012
G1 X31.64 Y65.185 E4.76349
G1 X32.161 Y63.127 E4.85691
G1 X32.902 Y61.138 E4.95031
G1 X33.853 Y59.24 E5.04373
G1 X35.004 Y57.457 E5.13712
G1 X36.342 Y55.808 E5.23057
G1 X37.849 Y54.314 E5.32395
G1 X39.462 Y53.029 E5.4147
G1 X39.462 Y53.029 F4800
G1 X39.809 Y53.463
G1 F1500
G1 X39.822 Y53.452 E5.41545
G1 X41.564 Y52.348 E5.50621
G1 X44.24 Y51.11 E5.63596
G1 X46.209 Y50.497 E5.72671
G1 X48.233 Y50.101 E5.81747
G1 X50.288 Y49.926 E5.90823
G1 X51.581 Y49.932 E5.96513
G1 X53.518 Y50.101 E6.05069
G1 X55.542 Y50.497 E6.14145
G1 X57.511 Y51.11 E6.2322
G1 X59.403 Y51.932 E6.32298
G1 X61.194 Y52.954 E6.41372
G1 X62.865 Y54.163 E6.50448
G1 X65.005 Y56.191 E6.63422
G1 X66.304 Y57.794 E6.72501
G1 X67.024 Y58.868 E6.78191
G1 X67.971 Y60.565 E6.86743
G1 X68.779 Y62.463 E6.95821
G1 X69.568 Y65.304 E7.08796
G1 X69.854 Y67.347 E7.17874
G1 X69.918 Y69.408 E7.26948
G1 X69.758 Y71.464 E7.36023
G1 X69.377 Y73.491 E7.45099
G1 X68.779 Y75.465 E7.54175
G1 X68.344 Y76.556 E7.59344
G1 X67.421 Y78.4 E7.68418
G1 X66.304 Y80.134 E7.77495
G1 X65.005 Y81.736 E7.86571
G1 X63.542 Y83.189 E7.95645
G1 X61.929 Y84.475 E8.04723
G1 X60.188 Y85.58 E8.13797
G1 X57.511 Y86.818 E8.26776
G1 X56.284 Y87.225 E8.32465
G1 X54.395 Y87.683 E8.41018
G1 X52.35 Y87.954 E8.50096
G1 X50.288 Y88.002 E8.59172
G1 X47.357 Y87.683 E8.72146
G1 X45.353 Y87.193 E8.81224
G1 X43.415 Y86.489 E8.90297
G1 X41.564 Y85.58 E8.99372
G1 X39.822 Y84.475 E9.0845
G1 X38.21 Y83.189 E9.17524
G1 X37.275 Y82.295 E9.23217
G1 X35.985 Y80.841 E9.31771
G1 X34.789 Y79.162 E9.40842
G1 X33.78 Y77.363 E9.49919
G1 X32.972 Y75.465 E9.58997
G1 X32.375 Y73.491 E9.68072
G1 X31.994 Y71.464 E9.77148
G1 X31.834 Y68.52 E9.90122
G1 X31.897 Y67.347 E9.95291
G1 X32.184 Y65.304 E10.0437
G1 X32.689 Y63.305 E10.13443
G1 X33.407 Y61.372 E10.22517
G1 X34.331 Y59.527 E10.31597
G1 X35.448 Y57.794 E10.4067
G1 X36.746 Y56.191 E10.49747
G1 X38.21 Y54.738 E10.58824
G1 X39.762 Y53.5 E10.6756
G1 X39.762 Y53.5 F4800
G1 X40.109 Y53.934
G1 F1500
G1 X40.135 Y53.914 E10.67704
G1 X41.825 Y52.84 E10.76516
G1 X44.446 Y51.628 E10.89223
G1 X46.359 Y51.034 E10.98038
G1 X48.324 Y50.651 E11.06848
G1 X50.319 Y50.482 E11.15658
G1 X51.551 Y50.489 E11.2108
G1 X53.428 Y50.651 E11.29371
G1 X55.393 Y51.034 E11.38181
G1 X57.305 Y51.628 E11.46991
G1 X59.142 Y52.424 E11.55801
G1 X60.881 Y53.415 E11.64609
G1 X62.504 Y54.588 E11.73421
G1 X64.601 Y56.574 E11.86131
G1 X65.86 Y58.131 E11.94942
G1 X66.547 Y59.155 E12.00368
G1 X67.466 Y60.799 E12.08656
G1 X68.251 Y62.641 E12.17467
G1 X68.833 Y64.556 E12.26275
G1 X69.204 Y66.524 E12.35088
G1 X69.36 Y69.408 E12.47798
G1 X69.204 Y71.404 E12.56608
G1 X68.833 Y73.371 E12.65416
G1 X68.535 Y74.445 E12.70321
G1 X67.839 Y76.322 E12.7913
G1 X66.486 Y78.874 E12.91841
G1 X65.323 Y80.504 E13.00652
G1 X63.99 Y81.998 E13.09463
G1 X62.504 Y83.34 E13.18274
G1 X61.617 Y84.014 E13.23176
G1 X59.927 Y85.087 E13.31985
G1 X58.13 Y85.971 E13.40798
G1 X56.249 Y86.656 E13.49607
G1 X54.305 Y87.133 E13.58415
G1 X52.32 Y87.398 E13.67228
G1 X50.319 Y87.446 E13.76036
G1 X47.447 Y87.133 E13.88749
G1 X45.503 Y86.656 E13.97557
G1 X43.621 Y85.971 E14.0637
G1 X41.825 Y85.087 E14.15179
G1 X40.135 Y84.014 E14.23988
G1 X38.57 Y82.765 E14.32799
G1 X37.68 Y81.912 E14.38224
G1 X36.429 Y80.504 E14.46512
G1 X35.266 Y78.874 E14.55323
G1 X34.286 Y77.129 E14.6413
G1 X33.5 Y75.287 E14.72943
G1 X32.919 Y73.371 E14.81754
G1 X32.547 Y71.404 E14.90563
G1 X32.391 Y68.52 E15.03273
G1 X32.451 Y67.407 E15.08178
G1 X32.728 Y65.424 E15.16989
G1 X33.217 Y63.483 E15.25797
G1 X33.913 Y61.605 E15.3461
G1 X34.808 Y59.815 E15.43417
G1 X35.891 Y58.131 E15.52228
G1 X37.15 Y56.574 E15.61039
G1 X38.57 Y55.163 E15.69848
G1 X40.062 Y53.972 E15.78249
G1 X40.062 Y53.972 F4800
G1 X40.409 Y54.406
G1 F1500
G1 X40.447 Y54.375 E15.78465
G1 X42.086 Y53.333 E15.87012
G1 X44.653 Y52.145 E15.99459
G1 X46.508 Y51.571 E16.08004
G1 X48.414 Y51.201 E16.16548
G1 X50.349 Y51.038 E16.25093
G1 X51.521 Y51.045 E16.30251
G1 X53.338 Y51.201 E16.38276
G1 X55.244 Y51.571 E16.4682
G1 X57.099 Y52.145 E16.55365
G1 X58.881 Y52.917 E16.63911
G1 X60.569 Y53.876 E16.72454
G1 X62.143 Y55.013 E16.80999
G1 X64.197 Y56.958 E16.93447
G1 X65.417 Y58.468 E17.0199
G1 X66.069 Y59.442 E17.07148
G1 X66.96 Y61.033 E17.15172
G1 X67.723 Y62.819 E17.23719
G1 X68.48 Y65.544 E17.36165
G1 X68.746 Y67.467 E17.44708
G1 X68.803 Y69.408 E17.53253
G1 X68.65 Y71.344 E17.61799
G1 X68.289 Y73.252 E17.70344
G1 X68.007 Y74.267 E17.7498
G1 X67.333 Y76.088 E17.83525
G1 X66.466 Y77.826 E17.92072
G1 X65.417 Y79.46 E18.00617
G1 X64.197 Y80.97 E18.0916
G1 X62.82 Y82.34 E18.17708
G1 X60.569 Y84.052 E18.30153
G1 X58.881 Y85.011 E18.38696
G1 X57.099 Y85.783 E18.47242
G1 X55.244 Y86.357 E18.55787
G1 X53.338 Y86.727 E18.64331
G1 X52.29 Y86.841 E18.6897
G1 X50.349 Y86.889 E18.77514
G1 X47.537 Y86.584 E18.89961
G1 X45.652 Y86.119 E18.98505
G1 X43.827 Y85.454 E19.07053
G1 X42.086 Y84.595 E19.15596
G1 X40.447 Y83.553 E19.24143
G1 X38.931 Y82.34 E19.32687
G1 X38.084 Y81.529 E19.37847
G1 X36.872 Y80.167 E19.4587
G1 X35.743 Y78.587 E19.54415
G1 X34.792 Y76.895 E19.62956
G1 X34.028 Y75.109 E19.71504
G1 X33.463 Y73.252 E19.80046
G1 X33.101 Y71.344 E19.88592
G1 X32.948 Y68.52 E20.01037
G1 X33.005 Y67.467 E20.05678
G1 X33.272 Y65.544 E20.14221
G1 X33.745 Y63.661 E20.22765
G1 X34.418 Y61.839 E20.31312
G1 X35.285 Y60.102 E20.39855
G1 X36.335 Y58.468 E20.48402
G1 X37.555 Y56.958 E20.56945
G1 X38.931 Y55.588 E20.6549
G1 X40.362 Y54.443 E20.73555
G1 X40.362 Y54.443 F4800
G1 X40.709 Y54.876
G1 F1500
G1 X40.76 Y54.836 E20.7384
G1 X42.347 Y53.825 E20.8212
G1 X44.859 Y52.663 E20.943
G1 X46.657 Y52.108 E21.02581
G1 X48.504 Y51.75 E21.1086
G1 X50.379 Y51.595 E21.19139
G1 X51.491 Y51.601 E21.24032
G1 X53.248 Y51.75 E21.31791
G1 X55.095 Y52.108 E21.4007
G1 X56.893 Y52.663 E21.48351
G1 X58.62 Y53.409 E21.56629
G1 X60.256 Y54.337 E21.64906
G1 X61.783 Y55.437 E21.73188
G1 X63.792 Y57.341 E21.85368
G1 X64.436 Y58.098 E21.89742
G1 X65.531 Y59.628 E21.98021
G1 X66.454 Y61.267 E22.06298
G1 X67.195 Y62.997 E22.1458
G1 X67.936 Y65.664 E22.26761
G1 X68.193 Y67.527 E22.35037
G1 X68.246 Y69.408 E22.43318
G1 X68.096 Y71.284 E22.516
G1 X67.745 Y73.132 E22.59878
G1 X67.195 Y74.931 E22.68156
G1 X66.827 Y75.855 E22.72533
G1 X65.531 Y78.3 E22.8471
G1 X64.436 Y79.83 E22.92989
G1 X63.181 Y81.232 E23.01269
G1 X61.783 Y82.491 E23.09548
G1 X60.992 Y83.092 E23.1392
G1 X59.405 Y84.103 E23.222
G1 X57.718 Y84.936 E23.30479
G1 X55.951 Y85.583 E23.3876
G1 X54.124 Y86.034 E23.47041
G1 X52.26 Y86.285 E23.55318
G1 X50.379 Y86.333 E23.63598
G1 X47.627 Y86.034 E23.7578
G1 X45.801 Y85.583 E23.84057
G1 X44.034 Y84.936 E23.92338
G1 X42.347 Y84.103 E24.00617
G1 X41.397 Y83.524 E24.05513
G1 X39.969 Y82.491 E24.13269
G1 X38.57 Y81.232 E24.21551
G1 X37.316 Y79.83 E24.29828
G1 X36.221 Y78.3 E24.38107
G1 X35.297 Y76.661 E24.46387
G1 X34.556 Y74.931 E24.54669
G1 X34.007 Y73.132 E24.62946
G1 X33.655 Y71.284 E24.71224
G1 X33.505 Y68.52 E24.83405
G1 X33.559 Y67.527 E24.87781
G1 X33.816 Y65.664 E24.96057
G1 X34.273 Y63.838 E25.0434
G1 X34.924 Y62.073 E25.12618
G1 X35.763 Y60.389 E25.20897
G1 X36.778 Y58.805 E25.29176
G1 X37.959 Y57.341 E25.37453
G1 X39.292 Y56.012 E25.45736
G1 X40.662 Y54.914 E25.53462
G1 X40.662 Y54.914 F4800
G1 X41.01 Y55.347
G1 F1500
G1 X41.072 Y55.297 E25.53812
G1 X42.608 Y54.317 E25.6183
G1 X45.065 Y53.18 E25.73744
G1 X46.806 Y52.644 E25.8176
G1 X48.594 Y52.3 E25.89772
G1 X50.409 Y52.151 E25.97786
G1 X51.461 Y52.157 E26.02415
G1 X53.158 Y52.3 E26.09909
G1 X54.946 Y52.644 E26.17921
G1 X56.686 Y53.18 E26.25933
G1 X58.359 Y53.901 E26.3395
G1 X59.944 Y54.798 E26.41964
G1 X61.422 Y55.862 E26.49978
G1 X63.388 Y57.724 E26.61894
G1 X64.53 Y59.142 E26.69906
G1 X65.115 Y60.017 E26.74538
G1 X65.949 Y61.501 E26.82029
G1 X66.667 Y63.174 E26.9004
G1 X67.392 Y65.783 E27.01956
G1 X67.639 Y67.588 E27.09973
G1 X67.689 Y69.408 E27.17985
G1 X67.639 Y70.34 E27.22092
G1 X67.392 Y72.145 E27.30109
G1 X66.951 Y73.912 E27.38123
G1 X66.322 Y75.621 E27.46137
G1 X65.512 Y77.252 E27.54151
G1 X64.53 Y78.785 E27.62162
G1 X62.777 Y80.849 E27.74079
G1 X62.099 Y81.491 E27.78188
G1 X60.679 Y82.631 E27.86201
G1 X59.144 Y83.611 E27.94215
G1 X57.512 Y84.419 E28.02229
G1 X55.802 Y85.046 E28.10244
G1 X54.034 Y85.484 E28.18259
G1 X52.23 Y85.729 E28.2627
G1 X50.409 Y85.777 E28.34286
G1 X47.717 Y85.484 E28.46202
G1 X45.95 Y85.046 E28.54213
G1 X44.24 Y84.419 E28.62228
G1 X42.608 Y83.611 E28.70242
G1 X41.71 Y83.063 E28.74871
G1 X40.329 Y82.066 E28.82366
G1 X38.975 Y80.849 E28.90377
G1 X37.759 Y79.493 E28.98392
G1 X36.698 Y78.013 E29.06405
G1 X35.803 Y76.427 E29.14419
G1 X35.084 Y74.753 E29.22436
G1 X34.551 Y73.012 E29.30448
G1 X34.209 Y71.223 E29.38463
G1 X34.062 Y68.52 E29.50375
G1 X34.209 Y66.704 E29.58392
G1 X34.551 Y64.916 E29.66403
G1 X35.084 Y63.174 E29.7442
G1 X35.803 Y61.501 E29.82433
G1 X36.698 Y59.915 E29.90447
G1 X37.293 Y59.048 E29.95074
G1 X38.364 Y57.724 E30.02568
G1 X39.652 Y56.437 E30.1058
G1 X40.963 Y55.385 E30.17977
G1 X40.963 Y55.385 F4800
G1 X41.311 Y55.817
G1 F1500
G1 X41.385 Y55.758 E30.18393
G1 X42.869 Y54.809 E30.26145
G1 X45.271 Y53.698 E30.37791
G1 X46.955 Y53.181 E30.45543
G1 X48.684 Y52.85 E30.5329
G1 X50.439 Y52.707 E30.61039
G1 X51.431 Y52.714 E30.65404
G1 X53.067 Y52.85 E30.72628
G1 X54.797 Y53.181 E30.80379
G1 X56.48 Y53.698 E30.88127
G1 X58.098 Y54.393 E30.95876
G1 X59.631 Y55.259 E31.03624
G1 X61.061 Y56.286 E31.11371
G1 X62.983 Y58.107 E31.23022
G1 X64.086 Y59.48 E31.30772
G1 X64.637 Y60.304 E31.35134
G1 X65.443 Y61.735 E31.42361
G1 X66.139 Y63.352 E31.50108
G1 X66.848 Y65.903 E31.61759
G1 X67.085 Y67.648 E31.69508
G1 X67.132 Y69.408 E31.77256
G1 X66.848 Y72.025 E31.8884
G1 X66.423 Y73.734 E31.9659
G1 X65.816 Y75.387 E32.04339
G1 X64.576 Y77.726 E32.15989
G1 X63.549 Y79.156 E32.23736
G1 X62.372 Y80.466 E32.31486
G1 X60.366 Y82.17 E32.43068
G1 X58.883 Y83.119 E32.50816
G1 X57.305 Y83.901 E32.58566
G1 X55.653 Y84.509 E32.66312
G1 X53.944 Y84.934 E32.74062
G1 X52.199 Y85.172 E32.81812
G1 X50.439 Y85.221 E32.8956
G1 X47.807 Y84.934 E33.01211
G1 X46.099 Y84.509 E33.08956
G1 X44.446 Y83.901 E33.16707
G1 X42.869 Y83.119 E33.24453
G1 X42.022 Y82.602 E33.2882
G1 X40.69 Y81.642 E33.36045
G1 X39.379 Y80.466 E33.43795
G1 X38.203 Y79.156 E33.51542
G1 X37.175 Y77.726 E33.59292
G1 X36.308 Y76.193 E33.67042
G1 X35.612 Y74.576 E33.74789
G1 X35.095 Y72.892 E33.82541
G1 X34.763 Y71.163 E33.90289
G1 X34.619 Y68.52 E34.01937
G1 X34.763 Y66.765 E34.09686
G1 X35.095 Y65.035 E34.17438
G1 X35.612 Y63.352 E34.25186
G1 X36.308 Y61.735 E34.32933
G1 X37.175 Y60.202 E34.40683
G1 X37.737 Y59.385 E34.45047
G1 X38.768 Y58.107 E34.52273
G1 X40.013 Y56.861 E34.60024
G1 X41.264 Y55.855 E34.67088
G1 X41.264 Y55.855 F4800
G1 X41.613 Y56.287
G1 F1500
G1 X41.698 Y56.219 E34.67567
G1 X43.13 Y55.301 E34.75052
G1 X45.477 Y54.215 E34.86432
G1 X47.104 Y53.718 E34.93918
G1 X48.774 Y53.399 E35.014
G1 X50.469 Y53.264 E35.08883
G1 X51.4 Y53.27 E35.1298
G1 X52.977 Y53.399 E35.19943
G1 X54.648 Y53.718 E35.27429
G1 X56.274 Y54.215 E35.34911
G1 X57.837 Y54.885 E35.42394
G1 X59.318 Y55.72 E35.49876
G1 X60.701 Y56.711 E35.57363
G1 X62.579 Y58.49 E35.68746
G1 X63.643 Y59.817 E35.76231
G1 X64.16 Y60.591 E35.80327
G1 X64.938 Y61.969 E35.87291
G1 X65.611 Y63.53 E35.94771
G1 X66.304 Y66.023 E36.06157
G1 X66.531 Y67.708 E36.13639
G1 X66.575 Y69.408 E36.21122
G1 X66.435 Y71.103 E36.28606
G1 X66.113 Y72.773 E36.3609
G1 X65.311 Y75.153 E36.47142
G1 X64.557 Y76.677 E36.54624
G1 X63.643 Y78.111 E36.62107
G1 X62.579 Y79.438 E36.69592
G1 X61.378 Y80.642 E36.77076
G1 X59.318 Y82.207 E36.8846
G1 X57.837 Y83.043 E36.95944
G1 X56.274 Y83.713 E37.03427
G1 X54.648 Y84.21 E37.10909
G1 X52.977 Y84.528 E37.18394
G1 X50.469 Y84.664 E37.29447
G1 X47.898 Y84.385 E37.40827
G1 X46.248 Y83.972 E37.48312
G1 X44.652 Y83.384 E37.55797
G1 X43.13 Y82.626 E37.63279
G1 X41.698 Y81.709 E37.70762
G1 X40.374 Y80.642 E37.78245
G1 X39.702 Y79.997 E37.82344
G1 X38.646 Y78.818 E37.89309
G1 X37.653 Y77.438 E37.9679
G1 X36.814 Y75.959 E38.04273
G1 X36.14 Y74.398 E38.11755
G1 X35.639 Y72.773 E38.19238
G1 X35.316 Y71.103 E38.26723
G1 X35.176 Y68.52 E38.38106
G1 X35.316 Y66.825 E38.4559
G1 X35.639 Y65.155 E38.53075
G1 X36.14 Y63.53 E38.60558
G1 X36.814 Y61.969 E38.6804
G1 X37.653 Y60.489 E38.75526
G1 X38.18 Y59.722 E38.79621
G1 X39.173 Y58.49 E38.86584
G1 X40.374 Y57.286 E38.94068
G1 X41.566 Y56.325 E39.00806
G1 X41.566 Y56.325 F4800
G1 X41.915 Y56.757
G1 F1500
G1 X42.01 Y56.68 E39.01344
G1 X43.39 Y55.794 E39.08561
G1 X45.684 Y54.733 E39.19683
G1 X47.253 Y54.255 E39.26901
G1 X48.864 Y53.949 E39.34117
G1 X51.37 Y53.826 E39.45158
G1 X52.887 Y53.949 E39.51856
G1 X54.499 Y54.255 E39.59076
G1 X56.068 Y54.733 E39.66294
G1 X57.576 Y55.377 E39.7351
G1 X59.006 Y56.182 E39.80731
G1 X60.34 Y57.135 E39.87945
G1 X62.174 Y58.873 E39.99064
G1 X63.683 Y60.878 E40.10107
G1 X64.432 Y62.203 E40.16805
G1 X65.084 Y63.708 E40.24023
G1 X65.759 Y66.143 E40.35142
G1 X65.977 Y67.768 E40.42357
G1 X66.018 Y69.408 E40.49576
G1 X65.759 Y71.785 E40.60098
G1 X65.367 Y73.378 E40.67317
G1 X64.805 Y74.919 E40.74535
G1 X63.622 Y77.151 E40.85651
G1 X62.662 Y78.481 E40.92869
G1 X61.563 Y79.7 E41.00091
G1 X59.741 Y81.248 E41.10612
G1 X58.361 Y82.134 E41.17829
G1 X56.893 Y82.866 E41.25048
G1 X55.355 Y83.435 E41.32264
G1 X53.764 Y83.835 E41.39483
G1 X52.139 Y84.06 E41.46702
G1 X50.499 Y84.108 E41.53922
G1 X47.988 Y83.835 E41.65037
G1 X46.397 Y83.435 E41.72256
G1 X44.858 Y82.866 E41.79476
G1 X43.39 Y82.134 E41.86695
G1 X42.01 Y81.248 E41.93912
G1 X40.188 Y79.7 E42.04433
G1 X39.09 Y78.481 E42.11653
G1 X38.13 Y77.151 E42.18871
G1 X37.319 Y75.725 E42.2609
G1 X36.668 Y74.22 E42.33306
G1 X36.183 Y72.653 E42.40524
G1 X35.87 Y71.043 E42.47741
G1 X35.733 Y68.52 E42.5886
