; generated by PrusaSlicer 2.8.1+win64 on 2025-01-27 at 06:58:16 UTC

; 

; external perimeters extrusion width = 0.36mm
; perimeters extrusion width = 0.36mm
; infill extrusion width = 0.36mm
; solid infill extrusion width = 0.36mm
; top infill extrusion width = 0.36mm
; support material extrusion width = 0.40mm
; first layer extrusion width = 0.60mm

M190 S60 ; set bed temperature and wait for it to be reached
M104 S210 ; set temperature
;TYPE:Custom
G28 ; home all axes
G1 Z5 F5000 ; lift nozzle
M109 S210 ; set temperature and wait for it to be reached
G21 ; set units to millimeters
G90 ; use absolute coordinates
M82 ; use absolute distances for extrusion
G92 E0
; Filament gcode

M107
;LAYER_CHANGE
;Z:0.2
;HEIGHT:0.2
G1 E-1 F1800
G1 Z.2 F4800
G1 X136.928 Y140.305
G1 E0 F1800
;TYPE:Skirt/Brim
;WIDTH:0.6
G1 F1500
G1 X141.422 Y136.047 E.28677
G1 X143.643 Y134.491 E.41239
G1 X144.724 Y133.94 E.46859
G1 X147.188 Y133.077 E.58952
G1 X153.939 Y131.759 E.90814
G1 X156.969 Y131.759 E1.04849
G1 X157.563 Y131.852 E1.07634
G1 X159.106 Y132.144 E1.14908
G1 X163.454 Y133.277 E1.35721
G1 X165.422 Y134.024 E1.45472
G1 X166.502 Y134.575 E1.51088
G1 X168.766 Y136.173 E1.63924
G1 X172.576 Y139.787 E1.88249
G1 X174.512 Y142.4 E2.03313
G1 X177.015 Y147.34 E2.28965
G1 X177.944 Y150.207 E2.42925
G1 X178.134 Y151.405 E2.48544
G1 X178.253 Y153.121 E2.56512
G1 X178.167 Y157.636 E2.7743
G1 X178.049 Y158.97 E2.83633
G1 X177.86 Y160.168 E2.89251
G1 X176.946 Y163.011 E3.03084
G1 X174.823 Y167.229 E3.24958
G1 X173.044 Y169.681 E3.38991
G1 X171.653 Y171.036 E3.47986
G1 X167.581 Y174.548 E3.72894
G1 X165.636 Y175.853 E3.83744
G1 X164.557 Y176.403 E3.89354
G1 X161.703 Y177.335 E4.03261
G1 X155.973 Y178.259 E4.30146
G1 X152.94 Y178.257 E4.44195
G1 X150.881 Y177.89 E4.53883
G1 X146.821 Y176.864 E4.73281
G1 X144.787 Y176.1 E4.83345
G1 X143.705 Y175.549 E4.88969
G1 X141.864 Y174.329 E4.99199
G1 X138.655 Y171.633 E5.18613
G1 X137.169 Y170.199 E5.28179
G1 X135.383 Y167.738 E5.42264
G1 X134.833 Y166.656 E5.47886
G1 X132.948 Y162.736 E5.68034
G1 X132.11 Y160.048 E5.81076
G1 X131.805 Y157.626 E5.92384
G1 X131.688 Y153.833 E6.09962
G1 X131.804 Y152.003 E6.18456
G1 X131.994 Y150.807 E6.24066
G1 X132.587 Y148.679 E6.34299
G1 X134.235 Y144.613 E6.54621
G1 X135.146 Y142.749 E6.64231
G1 X136.892 Y140.354 E6.7796
G1 X136.892 Y140.354 F4800
G1 X137.322 Y140.699
G1 F1500
G1 X141.802 Y136.454 E7.06548
G1 X143.896 Y134.987 E7.18391
G1 X144.977 Y134.436 E7.24011
G1 X147.3 Y133.623 E7.35411
G1 X154.025 Y132.31 E7.6715
G1 X156.882 Y132.309 E7.80384
G1 X157.476 Y132.403 E7.8317
G1 X158.966 Y132.683 E7.90193
G1 X163.314 Y133.816 E8.11006
G1 X165.169 Y134.521 E8.20198
G1 X166.249 Y135.072 E8.25814
G1 X168.384 Y136.577 E8.37914
G1 X172.19 Y140.189 E8.62219
G1 X174.016 Y142.652 E8.76421
G1 X176.518 Y147.591 E9.02067
G1 X177.393 Y150.294 E9.15227
G1 X177.584 Y151.492 E9.20846
G1 X177.696 Y153.11 E9.28359
G1 X177.61 Y157.626 E9.49282
G1 X177.499 Y158.883 E9.55127
G1 X177.31 Y160.081 E9.60745
G1 X176.449 Y162.762 E9.73788
G1 X174.326 Y166.976 E9.95645
G1 X172.649 Y169.288 E10.08875
G1 X171.29 Y170.614 E10.1767
G1 X167.217 Y174.126 E10.42582
G1 X165.384 Y175.357 E10.5281
G1 X164.304 Y175.906 E10.58422
G1 X161.614 Y176.785 E10.71531
G1 X155.887 Y177.708 E10.98402
G1 X153.027 Y177.707 E11.1165
G1 X151.018 Y177.35 E11.21102
G1 X146.957 Y176.324 E11.40504
G1 X145.04 Y175.603 E11.49991
G1 X143.958 Y175.052 E11.55615
G1 X142.222 Y173.902 E11.65261
G1 X139.013 Y171.207 E11.84672
G1 X137.564 Y169.805 E11.94011
G1 X135.88 Y167.485 E12.0729
G1 X135.329 Y166.404 E12.1291
G1 X133.451 Y162.495 E12.32998
G1 X132.66 Y159.96 E12.45299
G1 X132.362 Y157.609 E12.56276
G1 X132.244 Y153.815 E12.73859
G1 X132.354 Y152.09 E12.81866
G1 X132.544 Y150.895 E12.87471
G1 X133.103 Y148.888 E12.97122
G1 X134.751 Y144.822 E13.17444
G1 X135.642 Y143.003 E13.26826
G1 X137.286 Y140.748 E13.39753
G1 X137.286 Y140.748 F4800
G1 X137.715 Y141.093
G1 F1500
G1 X142.182 Y136.862 E13.68253
G1 X144.149 Y135.484 E13.79378
G1 X145.23 Y134.933 E13.84998
G1 X147.412 Y134.168 E13.95709
G1 X154.112 Y132.86 E14.2733
G1 X156.796 Y132.86 E14.39763
G1 X157.389 Y132.953 E14.42543
G1 X158.825 Y133.222 E14.4931
G1 X163.173 Y134.355 E14.70123
G1 X164.916 Y135.017 E14.7876
G1 X165.996 Y135.568 E14.84376
G1 X168.001 Y136.982 E14.95741
G1 X171.805 Y140.591 E15.2003
G1 X173.519 Y142.904 E15.33365
G1 X176.021 Y147.843 E15.59011
G1 X176.843 Y150.382 E15.71373
G1 X177.034 Y151.58 E15.76992
G1 X177.139 Y153.1 E15.8405
G1 X177.053 Y157.615 E16.04968
G1 X176.949 Y158.796 E16.1046
G1 X176.759 Y159.994 E16.16079
G1 X175.951 Y162.512 E16.28329
G1 X173.83 Y166.723 E16.50169
G1 X172.255 Y168.894 E16.62593
G1 X171.401 Y169.751 E16.68197
G1 X166.853 Y173.705 E16.96112
G1 X165.131 Y174.86 E17.05717
G1 X164.051 Y175.409 E17.11329
G1 X161.525 Y176.235 E17.23639
G1 X155.8 Y177.158 E17.505
G1 X153.115 Y177.156 E17.62937
G1 X151.154 Y176.81 E17.72161
G1 X147.094 Y175.784 E17.91559
G1 X145.293 Y175.107 E18.00471
G1 X144.211 Y174.556 E18.06095
G1 X142.58 Y173.476 E18.15156
G1 X139.371 Y170.78 E18.3457
G1 X137.958 Y169.411 E18.43683
G1 X136.376 Y167.232 E18.56156
G1 X135.826 Y166.151 E18.61774
G1 X133.953 Y162.254 E18.81802
G1 X133.21 Y159.873 E18.93356
G1 X132.918 Y157.592 E19.04008
G1 X132.801 Y153.798 E19.21591
G1 X132.904 Y152.178 E19.2911
G1 X133.094 Y150.982 E19.3472
G1 X133.619 Y149.097 E19.43784
G1 X135.267 Y145.032 E19.64102
G1 X136.138 Y143.258 E19.73256
G1 X137.68 Y141.142 E19.85384
G1 X137.68 Y141.142 F4800
G1 X138.109 Y141.487
G1 F1500
G1 X142.562 Y137.269 E20.13796
G1 X144.402 Y135.98 E20.24202
G1 X145.483 Y135.429 E20.29822
G1 X147.524 Y134.714 E20.3984
G1 X154.199 Y133.41 E20.71344
G1 X156.709 Y133.41 E20.82971
G1 X157.303 Y133.503 E20.85756
G1 X158.685 Y133.761 E20.92268
G1 X163.033 Y134.894 E21.13081
G1 X164.663 Y135.513 E21.21157
G1 X165.743 Y136.064 E21.26773
G1 X167.619 Y137.387 E21.37406
G1 X171.419 Y140.993 E21.61672
G1 X173.022 Y143.157 E21.74147
G1 X175.524 Y148.095 E21.99789
G1 X176.293 Y150.469 E22.11348
G1 X176.484 Y151.667 E22.16967
G1 X176.582 Y153.089 E22.2357
G1 X176.496 Y157.604 E22.44488
G1 X176.399 Y158.709 E22.49626
G1 X176.209 Y159.907 E22.55245
G1 X175.453 Y162.262 E22.66702
G1 X173.334 Y166.47 E22.88526
G1 X171.86 Y168.501 E23.0015
G1 X171.006 Y169.357 E23.05751
G1 X166.489 Y173.283 E23.33473
G1 X164.879 Y174.364 E23.42456
G1 X163.799 Y174.913 E23.48068
G1 X161.436 Y175.685 E23.59583
G1 X155.714 Y176.608 E23.86431
G1 X153.202 Y176.606 E23.98067
G1 X151.291 Y176.27 E24.07055
G1 X147.231 Y175.244 E24.26453
G1 X145.546 Y174.611 E24.34791
G1 X144.464 Y174.06 E24.40415
G1 X142.939 Y173.049 E24.4889
G1 X139.73 Y170.354 E24.68301
G1 X138.352 Y169.018 E24.77192
G1 X136.873 Y166.979 E24.8886
G1 X136.322 Y165.898 E24.9448
G1 X134.455 Y162.013 E25.14446
G1 X133.761 Y159.786 E25.25251
G1 X133.475 Y157.575 E25.35578
G1 X133.358 Y153.781 E25.53161
G1 X133.454 Y152.265 E25.60197
G1 X133.645 Y151.07 E25.65803
G1 X134.135 Y149.306 E25.74283
G1 X135.784 Y145.241 E25.94603
G1 X136.634 Y143.512 E26.03527
G1 X138.074 Y141.536 E26.14853
G1 X138.074 Y141.536 F4800
G1 X138.503 Y141.881
G1 F1500
G1 X142.942 Y137.676 E26.43176
G1 X144.655 Y136.476 E26.52864
G1 X145.736 Y135.925 E26.58484
G1 X147.636 Y135.26 E26.67809
G1 X154.286 Y133.96 E26.99196
G1 X156.622 Y133.96 E27.10017
G1 X157.216 Y134.054 E27.12803
G1 X158.544 Y134.3 E27.19059
G1 X162.892 Y135.433 E27.39872
G1 X164.41 Y136.01 E27.47394
G1 X165.49 Y136.561 E27.5301
G1 X167.236 Y137.792 E27.62906
G1 X171.033 Y141.395 E27.87152
G1 X172.526 Y143.409 E27.98765
G1 X175.027 Y148.346 E28.24401
G1 X175.743 Y150.557 E28.35166
G1 X175.934 Y151.755 E28.40785
G1 X176.025 Y153.078 E28.46928
G1 X175.939 Y157.594 E28.67851
G1 X175.848 Y158.622 E28.72631
G1 X175.659 Y159.82 E28.78249
G1 X174.955 Y162.013 E28.88918
G1 X172.837 Y166.217 E29.10723
G1 X171.466 Y168.108 E29.21542
G1 X170.612 Y168.964 E29.27143
G1 X166.126 Y172.861 E29.54668
G1 X164.626 Y173.867 E29.63034
G1 X163.546 Y174.416 E29.68646
G1 X161.346 Y175.135 E29.79367
G1 X155.627 Y176.057 E30.062
G1 X153.289 Y176.056 E30.1703
G1 X151.427 Y175.73 E30.25786
G1 X147.367 Y174.704 E30.45184
G1 X145.798 Y174.114 E30.52949
G1 X144.717 Y173.563 E30.58569
G1 X143.297 Y172.623 E30.66457
G1 X140.088 Y169.927 E30.85871
G1 X138.746 Y168.624 E30.94535
G1 X137.369 Y166.727 E31.05393
G1 X136.819 Y165.645 E31.11015
G1 X134.957 Y161.772 E31.30921
G1 X134.311 Y159.699 E31.40979
G1 X134.032 Y157.557 E31.50985
G1 X133.915 Y153.764 E31.68563
G1 X134.005 Y152.353 E31.75112
G1 X134.195 Y151.157 E31.80722
G1 X134.652 Y149.516 E31.88613
G1 X136.3 Y145.45 E32.08935
G1 X137.129 Y143.766 E32.17629
G1 X138.468 Y141.93 E32.28155
G1 X138.468 Y141.93 F4800
G1 X138.897 Y142.276
G1 F1500
G1 X143.322 Y138.083 E32.56393
G1 X144.908 Y136.973 E32.6536
G1 X145.989 Y136.422 E32.7098
G1 X147.748 Y135.806 E32.79613
G1 X154.372 Y134.511 E33.10877
G1 X156.536 Y134.51 E33.20901
G1 X157.129 Y134.604 E33.23682
G1 X158.404 Y134.839 E33.29687
G1 X162.752 Y135.972 E33.505
G1 X164.156 Y136.506 E33.57458
G1 X165.237 Y137.057 E33.63078
G1 X166.853 Y138.197 E33.72239
G1 X170.647 Y141.796 E33.96463
G1 X172.029 Y143.661 E34.07215
G1 X174.53 Y148.598 E34.32851
G1 X175.193 Y150.644 E34.42814
G1 X175.383 Y151.842 E34.48433
G1 X175.469 Y153.068 E34.54126
G1 X175.382 Y157.583 E34.75044
G1 X175.298 Y158.535 E34.79471
G1 X175.109 Y159.733 E34.85089
G1 X174.457 Y161.763 E34.94965
G1 X172.341 Y165.964 E35.16754
G1 X171.071 Y167.714 E35.2677
G1 X170.217 Y168.571 E35.32374
G1 X165.762 Y172.439 E35.59703
G1 X164.374 Y173.371 E35.67447
G1 X163.294 Y173.92 E35.73059
G1 X161.257 Y174.585 E35.82985
G1 X155.541 Y175.507 E36.09805
G1 X153.376 Y175.506 E36.19834
G1 X151.564 Y175.19 E36.28354
G1 X147.504 Y174.164 E36.47752
G1 X146.051 Y173.618 E36.54942
G1 X144.97 Y173.067 E36.60562
G1 X143.655 Y172.196 E36.67868
G1 X140.446 Y169.501 E36.87279
G1 X139.141 Y168.231 E36.95714
G1 X137.866 Y166.474 E37.0577
G1 X137.315 Y165.393 E37.1139
G1 X135.46 Y161.531 E37.31236
G1 X134.861 Y159.612 E37.40548
G1 X134.589 Y157.54 E37.50228
G1 X134.472 Y153.747 E37.67806
G1 X134.555 Y152.44 E37.73872
G1 X134.745 Y151.245 E37.79477
G1 X135.168 Y149.725 E37.86785
G1 X136.816 Y145.659 E38.07107
G1 X137.625 Y144.02 E38.15574
G1 X138.861 Y142.324 E38.25295
G1 X138.861 Y142.324 F4800
G1 X139.29 Y142.67
G1 F1500
G1 X143.702 Y138.491 E38.53444
G1 X145.161 Y137.469 E38.61695
G1 X146.242 Y136.918 E38.67315
G1 X147.86 Y136.351 E38.75257
G1 X154.459 Y135.061 E39.06403
G1 X156.449 Y135.061 E39.15621
G1 X157.043 Y135.154 E39.18406
G1 X158.264 Y135.378 E39.24156
G1 X162.611 Y136.511 E39.44965
G1 X163.903 Y137.002 E39.51367
G1 X164.984 Y137.553 E39.56987
G1 X166.471 Y138.602 E39.65416
G1 X170.261 Y142.198 E39.89617
G1 X171.532 Y143.914 E39.99509
G1 X174.033 Y148.849 E40.25137
G1 X174.643 Y150.732 E40.34306
G1 X174.833 Y151.93 E40.39925
G1 X174.912 Y153.057 E40.45158
G1 X174.825 Y157.572 E40.66076
G1 X174.748 Y158.448 E40.70149
G1 X174.558 Y159.646 E40.75768
G1 X173.959 Y161.513 E40.8485
G1 X171.845 Y165.711 E41.06622
G1 X170.677 Y167.321 E41.15836
G1 X169.823 Y168.177 E41.21437
G1 X165.398 Y172.017 E41.48576
G1 X164.121 Y172.874 E41.557
G1 X163.041 Y173.423 E41.61312
G1 X161.168 Y174.035 E41.70439
G1 X155.454 Y174.957 E41.97249
G1 X153.463 Y174.955 E42.06472
G1 X151.7 Y174.65 E42.1476
G1 X147.64 Y173.624 E42.34158
G1 X146.304 Y173.122 E42.40769
G1 X145.223 Y172.571 E42.46389
G1 X144.014 Y171.77 E42.53107
G1 X140.805 Y169.074 E42.72521
G1 X139.535 Y167.837 E42.80733
G1 X138.362 Y166.221 E42.89983
G1 X137.811 Y165.14 E42.95603
G1 X135.962 Y161.29 E43.15387
G1 X135.411 Y159.525 E43.23952
G1 X135.146 Y157.523 E43.33306
G1 X135.029 Y153.729 E43.50889
G1 X135.105 Y152.528 E43.56463
G1 X135.295 Y151.332 E43.62073
G1 X135.684 Y149.934 E43.68795
G1 X137.332 Y145.869 E43.89113
G1 X138.121 Y144.275 E43.97352
G1 X139.255 Y142.718 E44.06274
G1 X139.684 Y143.064 F4800
G1 F1500
G1 X144.082 Y138.898 E44.34335
G1 X145.414 Y137.965 E44.41868
G1 X146.495 Y137.414 E44.47488
G1 X147.972 Y136.897 E44.54737
G1 X154.546 Y135.611 E44.85766
G1 X156.363 Y135.611 E44.94183
G1 X156.956 Y135.704 E44.96963
G1 X158.123 Y135.917 E45.02458
G1 X162.471 Y137.05 E45.23271
G1 X163.65 Y137.498 E45.29113
G1 X164.731 Y138.049 E45.34733
G1 X166.088 Y139.007 E45.42427
G1 X169.875 Y142.6 E45.66608
G1 X171.036 Y144.166 E45.75638
G1 X173.536 Y149.101 E46.01263
G1 X174.092 Y150.82 E46.09632
G1 X174.355 Y153.046 E46.20015
G1 X174.268 Y157.562 E46.40938
G1 X174.008 Y159.559 E46.50266
G1 X173.461 Y161.263 E46.58556
G1 X171.349 Y165.458 E46.80312
G1 X170.282 Y166.928 E46.88726
G1 X169.428 Y167.784 E46.94327
G1 X165.034 Y171.595 E47.2127
G1 X163.868 Y172.378 E47.27776
G1 X162.789 Y172.927 E47.33384
G1 X161.078 Y173.485 E47.4172
G1 X155.368 Y174.406 E47.68511
G1 X153.55 Y174.405 E47.76932
G1 X151.837 Y174.11 E47.84984
G1 X147.777 Y173.083 E48.04383
G1 X146.557 Y172.625 E48.10419
G1 X145.476 Y172.074 E48.16039
G1 X144.372 Y171.343 E48.22172
G1 X141.163 Y168.648 E48.41583
G1 X139.929 Y167.443 E48.49572
G1 X138.858 Y165.968 E48.58016
G1 X138.308 Y164.887 E48.63634
G1 X136.464 Y161.049 E48.83358
G1 X135.961 Y159.437 E48.9118
G1 X135.702 Y157.506 E49.00205
G1 X135.585 Y153.712 E49.17788
G1 X135.655 Y152.615 E49.2288
G1 X135.845 Y151.42 E49.28485
G1 X136.2 Y150.144 E49.3462
G1 X137.849 Y146.078 E49.54944
G1 X138.616 Y144.529 E49.62951
G1 X139.649 Y143.112 E49.71074
G1 X139.649 Y143.112 F4800
G1 X140.078 Y143.458
G1 F1500
G1 X144.463 Y139.305 E49.9905
G1 X145.667 Y138.462 E50.05858
G1 X146.748 Y137.911 E50.11478
G1 X148.084 Y137.443 E50.18035
G1 X154.633 Y136.162 E50.48946
G1 X156.276 Y136.161 E50.56557
G1 X156.87 Y136.255 E50.59343
G1 X157.983 Y136.456 E50.64582
G1 X162.33 Y137.589 E50.85391
G1 X163.397 Y137.995 E50.90679
G1 X164.478 Y138.546 E50.96299
G1 X165.706 Y139.412 E51.03259
G1 X169.489 Y143.002 E51.27417
G1 X170.539 Y144.418 E51.35583
G1 X173.039 Y149.353 E51.61208
G1 X173.542 Y150.907 E51.68774
G1 X173.798 Y153.036 E51.78707
G1 X173.711 Y157.551 E51.99625
G1 X173.458 Y159.472 E52.086
G1 X172.963 Y161.014 E52.16102
G1 X170.852 Y165.205 E52.37839
G1 X169.888 Y166.534 E52.45444
G1 X169.034 Y167.391 E52.51048
G1 X164.67 Y171.173 E52.77798
G1 X163.616 Y171.881 E52.83679
G1 X162.536 Y172.43 E52.89291
G1 X160.989 Y172.936 E52.9683
G1 X155.282 Y173.856 E53.23607
G1 X153.637 Y173.855 E53.31227
G1 X151.973 Y173.57 E53.39047
G1 X147.913 Y172.543 E53.58446
G1 X146.81 Y172.129 E53.63903
G1 X145.729 Y171.578 E53.69523
G1 X144.73 Y170.917 E53.75072
G1 X141.521 Y168.221 E53.94486
G1 X140.323 Y167.05 E54.02246
G1 X139.355 Y165.715 E54.09884
G1 X138.804 Y164.634 E54.15504
G1 X136.966 Y160.808 E54.35166
G1 X136.512 Y159.35 E54.4224
G1 X136.259 Y157.489 E54.5094
G1 X136.142 Y153.695 E54.68523
G1 X136.205 Y152.703 E54.73127
G1 X136.395 Y151.507 E54.78737
G1 X136.717 Y150.353 E54.84287
G1 X138.365 Y146.287 E55.04609
G1 X139.112 Y144.783 E55.12388
G1 X140.043 Y143.506 E55.19708
G1 E54.19708 F1800
G92 E0
G1 X140.043 Y143.506 F4800
G92 E0
G1 X156.049 Y141.469
G1 E1 F1800
;TYPE:Support material
G1 F1500
G1 X156.652 Y141.564 E1.02828
G1 X157.731 Y142.112 E1.08434
G1 X158.413 Y142.79 E1.12889
G1 X158.601 Y142.694 E1.13867
G1 X159.8 Y142.506 E1.19489
G1 X160.999 Y142.697 E1.25113
G1 X162.08 Y143.248 E1.30733
G1 X162.938 Y144.106 E1.36354
G1 X163.586 Y145.374 E1.4295
G1 X163.755 Y145.391 E1.43737
G1 X164.909 Y145.921 E1.49619
G1 X165.833 Y146.809 E1.55555
G1 X166.411 Y147.947 E1.61467
G1 X166.476 Y148.412 E1.63642
G1 X166.542 Y148.661 E1.64835
G1 X166.54 Y148.83 E1.65618
G1 X166.588 Y149.129 E1.67021
G1 X166.516 Y149.59 E1.69182
G1 X166.922 Y149.798 E1.71295
G1 X167.779 Y150.656 E1.76912
G1 X168.329 Y151.737 E1.8253
G1 X168.52 Y152.934 E1.88145
G1 X168.332 Y154.133 E1.93767
G1 X167.751 Y155.28 E1.99723
G1 X168.244 Y156.252 E2.04771
G1 X168.434 Y157.45 E2.1039
G1 X168.244 Y158.648 E2.16009
G1 X167.695 Y159.728 E2.21621
G1 X166.89 Y160.536 E2.26904
G1 X166.699 Y161.73 E2.32505
G1 X166.149 Y162.807 E2.38107
G1 X165.296 Y163.664 E2.43708
G1 X164.219 Y164.217 E2.49316
G1 X162.763 Y164.454 E2.56149
