; generated by PrusaSlicer 2.8.1+win64 on 2025-01-27 at 16:54:01 UTC

; 

; external perimeters extrusion width = 0.45mm
; perimeters extrusion width = 0.45mm
; infill extrusion width = 0.45mm
; solid infill extrusion width = 0.45mm
; top infill extrusion width = 0.40mm
; first layer extrusion width = 0.42mm

;TYPE:Custom
G90 ; use absolute coordinates
M83 ; extruder relative mode
M140 S65 ; set final bed temp
M104 S150 ; set temporary nozzle temp to prevent oozing during homing
G4 S10 ; allow partial nozzle warmup
G28 ; home all axis
G1 Z50 F240
G1 X2 Y10 F3000
M104 S215 ; set final nozzle temp
M190 S65 ; wait for bed temp to stabilize
M109 S215 ; wait for nozzle temp to stabilize
G1 Z0.28 F240
G92 E0
G1 Y140 E10 F1500 ; prime the nozzle
G1 X2.3 F5000
G92 E0
G1 Y10 E10 F1200 ; prime the nozzle
G92 E0
G21 ; set units to millimeters
G90 ; use absolute coordinates
M83 ; use relative distances for extrusion
; Filament gcode
M107
;LAYER_CHANGE
;Z:0.2
;HEIGHT:0.2
G1 E-1 F2400
G1 Z.2 F7200
G1 X102.491 Y102.153
G1 Z.2
G1 E1 F1800
;TYPE:Skirt/Brim
;WIDTH:0.42
G1 F2700
G1 X103.476 Y101.283 E.04121
G1 X104.677 Y100.414 E.04648
G1 X105.961 Y99.674 E.04647
G1 X107.262 Y99.09 E.04471
G1 X108.668 Y98.623 E.04645
G1 X109.911 Y98.338 E.03998
G1 X111.38 Y98.147 E.04645
G1 X112.862 Y98.108 E.04648
G1 X114.112 Y98.194 E.03929
G1 X115.551 Y98.43 E.04572
G1 X116.981 Y98.819 E.04647
G1 X118.334 Y99.339 E.04545
G1 X119.476 Y99.906 E.03998
G1 X120.689 Y100.66 E.04478
G1 X121.711 Y101.435 E.04022
G1 X122.816 Y102.458 E.04721
G1 X123.794 Y103.572 E.04648
G1 X124.611 Y104.717 E.0441
G1 X125.261 Y105.835 E.04055
G1 X125.879 Y107.183 E.0465
G1 X126.29 Y108.366 E.03927
G1 X126.642 Y109.805 E.04645
G1 X126.841 Y111.244 E.04555
G1 X126.894 Y112.755 E.04741
G1 X126.794 Y114.21 E.04573
G1 X126.542 Y115.671 E.04649
G1 X126.217 Y116.869 E.03892
G1 X125.695 Y118.257 E.0465
G1 X125.033 Y119.583 E.04647
G1 X124.269 Y120.79 E.04479
G1 X123.47 Y121.823 E.04095
G1 X122.47 Y122.885 E.04574
G1 X121.538 Y123.705 E.03892
G1 X120.338 Y124.575 E.04647
G1 X119.054 Y125.317 E.0465
G1 X117.752 Y125.903 E.04477
G1 X116.515 Y126.324 E.04097
G1 X115.073 Y126.664 E.04645
G1 X113.602 Y126.853 E.0465
G1 X112.151 Y126.891 E.04551
G1 X110.905 Y126.807 E.03916
G1 X109.443 Y126.567 E.04645
G1 X108.013 Y126.178 E.04647
G1 X106.84 Y125.737 E.03929
G1 X105.742 Y125.211 E.03817
G1 X104.47 Y124.449 E.04649
G1 X103.326 Y123.593 E.0448
G1 X102.196 Y122.553 E.04815
G1 X101.252 Y121.484 E.04472
G1 X100.387 Y120.278 E.04653
G1 X99.731 Y119.148 E.04097
G1 X99.126 Y117.828 E.04553
G1 X98.648 Y116.418 E.04668
G1 X98.361 Y115.21 E.03893
G1 X98.163 Y113.804 E.04452
G1 X98.106 Y112.261 E.04841
G1 X98.2 Y110.843 E.04456
G1 X98.459 Y109.322 E.04838
G1 X98.86 Y107.895 E.04648
G1 X99.312 Y106.726 E.0393
G1 X99.847 Y105.632 E.03818
G1 X100.62 Y104.368 E.04646
G1 X101.48 Y103.237 E.04455
G1 X102.45 Y102.196 E.04461
G1 X102.45 Y102.196 F7200
G1 X102.725 Y102.453
G1 F2700
G1 X102.751 Y102.426 E.00118
G1 X103.715 Y101.574 E.04034
G1 X104.885 Y100.729 E.04525
G1 X106.135 Y100.008 E.04525
G1 X107.402 Y99.44 E.04354
G1 X108.772 Y98.985 E.04526
G1 X109.975 Y98.709 E.0387
G1 X111.406 Y98.523 E.04525
G1 X112.849 Y98.485 E.04526
G1 X114.073 Y98.569 E.03847
G1 X115.475 Y98.8 E.04455
G1 X116.868 Y99.178 E.04526
G1 X118.185 Y99.685 E.04425
G1 X119.29 Y100.234 E.03869
G1 X120.472 Y100.968 E.04363
G1 X121.473 Y101.728 E.03941
G1 X122.548 Y102.723 E.04593
G1 X123.5 Y103.808 E.04526
G1 X124.295 Y104.922 E.04291
G1 X124.925 Y106.007 E.03934
G1 X125.527 Y107.319 E.04526
G1 X125.93 Y108.477 E.03844
G1 X126.272 Y109.879 E.04525
G1 X126.466 Y111.279 E.04432
G1 X126.517 Y112.752 E.04621
G1 X126.419 Y114.17 E.04457
G1 X126.174 Y115.592 E.04524
G1 X125.859 Y116.752 E.03769
G1 X125.351 Y118.103 E.04526
G1 X124.707 Y119.394 E.04524
G1 X123.963 Y120.57 E.04363
G1 X123.18 Y121.581 E.04009
G1 X122.205 Y122.616 E.04458
G1 X121.304 Y123.41 E.03765
G1 X120.135 Y124.257 E.04526
G1 X118.886 Y124.98 E.04525
G1 X117.617 Y125.551 E.04363
G1 X116.407 Y125.963 E.04008
G1 X115.002 Y126.294 E.04526
G1 X113.57 Y126.478 E.04527
G1 X112.157 Y126.514 E.04432
G1 X110.951 Y126.433 E.0379
G1 X109.526 Y126.2 E.04527
G1 X108.133 Y125.821 E.04526
G1 X106.985 Y125.389 E.03846
G1 X105.922 Y124.879 E.03697
G1 X104.684 Y124.138 E.04524
G1 X103.569 Y123.305 E.04364
G1 X102.468 Y122.293 E.04689
G1 X101.549 Y121.252 E.04354
G1 X100.706 Y120.077 E.04534
G1 X100.064 Y118.971 E.0401
G1 X99.476 Y117.686 E.04431
G1 X99.009 Y116.312 E.0455
G1 X98.732 Y115.143 E.03767
G1 X98.539 Y113.773 E.04338
G1 X98.483 Y112.271 E.04713
G1 X98.574 Y110.89 E.04339
G1 X98.826 Y109.408 E.04713
G1 X99.216 Y108.019 E.04524
G1 X99.659 Y106.874 E.03849
G1 X100.177 Y105.815 E.03696
G1 X100.929 Y104.584 E.04523
G1 X101.766 Y103.482 E.04339
G1 X102.684 Y102.497 E.04222
G1 X102.684 Y102.497 F7200
G1 X102.96 Y102.756
G1 F2700
G1 X103.052 Y102.659 E.00419
G1 X104.114 Y101.739 E.04406
G1 X105.265 Y100.934 E.04404
G1 X106.31 Y100.343 E.03764
G1 X107.593 Y99.77 E.04406
G1 X108.927 Y99.333 E.04401
G1 X110.226 Y99.049 E.04169
G1 X111.432 Y98.899 E.0381
G1 X112.836 Y98.861 E.04404
G1 X114.034 Y98.944 E.03765
G1 X115.42 Y99.173 E.04405
G1 X116.775 Y99.544 E.04405
G1 X118.084 Y100.052 E.04403
G1 X119.334 Y100.692 E.04403
G1 X120.512 Y101.458 E.04406
G1 X121.406 Y102.166 E.03576
G1 X122.422 Y103.136 E.04404
G1 X123.332 Y104.206 E.04404
G1 X124.019 Y105.19 E.03763
G1 X124.71 Y106.414 E.04407
G1 X125.271 Y107.701 E.04402
G1 X125.696 Y109.04 E.04405
G1 X125.939 Y110.154 E.03575
G1 X126.109 Y111.548 E.04403
G1 X126.135 Y112.953 E.04406
G1 X126.042 Y114.15 E.03764
G1 X125.801 Y115.533 E.04402
G1 X125.501 Y116.634 E.03578
G1 X125.007 Y117.949 E.04404
G1 X124.479 Y119.027 E.03764
G1 X123.744 Y120.224 E.04404
G1 X122.89 Y121.34 E.04406
G1 X121.926 Y122.361 E.04403
G1 X121.07 Y123.114 E.03575
G1 X119.933 Y123.939 E.04405
G1 X118.717 Y124.643 E.04406
G1 X117.436 Y125.217 E.04401
G1 X116.298 Y125.602 E.03767
G1 X114.931 Y125.923 E.04403
G1 X113.538 Y126.102 E.04404
G1 X112.134 Y126.137 E.04404
G1 X110.733 Y126.027 E.04406
G1 X109.352 Y125.773 E.04403
G1 X108.004 Y125.379 E.04403
G1 X106.944 Y124.959 E.03575
G1 X105.692 Y124.321 E.04406
G1 X104.679 Y123.677 E.03764
G1 X103.571 Y122.814 E.04404
G1 X102.558 Y121.841 E.04404
G1 X101.65 Y120.769 E.04405
G1 X100.857 Y119.61 E.04403
G1 X100.304 Y118.612 E.03577
G1 X99.74 Y117.326 E.04403
G1 X99.365 Y116.185 E.03766
G1 X99.056 Y114.815 E.04403
G1 X98.889 Y113.42 E.04405
G1 X98.866 Y112.046 E.04309
G1 X98.954 Y110.879 E.03669
G1 X99.193 Y109.495 E.04404
G1 X99.572 Y108.142 E.04406
G1 X100.005 Y107.023 E.03762
G1 X100.635 Y105.767 E.04406
G1 X101.347 Y104.644 E.04169
G1 X102.09 Y103.682 E.03811
G1 X102.919 Y102.8 E.03795
G1 X103.193 Y103.058 F7200
G1 F2700
G1 X103.31 Y102.933 E.00537
G1 X104.343 Y102.039 E.04283
G1 X105.461 Y101.256 E.0428
G1 X106.655 Y100.592 E.04284
G1 X107.732 Y100.121 E.03686
G1 X109.03 Y99.696 E.04282
G1 X110.29 Y99.42 E.04044
G1 X111.458 Y99.275 E.0369
G1 X112.823 Y99.238 E.04281
G1 X113.995 Y99.319 E.03683
G1 X115.343 Y99.542 E.04284
G1 X116.66 Y99.903 E.04282
G1 X117.905 Y100.386 E.04187
G1 X118.918 Y100.89 E.03548
G1 X120.078 Y101.612 E.04284
G1 X121.157 Y102.449 E.04282
G1 X122.013 Y103.254 E.03684
G1 X122.913 Y104.281 E.04282
G1 X123.662 Y105.332 E.04047
G1 X124.253 Y106.35 E.03691
G1 X124.823 Y107.591 E.04282
G1 X125.263 Y108.884 E.04282
G1 X125.567 Y110.215 E.04281
G1 X125.718 Y111.381 E.03686
G1 X125.763 Y112.745 E.04279
G1 X125.667 Y114.108 E.04284
G1 X125.432 Y115.453 E.04281
G1 X125.142 Y116.516 E.03455
G1 X124.662 Y117.795 E.04283
G1 X124.146 Y118.85 E.03682
G1 X123.431 Y120.014 E.04283
G1 X122.601 Y121.098 E.04281
G1 X121.663 Y122.091 E.04283
G1 X120.687 Y122.936 E.04048
G1 X119.731 Y123.621 E.03688
G1 X118.549 Y124.305 E.04282
G1 X117.303 Y124.865 E.04283
G1 X116.19 Y125.241 E.03683
G1 X114.86 Y125.553 E.04283
G1 X113.505 Y125.726 E.04283
G1 X112.14 Y125.76 E.04281
G1 X110.779 Y125.652 E.04281
G1 X109.435 Y125.406 E.04284
G1 X108.125 Y125.022 E.0428
G1 X107.1 Y124.616 E.03457
G1 X105.883 Y123.997 E.04281
G1 X104.892 Y123.366 E.03684
G1 X103.815 Y122.526 E.04283
G1 X102.882 Y121.634 E.04047
G1 X102.11 Y120.746 E.03689
G1 X101.317 Y119.634 E.04282
G1 X100.73 Y118.617 E.03682
G1 X100.163 Y117.374 E.04284
G1 X99.727 Y116.08 E.04281
G1 X99.44 Y114.821 E.04049
G1 X99.285 Y113.655 E.03688
G1 X99.237 Y112.29 E.04283
G1 X99.328 Y110.927 E.04283
G1 X99.56 Y109.581 E.04283
G1 X99.869 Y108.448 E.03682
G1 X100.352 Y107.171 E.04281
G1 X100.965 Y105.95 E.04284
G1 X101.656 Y104.86 E.04047
G1 X102.375 Y103.929 E.03688
G1 X103.152 Y103.101 E.0356
G1 X103.152 Y103.101 F7200
G1 X103.427 Y103.359
G1 F2700
G1 X103.569 Y103.208 E.0065
G1 X104.572 Y102.339 E.04161
G1 X105.658 Y101.577 E.0416
G1 X106.658 Y101.011 E.03603
G1 X107.871 Y100.471 E.04163
G1 X109.132 Y100.059 E.04159
G1 X110.355 Y99.792 E.03925
G1 X111.484 Y99.651 E.03567
G1 X112.81 Y99.615 E.04159
G1 X113.957 Y99.694 E.03605
G1 X115.266 Y99.912 E.04161
G1 X116.545 Y100.263 E.04158
G1 X117.754 Y100.731 E.04065
G1 X118.733 Y101.219 E.0343
G1 X119.86 Y101.919 E.0416
G1 X120.908 Y102.732 E.04159
G1 X121.745 Y103.52 E.03604
G1 X122.619 Y104.518 E.04159
G1 X123.345 Y105.537 E.03923
G1 X123.918 Y106.521 E.0357
G1 X124.472 Y107.727 E.04161
G1 X124.849 Y108.812 E.03601
G1 X125.163 Y110.101 E.0416
G1 X125.342 Y111.416 E.04161
G1 X125.386 Y112.742 E.0416
G1 X125.293 Y114.066 E.04162
G1 X125.064 Y115.373 E.0416
G1 X124.784 Y116.398 E.03332
G1 X124.318 Y117.641 E.04162
G1 X123.813 Y118.673 E.03602
G1 X123.119 Y119.803 E.04158
G1 X122.311 Y120.857 E.04164
G1 X121.4 Y121.821 E.04159
G1 X120.602 Y122.523 E.03332
G1 X119.528 Y123.303 E.04162
G1 X118.38 Y123.968 E.0416
G1 X117.17 Y124.512 E.0416
G1 X116.081 Y124.88 E.03604
G1 X114.789 Y125.183 E.04161
G1 X113.473 Y125.351 E.0416
G1 X112.147 Y125.383 E.04159
G1 X110.824 Y125.278 E.04161
G1 X109.519 Y125.038 E.0416
G1 X108.245 Y124.665 E.04162
G1 X107.257 Y124.273 E.03333
G1 X106.075 Y123.672 E.04158
G1 X105.105 Y123.055 E.03605
G1 X104.059 Y122.239 E.0416
G1 X103.154 Y121.373 E.03927
G1 X102.408 Y120.515 E.03565
G1 X101.637 Y119.435 E.04161
G1 X101.062 Y118.44 E.03603
G1 X100.512 Y117.232 E.04162
G1 X100.089 Y115.974 E.04161
G1 X99.811 Y114.754 E.03923
G1 X99.661 Y113.626 E.03568
G1 X99.613 Y112.3 E.0416
G1 X99.682 Y111.153 E.03603
G1 X99.889 Y109.842 E.04161
G1 X100.229 Y108.559 E.04162
G1 X100.699 Y107.319 E.04158
G1 X101.294 Y106.133 E.0416
G1 X101.965 Y105.076 E.03926
G1 X102.661 Y104.175 E.0357
G1 X103.386 Y103.403 E.03321
G1 E-.7 F2400
;WIPE_START
G1 F5760
G1 X103.427 Y103.359 E-.02381
G1 X103.569 Y103.208 E-.08205
G1 X103.94 Y102.887 E-.19414
;WIPE_END
G1 X111.333 Y115.457 F7200
G1 E1 F1800
;TYPE:Perimeter
;WIDTH:0.419999
G1 F2700
G1 X110.942 Y115.298 E.01323
G1 X110.539 Y115.022 E.01532
G1 X110.084 Y114.59 E.01967
G1 X109.862 Y114.313 E.01113
G1 X109.595 Y113.857 E.01657
G1 X109.415 Y113.357 E.01666
G1 X109.305 Y112.7 E.02089
G1 X109.309 Y112.345 E.01113
G1 X109.4 Y111.725 E.01965
G1 X109.479 Y111.432 E.00951
G1 X109.825 Y110.752 E.02392
G1 X110.094 Y110.393 E.01407
G1 X110.505 Y109.995 E.01794
G1 X110.934 Y109.702 E.01629
G1 X111.42 Y109.483 E.01671
G1 X112.084 Y109.339 E.0213
G1 X112.519 Y109.297 E.0137
G1 X113.026 Y109.337 E.01595
G1 X113.514 Y109.458 E.01576
G1 X114.026 Y109.68 E.0175
G1 X114.623 Y110.108 E.02303
G1 X115.053 Y110.571 E.01981
G1 X115.334 Y111.01 E.01634
G1 X115.573 Y111.6 E.01996
G1 X115.685 Y112.132 E.01705
G1 X115.698 Y112.635 E.01578
G1 X115.632 Y113.171 E.01693
G1 X115.455 Y113.734 E.0185
G1 X115.202 Y114.225 E.01732
G1 X114.886 Y114.635 E.01623
G1 X114.513 Y114.994 E.01623
G1 X114.052 Y115.301 E.01737
G1 X113.762 Y115.438 E.01006
G1 X113.305 Y115.505 E.01448
G1 X111.654 Y115.505 E.05177
G1 X111.389 Y115.478 E.00835
G1 X111.389 Y115.478 F7200
G1 X111.428 Y115.085
G1 F2700
G1 X111.307 Y115.062 E.00386
G1 X110.862 Y114.803 E.01614
G1 X110.347 Y114.32 E.02214
G1 X110.083 Y113.95 E.01425
G1 X109.9 Y113.605 E.01224
G1 X109.742 Y113.127 E.01578
G1 X109.675 Y112.618 E.0161
G1 X109.727 Y112.093 E.01654
G1 X109.829 Y111.571 E.01668
G1 X110.159 Y110.927 E.02269
G1 X110.37 Y110.651 E.01089
G1 X110.79 Y110.256 E.01808
G1 X111.191 Y109.994 E.01502
G1 X111.678 Y109.807 E.01636
G1 X112.245 Y109.691 E.01815
G1 X112.86 Y109.697 E.01928
G1 X113.39 Y109.815 E.01702
G1 X113.852 Y110.015 E.01578
G1 X114.396 Y110.409 E.02106
G1 X114.762 Y110.811 E.01705
G1 X115.028 Y111.235 E.01569
G1 X115.218 Y111.727 E.01654
G1 X115.317 Y112.246 E.01657
G1 X115.31 Y112.813 E.01778
G1 X115.22 Y113.264 E.01442
G1 X115.034 Y113.754 E.01643
G1 X114.819 Y114.114 E.01315
G1 X114.484 Y114.514 E.01636
G1 X114.163 Y114.784 E.01315
G1 X113.643 Y115.08 E.01876
G1 X113.305 Y115.128 E.0107
G1 X111.654 Y115.128 E.05177
G1 X111.487 Y115.096 E.00533
G1 X111.487 Y115.096 F7200
G1 X111.52 Y114.719
G1 F2700
G1 X111.401 Y114.691 E.00383
G1 X111.058 Y114.475 E.01271
G1 X110.603 Y114.043 E.01967
G1 X110.306 Y113.589 E.01701
G1 X110.128 Y113.111 E.01599
G1 X110.053 Y112.607 E.01598
G1 X110.146 Y111.835 E.02438
G1 X110.18 Y111.71 E.00406
G1 X110.494 Y111.101 E.02148
G1 X110.849 Y110.69 E.01703
G1 X111.257 Y110.389 E.0159
G1 X111.707 Y110.186 E.01548
G1 X112.321 Y110.06 E.01965
G1 X112.836 Y110.073 E.01615
G1 X113.305 Y110.186 E.01513
G1 X113.756 Y110.399 E.01564
G1 X114.174 Y110.714 E.01641
G1 X114.529 Y111.124 E.017
G1 X114.74 Y111.508 E.01374
G1 X114.905 Y112.047 E.01767
G1 X114.944 Y112.641 E.01866
G1 X114.866 Y113.134 E.01565
G1 X114.64 Y113.686 E.0187
G1 X114.296 Y114.165 E.01849
G1 X113.961 Y114.466 E.01412
G1 X113.524 Y114.722 E.01588
G1 X112.822 Y114.751 E.02203
G1 X111.654 Y114.751 E.03662
G1 X111.579 Y114.733 E.00242
G1 X111.579 Y114.733 F7200
G1 X111.612 Y114.353
;TYPE:External perimeter
G1 F2700
G1 X111.33 Y114.212 E.00989
G1 X110.866 Y113.773 E.02003
G1 X110.613 Y113.359 E.01521
G1 X110.475 Y112.94 E.01383
G1 X110.428 Y112.51 E.01356
G1 X110.53 Y111.848 E.021
G1 X110.828 Y111.275 E.02025
G1 X111.222 Y110.874 E.01763
G1 X111.51 Y110.677 E.01094
G1 X111.829 Y110.546 E.01081
G1 X112.397 Y110.43 E.01818
G1 X112.926 Y110.474 E.01664
G1 X113.409 Y110.642 E.01603
G1 X113.942 Y111.011 E.02033
G1 X114.23 Y111.355 E.01407
G1 X114.385 Y111.635 E.01003
G1 X114.534 Y112.113 E.0157
G1 X114.567 Y112.643 E.01665
G1 X114.509 Y113.014 E.01177
G1 X114.31 Y113.504 E.01658
G1 X114.001 Y113.93 E.0165
G1 X113.76 Y114.147 E.01017
G1 X113.355 Y114.374 E.01456
G1 X111.667 Y114.374 E.05293
G1 E-.7 F2400
;WIPE_START
G1 F5760
G1 X111.612 Y114.353 E-.0233
G1 X111.33 Y114.212 E-.1248
G1 X111.051 Y113.948 E-.1519
;WIPE_END
G1 X110.966 Y118.661 F7200
G1 E1 F1800
;TYPE:Perimeter
G1 F2700
G1 X110.567 Y118.555 E.01294
G1 X109.954 Y118.324 E.02054
G1 X109.369 Y118.032 E.0205
G1 X108.817 Y117.681 E.02051
G1 X108.303 Y117.274 E.02056
G1 X107.835 Y116.818 E.02049
G1 X107.415 Y116.315 E.02055
G1 X107.05 Y115.772 E.02051
G1 X106.742 Y115.193 E.02056
G1 X106.526 Y114.665 E.01789
G1 X106.369 Y114.181 E.01595
G1 X106.227 Y113.532 E.02083
G1 X106.154 Y112.881 E.02054
G1 X106.149 Y112.227 E.02051
G1 X106.211 Y111.575 E.02054
G1 X106.339 Y110.933 E.02053
G1 X106.533 Y110.308 E.02052
G1 X106.79 Y109.705 E.02055
G1 X107.066 Y109.206 E.01788
G1 X107.345 Y108.779 E.01599
G1 X107.761 Y108.262 E.02081
G1 X108.223 Y107.797 E.02055
G1 X108.664 Y107.434 E.01791
G1 X109.08 Y107.14 E.01597
G1 X109.658 Y106.813 E.02082
G1 X110.258 Y106.551 E.02053
G1 X110.881 Y106.352 E.02051
G1 X111.522 Y106.218 E.02053
G1 X112.174 Y106.151 E.02055
G1 X112.745 Y106.15 E.0179
G1 X113.253 Y106.187 E.01597
G1 X113.907 Y106.3 E.02081
G1 X114.537 Y106.478 E.02053
G1 X115.145 Y106.719 E.02051
G1 X115.726 Y107.022 E.02055
G1 X116.203 Y107.336 E.01791
G1 X116.607 Y107.647 E.01599
G1 X117.091 Y108.102 E.02083
G1 X117.519 Y108.598 E.02054
G1 X117.885 Y109.12 E.01999
G1 X118.156 Y109.607 E.01747
G1 X118.424 Y110.207 E.0206
G1 X118.622 Y110.802 E.01966
G1 X118.764 Y111.44 E.02049
G1 X118.84 Y112.09 E.02052
G1 X118.855 Y112.663 E.01797
G1 X118.811 Y113.235 E.01799
G1 X118.725 Y113.752 E.01643
G1 X118.576 Y114.37 E.01993
