; generated by PrusaSlicer 2.8.1+win64 on 2025-01-29 at 19:12:54 UTC

; 

; external perimeters extrusion width = 0.36mm
; perimeters extrusion width = 0.36mm
; infill extrusion width = 0.36mm
; solid infill extrusion width = 0.36mm
; top infill extrusion width = 0.36mm
; support material extrusion width = 0.40mm
; first layer extrusion width = 0.60mm

; external perimeters extrusion width = 0.36mm
; perimeters extrusion width = 0.36mm
; infill extrusion width = 0.36mm
; solid infill extrusion width = 0.36mm
; top infill extrusion width = 0.36mm
; support material extrusion width = 0.40mm
; first layer extrusion width = 0.60mm

M190 S75 ; set bed temperature and wait for it to be reached
M104 S235 ; set temperature
;TYPE:Custom
G28 ; Auto home
G1 Z15 F300 ;Move up slightly
G90 ;Switch to absolute positioning
M82 ;Extruder absolute mode
G0 X10 Y20 F1500 ;Move to X10 Y20 at 1500mms
G1 Z0.5 ;Move Z to 0.8
G1 F400 X160 E35 ;Extrude a line of filament
G1 F1200 Z10 ;Raise Z
M109 S235 ; set temperature and wait for it to be reached
G21 ; set units to millimeters
G90 ; use absolute coordinates
M82 ; use absolute distances for extrusion
G92 E0
; Filament gcode
M107
;LAYER_CHANGE
;Z:0.2
;HEIGHT:0.2
G1 E-1 F1800
G1 Z.2 F4800
G1 X104.175 Y95.057
G1 E0 F1800
;TYPE:Skirt/Brim
;WIDTH:0.6
G1 F1500
G1 X105.402 Y93.746 E.07902
G1 X106.76 Y92.566 E.15819
G1 X107.973 Y91.698 E.22383
G1 X109.529 Y90.794 E.30302
G1 X111.165 Y90.057 E.38198
G1 X112.831 Y89.502 E.45925
G1 X114.583 Y89.111 E.53824
G1 X116.172 Y88.916 E.60869
G1 X117.966 Y88.871 E.68766
G1 X120.54 Y89.133 E.80151
G1 X122.861 Y89.71 E.90676
G1 X125.114 Y90.616 E1.01362
G1 X127.189 Y91.806 E1.11888
G1 X129.085 Y93.271 E1.22432
G1 X129.952 Y94.097 E1.27702
G1 X130.949 Y95.206 E1.34264
G1 X132.344 Y97.156 E1.44815
G1 X133.483 Y99.334 E1.55631
G1 X134 Y100.667 E1.61923
G1 X134.482 Y102.356 E1.69652
G1 X134.773 Y103.93 E1.76696
G1 X134.906 Y105.315 E1.82819
G1 X134.933 Y127.95 E2.82425
G1 X134.815 Y129.737 E2.90306
G1 X134.562 Y131.282 E2.97195
G1 X134.103 Y133.018 E3.05097
G1 X133.494 Y134.636 E3.12705
G1 X132.827 Y136.009 E3.19422
G1 X131.91 Y137.512 E3.2717
G1 X130.825 Y138.942 E3.35069
G1 X129.598 Y140.252 E3.42967
G1 X128.423 Y141.287 E3.49858
G1 X126.968 Y142.338 E3.57756
G1 X125.413 Y143.234 E3.65653
G1 X124.113 Y143.83 E3.71946
G1 X122.423 Y144.424 E3.79829
G1 X120.903 Y144.798 E3.86717
G1 X119.196 Y145.05 E3.9431
G1 X117.403 Y145.133 E4.02209
G1 X114.948 Y144.946 E4.13044
G1 X112.611 Y144.434 E4.23572
G1 X110.365 Y143.607 E4.34104
G1 X108.061 Y142.357 E4.45639
G1 X106.117 Y140.904 E4.56319
G1 X105.237 Y140.092 E4.61588
G1 X104.24 Y139.018 E4.68037
G1 X102.78 Y137.041 E4.78852
G1 X101.544 Y134.725 E4.90404
G1 X100.979 Y133.269 E4.97277
G1 X100.509 Y131.605 E5.04886
G1 X100.237 Y130.138 E5.11452
G1 X100.092 Y128.649 E5.18035
G1 X100.065 Y106.233 E6.16677
G1 X100.15 Y104.594 E6.23899
G1 X100.417 Y102.819 E6.31798
G1 X100.876 Y101.047 E6.39853
G1 X101.517 Y99.334 E6.47902
G1 X102.303 Y97.754 E6.55668
G1 X103.24 Y96.269 E6.63395
G1 X104.139 Y95.104 E6.69871
G1 X104.139 Y95.104 F4800
G1 X104.579 Y95.444
G1 F1500
G1 X104.598 Y95.419 E6.70009
G1 X105.785 Y94.15 E6.77655
G1 X107.1 Y93.008 E6.85319
G1 X108.282 Y92.162 E6.91715
G1 X109.786 Y91.288 E6.9937
G1 X111.371 Y90.575 E7.07018
G1 X112.985 Y90.038 E7.14503
G1 X114.681 Y89.66 E7.22149
G1 X116.21 Y89.471 E7.28929
G1 X117.947 Y89.428 E7.36575
G1 X120.447 Y89.682 E7.47633
G1 X122.694 Y90.242 E7.57823
G1 X124.875 Y91.119 E7.68167
G1 X126.141 Y91.802 E7.74497
G1 X127.171 Y92.468 E7.79895
G1 X129.142 Y94.081 E7.91103
G1 X130.684 Y95.763 E8.01144
G1 X132.02 Y97.697 E8.11488
G1 X133.074 Y99.796 E8.21824
G1 X133.65 Y101.4 E8.29324
G1 X134.01 Y102.797 E8.35672
G1 X134.254 Y104.264 E8.42216
G1 X134.365 Y105.665 E8.484
G1 X134.375 Y127.945 E9.46444
G1 X134.261 Y129.677 E9.54082
G1 X134.018 Y131.164 E9.60712
G1 X133.574 Y132.844 E9.68359
G1 X132.985 Y134.41 E9.75722
G1 X132.335 Y135.747 E9.82264
G1 X131.447 Y137.203 E9.89769
G1 X130.396 Y138.586 E9.97413
G1 X129.208 Y139.855 E10.05062
G1 X128.078 Y140.85 E10.11688
G1 X126.669 Y141.868 E10.19337
G1 X125.164 Y142.736 E10.26982
G1 X123.898 Y143.316 E10.3311
G1 X122.261 Y143.891 E10.40745
G1 X120.798 Y144.251 E10.47375
G1 X119.146 Y144.495 E10.54724
G1 X117.41 Y144.576 E10.62372
G1 X115.033 Y144.395 E10.72862
G1 X112.771 Y143.9 E10.83052
G1 X110.597 Y143.1 E10.93246
G1 X108.358 Y141.886 E11.04454
G1 X106.477 Y140.48 E11.14788
G1 X104.667 Y138.66 E11.26083
G1 X103.252 Y136.746 E11.36557
G1 X102.053 Y134.497 E11.47772
G1 X101.508 Y133.095 E11.54391
G1 X101.053 Y131.484 E11.61758
G1 X100.788 Y130.055 E11.68154
G1 X100.648 Y128.623 E11.74486
G1 X100.622 Y106.233 E12.73014
G1 X100.704 Y104.644 E12.80016
G1 X100.964 Y102.926 E12.87662
G1 X101.408 Y101.21 E12.95462
G1 X102.03 Y99.553 E13.0325
G1 X102.791 Y98.025 E13.10762
G1 X103.698 Y96.586 E13.18247
G1 X104.543 Y95.492 E13.2433
G1 X104.543 Y95.492 F4800
G1 X104.983 Y95.831
G1 F1500
G1 X105.021 Y95.782 E13.24603
G1 X106.169 Y94.554 E13.32
G1 X107.439 Y93.449 E13.39408
G1 X108.591 Y92.626 E13.45638
G1 X110.044 Y91.782 E13.53032
G1 X111.576 Y91.092 E13.60426
G1 X113.138 Y90.573 E13.67669
G1 X114.778 Y90.208 E13.75062
G1 X116.248 Y90.027 E13.8158
G1 X117.928 Y89.985 E13.88975
G1 X120.354 Y90.231 E13.99705
G1 X122.527 Y90.773 E14.0956
G1 X124.636 Y91.622 E14.19564
G1 X126.848 Y92.922 E14.30855
G1 X128.762 Y94.488 E14.41738
G1 X130.251 Y96.114 E14.5144
G1 X131.543 Y97.985 E14.61446
G1 X132.562 Y100.014 E14.71437
G1 X133.119 Y101.567 E14.78697
G1 X133.464 Y102.909 E14.84795
G1 X133.702 Y104.335 E14.91157
G1 X133.808 Y105.682 E14.97103
G1 X133.818 Y127.94 E15.9505
G1 X133.707 Y129.617 E16.02446
G1 X133.474 Y131.045 E16.08813
G1 X133.045 Y132.67 E16.16209
G1 X132.476 Y134.185 E16.23331
G1 X131.843 Y135.486 E16.29698
G1 X130.984 Y136.893 E16.36952
G1 X129.967 Y138.231 E16.44348
G1 X128.818 Y139.457 E16.51742
G1 X127.732 Y140.414 E16.58112
G1 X126.37 Y141.398 E16.65506
G1 X124.915 Y142.238 E16.72899
G1 X123.684 Y142.802 E16.78858
G1 X122.098 Y143.358 E16.86254
G1 X120.693 Y143.704 E16.92621
G1 X119.096 Y143.941 E16.99726
G1 X117.417 Y144.019 E17.07122
G1 X115.119 Y143.845 E17.17263
G1 X112.931 Y143.367 E17.27118
G1 X110.829 Y142.594 E17.36974
G1 X108.656 Y141.415 E17.47853
G1 X106.838 Y140.055 E17.57844
G1 X105.093 Y138.301 E17.68732
G1 X103.725 Y136.451 E17.78857
G1 X102.561 Y134.27 E17.89736
G1 X102.038 Y132.921 E17.96103
G1 X101.597 Y131.363 E18.03228
G1 X101.339 Y129.972 E18.09454
G1 X101.205 Y128.596 E18.15538
G1 X101.179 Y106.233 E19.13947
G1 X101.259 Y104.694 E19.20729
G1 X101.51 Y103.033 E19.28121
G1 X101.941 Y101.373 E19.35668
G1 X102.542 Y99.771 E19.43197
G1 X103.278 Y98.295 E19.50455
G1 X104.156 Y96.903 E19.57697
G1 X104.946 Y95.879 E19.63388
G1 X104.946 Y95.879 F4800
G1 X105.387 Y96.219
G1 F1500
G1 X105.444 Y96.144 E19.63803
G1 X106.552 Y94.959 E19.70942
G1 X107.779 Y93.891 E19.781
G1 X108.899 Y93.09 E19.84159
G1 X110.301 Y92.276 E19.91293
G1 X111.781 Y91.61 E19.98435
G1 X113.291 Y91.109 E20.05436
G1 X114.875 Y90.757 E20.12576
G1 X116.287 Y90.583 E20.18837
G1 X117.909 Y90.542 E20.25977
G1 X120.261 Y90.78 E20.3638
G1 X122.359 Y91.304 E20.45896
G1 X124.397 Y92.126 E20.55566
G1 X126.526 Y93.376 E20.6643
G1 X128.381 Y94.895 E20.76981
G1 X129.819 Y96.465 E20.8635
G1 X131.067 Y98.273 E20.96018
G1 X132.049 Y100.233 E21.05665
G1 X132.587 Y101.734 E21.12682
G1 X132.918 Y103.02 E21.18526
G1 X133.149 Y104.407 E21.24714
G1 X133.251 Y105.698 E21.30413
G1 X133.261 Y127.935 E22.28268
G1 X133.153 Y129.557 E22.35421
G1 X132.929 Y130.926 E22.41525
G1 X132.516 Y132.496 E22.48669
G1 X131.966 Y133.959 E22.55547
G1 X131.351 Y135.224 E22.61737
G1 X130.52 Y136.584 E22.68751
G1 X129.538 Y137.876 E22.75892
G1 X128.428 Y139.059 E22.83031
G1 X127.386 Y139.977 E22.89142
G1 X126.071 Y140.928 E22.96283
G1 X124.666 Y141.739 E23.03422
G1 X123.47 Y142.288 E23.09213
G1 X121.936 Y142.825 E23.16365
G1 X120.589 Y143.157 E23.2247
G1 X119.046 Y143.386 E23.29334
G1 X117.425 Y143.462 E23.36475
G1 X115.205 Y143.294 E23.46272
G1 X112.868 Y142.766 E23.56815
G1 X110.82 Y141.977 E23.66473
G1 X108.698 Y140.776 E23.77203
G1 X106.99 Y139.447 E23.86726
G1 X105.33 Y137.717 E23.97277
G1 X104.058 Y135.932 E24.06922
G1 X102.973 Y133.818 E24.17378
G1 X102.494 Y132.525 E24.23446
G1 X102.141 Y131.243 E24.29297
G1 X101.89 Y129.889 E24.35357
G1 X101.749 Y128.306 E24.42351
G1 X101.736 Y106.233 E25.39484
G1 X101.814 Y104.745 E25.46041
G1 X102.057 Y103.14 E25.53184
G1 X102.474 Y101.536 E25.60477
G1 X103.055 Y99.99 E25.67745
G1 X103.765 Y98.565 E25.74751
G1 X104.614 Y97.22 E25.8175
G1 X105.35 Y96.266 E25.87052
G1 X105.35 Y96.266 F4800
G1 X105.791 Y96.606
G1 F1500
G1 X105.867 Y96.507 E25.87601
G1 X106.936 Y95.363 E25.94491
G1 X108.119 Y94.332 E26.01396
G1 X109.208 Y93.553 E26.07288
G1 X110.559 Y92.77 E26.14159
G1 X111.987 Y92.128 E26.21049
G1 X113.444 Y91.645 E26.27804
G1 X114.973 Y91.305 E26.34697
G1 X116.325 Y91.139 E26.40691
G1 X117.89 Y91.098 E26.4758
G1 X120.168 Y91.33 E26.57656
G1 X122.192 Y91.836 E26.66837
G1 X124.159 Y92.629 E26.7617
G1 X126.203 Y93.83 E26.86602
G1 X128.001 Y95.302 E26.96828
G1 X129.386 Y96.816 E27.05858
G1 X130.59 Y98.562 E27.15191
G1 X131.634 Y100.69 E27.25622
G1 X132.056 Y101.9 E27.31261
G1 X132.372 Y103.131 E27.36854
G1 X132.597 Y104.478 E27.42864
G1 X132.695 Y105.715 E27.48325
G1 X132.704 Y127.931 E28.46087
G1 X132.599 Y129.497 E28.52994
G1 X132.385 Y130.808 E28.58839
G1 X131.987 Y132.322 E28.65728
G1 X131.457 Y133.734 E28.72365
G1 X130.86 Y134.962 E28.78374
G1 X130.057 Y136.275 E28.85147
G1 X129.109 Y137.52 E28.92033
G1 X128.037 Y138.662 E28.98926
G1 X127.04 Y139.54 E29.04772
G1 X125.772 Y140.458 E29.11661
G1 X124.417 Y141.241 E29.18548
G1 X123.256 Y141.774 E29.2417
G1 X121.774 Y142.292 E29.31078
G1 X120.484 Y142.609 E29.36924
G1 X118.996 Y142.831 E29.43544
G1 X117.432 Y142.905 E29.50434
G1 X115.291 Y142.744 E29.59882
G1 X113.028 Y142.232 E29.70092
G1 X111.052 Y141.471 E29.7941
G1 X109.013 Y140.316 E29.89722
G1 X107.365 Y139.035 E29.98907
G1 X105.756 Y137.359 E30.09131
G1 X104.53 Y135.637 E30.18433
G1 X103.488 Y133.606 E30.28478
G1 X103.023 Y132.351 E30.34368
G1 X102.685 Y131.122 E30.39977
G1 X102.441 Y129.806 E30.45867
G1 X102.305 Y128.28 E30.52609
G1 X102.293 Y106.233 E31.49627
G1 X102.369 Y104.795 E31.55964
G1 X102.604 Y103.247 E31.62854
G1 X103.007 Y101.699 E31.69893
G1 X103.567 Y100.209 E31.76898
G1 X104.252 Y98.835 E31.83654
G1 X105.073 Y97.537 E31.90413
G1 X105.754 Y96.653 E31.95324
G1 X105.754 Y96.653 F4800
G1 X106.195 Y96.993
G1 F1500
G1 X106.29 Y96.869 E31.96011
G1 X107.319 Y95.767 E32.02646
G1 X108.459 Y94.774 E32.09299
G1 X109.517 Y94.017 E32.15024
G1 X110.817 Y93.264 E32.21635
G1 X112.192 Y92.646 E32.28269
G1 X113.598 Y92.18 E32.34787
G1 X115.07 Y91.854 E32.41422
G1 X116.363 Y91.695 E32.47155
G1 X117.871 Y91.655 E32.53793
G1 X120.075 Y91.879 E32.63542
G1 X122.025 Y92.367 E32.72388
G1 X123.92 Y93.132 E32.81381
G1 X125.88 Y94.284 E32.91386
G1 X127.62 Y95.708 E33.0128
G1 X128.954 Y97.167 E33.0998
G1 X130.114 Y98.85 E33.18975
G1 X131.114 Y100.891 E33.28977
G1 X131.524 Y102.067 E33.34458
G1 X131.826 Y103.242 E33.39797
G1 X132.044 Y104.55 E33.45632
G1 X132.138 Y105.732 E33.5085
G1 X132.149 Y127.692 E34.47486
G1 X132.077 Y129.143 E34.53879
G1 X131.892 Y130.431 E34.59605
G1 X131.535 Y131.896 E34.6624
G1 X131.042 Y133.285 E34.72726
G1 X130.492 Y134.467 E34.78463
G1 X129.758 Y135.72 E34.84853
G1 X128.868 Y136.938 E34.91491
G1 X127.858 Y138.058 E34.98128
G1 X126.898 Y138.936 E35.03853
G1 X125.693 Y139.842 E35.10487
G1 X124.401 Y140.621 E35.17126
G1 X123.041 Y141.259 E35.23737
G1 X121.612 Y141.759 E35.30399
G1 X120.38 Y142.062 E35.35982
G1 X118.946 Y142.276 E35.42362
G1 X117.439 Y142.348 E35.49001
G1 X115.376 Y142.193 E35.58105
G1 X113.188 Y141.699 E35.67976
G1 X111.284 Y140.964 E35.76957
G1 X109.327 Y139.857 E35.86851
G1 X107.74 Y138.623 E35.95697
G1 X106.183 Y137 E36.05594
G1 X104.88 Y135.138 E36.15595
G1 X103.903 Y133.149 E36.25347
G1 X103.49 Y131.976 E36.30819
G1 X103.165 Y130.713 E36.36558
G1 X102.957 Y129.461 E36.42143
G1 X102.862 Y128.254 E36.47471
G1 X102.85 Y106.233 E37.44375
G1 X102.924 Y104.845 E37.50492
G1 X103.15 Y103.354 E37.57128
G1 X103.539 Y101.862 E37.63913
G1 X104.079 Y100.427 E37.7066
G1 X104.739 Y99.105 E37.77162
G1 X105.531 Y97.854 E37.83678
G1 X106.158 Y97.041 E37.88196
G1 X106.158 Y97.041 F4800
G1 X106.599 Y97.38
G1 F1500
G1 X106.713 Y97.232 E37.89018
G1 X107.703 Y96.171 E37.95404
G1 X108.799 Y95.215 E38.01804
G1 X109.825 Y94.481 E38.07355
G1 X111.074 Y93.758 E38.13706
G1 X112.398 Y93.164 E38.20092
G1 X113.751 Y92.716 E38.26364
G1 X115.167 Y92.402 E38.32747
G1 X116.401 Y92.25 E38.38218
G1 X117.852 Y92.212 E38.44605
G1 X119.982 Y92.428 E38.54026
G1 X121.858 Y92.899 E38.62538
G1 X123.681 Y93.636 E38.71191
G1 X125.557 Y94.738 E38.80765
G1 X127.24 Y96.115 E38.90334
G1 X128.521 Y97.519 E38.98698
G1 X129.637 Y99.139 E39.07355
G1 X130.595 Y101.092 E39.16928
G1 X131.28 Y103.353 E39.27324
G1 X131.492 Y104.621 E39.32981
G1 X131.581 Y105.748 E39.37956
G1 X131.592 Y127.688 E40.34504
G1 X131.524 Y129.083 E40.4065
G1 X131.344 Y130.333 E40.46207
G1 X130.999 Y131.742 E40.52591
G1 X130.525 Y133.078 E40.58829
G1 X130 Y134.205 E40.643
G1 X129.294 Y135.411 E40.7045
G1 X128.439 Y136.582 E40.7683
G1 X127.468 Y137.66 E40.83214
G1 X126.536 Y138.512 E40.88771
G1 X125.376 Y139.384 E40.95157
G1 X124.133 Y140.132 E41.01541
G1 X122.827 Y140.745 E41.0789
G1 X121.45 Y141.226 E41.14309
G1 X120.275 Y141.515 E41.19634
G1 X118.896 Y141.721 E41.2577
G1 X117.447 Y141.79 E41.32154
G1 X115.462 Y141.643 E41.40913
G1 X113.349 Y141.165 E41.50446
G1 X111.516 Y140.457 E41.59093
G1 X109.642 Y139.397 E41.68567
G1 X108.115 Y138.211 E41.77075
G1 X106.609 Y136.642 E41.86645
G1 X105.362 Y134.859 E41.9622
G1 X104.418 Y132.937 E42.05643
G1 X104.024 Y131.818 E42.10864
G1 X103.708 Y130.593 E42.16431
G1 X103.511 Y129.399 E42.21756
G1 X103.418 Y128.228 E42.26925
G1 X103.408 Y106.233 E43.23715
G1 X103.478 Y104.896 E43.29607
G1 X103.697 Y103.461 E43.35995
G1 X104.072 Y102.025 E43.42526
G1 X104.592 Y100.646 E43.49011
G1 X105.226 Y99.376 E43.55257
G1 X105.989 Y98.171 E43.61533
G1 X106.562 Y97.428 E43.65662
G1 X107.003 Y97.77 F4800
G1 F1500
G1 X107.171 Y97.552 E43.66873
G1 X108.125 Y96.537 E43.73003
G1 X109.179 Y95.625 E43.79136
G1 X110.32 Y94.826 E43.85266
G1 X111.359 Y94.238 E43.9052
G1 X112.632 Y93.67 E43.96654
G1 X113.956 Y93.237 E44.02784
G1 X115.288 Y92.947 E44.08783
G1 X116.439 Y92.806 E44.13886
G1 X117.832 Y92.769 E44.20018
G1 X119.912 Y92.981 E44.29219
G1 X121.742 Y93.446 E44.37528
G1 X123.462 Y94.148 E44.45703
G1 X125.234 Y95.192 E44.54753
G1 X126.875 Y96.537 E44.6409
G1 X128.123 Y97.912 E44.72261
G1 X129.272 Y99.619 E44.81316
G1 X130.171 Y101.54 E44.90649
G1 X130.746 Y103.515 E44.99701
G1 X131.027 Y105.819 E45.09915
G1 X131.033 Y127.947 E46.0729
G1 X130.936 Y129.337 E46.13422
G1 X130.696 Y130.71 E46.19556
G1 X130.399 Y131.8 E46.24527
G1 X129.909 Y133.104 E46.30657
G1 X129.384 Y134.176 E46.3591
G1 X128.655 Y135.364 E46.42044
G1 X127.808 Y136.47 E46.48174
G1 X126.852 Y137.484 E46.54307
G1 X126.003 Y138.229 E46.59278
G1 X124.875 Y139.048 E46.65412
G1 X123.669 Y139.746 E46.71544
G1 X122.584 Y140.243 E46.76796
G1 X121.521 Y140.623 E46.81764
G1 X120.17 Y140.968 E46.879
G1 X118.792 Y141.172 E46.9403
G1 X117.4 Y141.234 E47.00162
G1 X115.548 Y141.092 E47.08336
G1 X113.479 Y140.623 E47.17672
G1 X111.567 Y139.864 E47.26725
G1 X109.739 Y138.788 E47.36059
G1 X108.294 Y137.621 E47.44233
G1 X106.897 Y136.111 E47.53285
G1 X105.713 Y134.352 E47.62616
G1 X104.841 Y132.488 E47.71672
G1 X104.208 Y130.255 E47.81886
G1 X103.972 Y128.147 E47.9122
G1 X103.965 Y106.233 E48.87653
G1 X104.038 Y104.892 E48.93563
G1 X104.254 Y103.515 E48.99697
G1 X104.611 Y102.168 E49.05829
G1 X105.104 Y100.865 E49.1196
G1 X105.728 Y99.619 E49.18092
G1 X106.46 Y98.469 E49.24091
G1 X106.966 Y97.817 E49.27723
G1 X106.966 Y97.817 F4800
G1 X107.406 Y98.158
G1 F1500
G1 X107.593 Y97.917 E49.29065
G1 X108.507 Y96.942 E49.34946
G1 X109.375 Y96.18 E49.40029
G1 X110.458 Y95.398 E49.45907
G1 X111.617 Y94.732 E49.51789
