; generated by PrusaSlicer 2.8.1+win64 on 2025-01-27 at 14:08:19 UTC

; 

; external perimeters extrusion width = 0.45mm
; perimeters extrusion width = 0.45mm
; infill extrusion width = 0.45mm
; solid infill extrusion width = 0.45mm
; top infill extrusion width = 0.40mm
; first layer extrusion width = 0.42mm

;TYPE:Custom
G90 ; use absolute coordinates
M83 ; extruder relative mode
M140 S65 ; set final bed temp
M104 S150 ; set temporary nozzle temp to prevent oozing during homing
G4 S10 ; allow partial nozzle warmup
G28 ; home all axis
G1 Z50 F240
G1 X2 Y10 F3000
M104 S215 ; set final nozzle temp
M190 S65 ; wait for bed temp to stabilize
M109 S215 ; wait for nozzle temp to stabilize
G1 Z0.28 F240
G92 E0
G1 Y140 E10 F1500 ; prime the nozzle
G1 X2.3 F5000
G92 E0
G1 Y10 E10 F1200 ; prime the nozzle
G92 E0
G21 ; set units to millimeters
G90 ; use absolute coordinates
M83 ; use relative distances for extrusion
; Filament gcode
M107
;LAYER_CHANGE
;Z:0.2
;HEIGHT:0.2
G1 E-1 F2400
G1 Z.2 F7200
G1 X102.535 Y102.11
G1 Z.2
G1 E1 F1800
;TYPE:Skirt/Brim
;WIDTH:0.42
G1 F2700
G1 X103.656 Y101.14 E.04648
G1 X104.871 Y100.291 E.04647
G1 X106.167 Y99.571 E.04648
G1 X107.314 Y99.069 E.03926
G1 X108.723 Y98.607 E.04649
G1 X110.084 Y98.308 E.04369
G1 X111.38 Y98.147 E.04095
G1 X112.862 Y98.108 E.04648
G1 X114.34 Y98.221 E.04648
G1 X115.798 Y98.486 E.04646
G1 X117.004 Y98.826 E.03929
G1 X118.386 Y99.361 E.04647
G1 X119.706 Y100.036 E.04649
G1 X120.949 Y100.843 E.04647
G1 X122.076 Y101.751 E.04538
G1 X122.975 Y102.624 E.03929
G1 X123.794 Y103.572 E.03928
G1 X124.652 Y104.78 E.04646
G1 X125.381 Y106.071 E.04649
G1 X125.974 Y107.429 E.04646
G1 X126.424 Y108.841 E.04647
G1 X126.683 Y110.032 E.03822
G1 X126.862 Y111.503 E.04646
G1 X126.894 Y112.755 E.03927
G1 X126.791 Y114.234 E.04649
G1 X126.537 Y115.694 E.04646
G1 X126.217 Y116.869 E.03818
G1 X125.695 Y118.257 E.0465
G1 X125.033 Y119.583 E.04647
G1 X124.37 Y120.645 E.03925
G1 X123.469 Y121.823 E.0465
G1 X122.453 Y122.901 E.04645
G1 X121.33 Y123.869 E.04649
G1 X120.115 Y124.717 E.04646
G1 X119.054 Y125.317 E.03822
G1 X117.702 Y125.923 E.04645
G1 X116.294 Y126.387 E.04648
G1 X115.072 Y126.664 E.03929
G1 X113.602 Y126.853 E.04647
G1 X112.121 Y126.891 E.04645
G1 X110.643 Y126.775 E.04648
G1 X109.271 Y126.528 E.04371
G1 X108.013 Y126.178 E.04094
G1 X106.63 Y125.645 E.04647
G1 X105.309 Y124.971 E.0465
G1 X104.065 Y124.166 E.04646
G1 X103.083 Y123.389 E.03926
G1 X102.013 Y122.362 E.0465
G1 X101.217 Y121.441 E.03817
G1 X100.357 Y120.233 E.04649
G1 X99.627 Y118.944 E.04645
G1 X99.032 Y117.586 E.04649
G1 X98.641 Y116.396 E.03927
G1 X98.314 Y114.95 E.04648
G1 X98.137 Y113.479 E.04645
G1 X98.112 Y112.032 E.04538
G1 X98.206 Y110.782 E.0393
G1 X98.459 Y109.322 E.04646
G1 X98.788 Y108.113 E.03929
G1 X99.312 Y106.726 E.04649
G1 X99.933 Y105.478 E.04371
G1 X100.62 Y104.368 E.04093
G1 X101.519 Y103.189 E.04649
G1 X102.494 Y102.153 E.04461
G1 X102.494 Y102.153 F7200
G1 X102.768 Y102.411
G1 F2700
G1 X102.793 Y102.384 E.00115
G1 X103.885 Y101.44 E.04526
G1 X105.068 Y100.612 E.04527
G1 X106.329 Y99.911 E.04524
G1 X107.453 Y99.42 E.03846
G1 X108.825 Y98.97 E.04527
G1 X110.149 Y98.679 E.0425
G1 X111.406 Y98.523 E.03971
G1 X112.849 Y98.485 E.04526
G1 X114.288 Y98.595 E.04525
G1 X115.497 Y98.804 E.03847
G1 X116.889 Y99.185 E.04525
G1 X118.235 Y99.707 E.04527
G1 X119.52 Y100.364 E.04525
G1 X120.515 Y100.997 E.03698
G1 X121.655 Y101.882 E.04525
G1 X122.698 Y102.88 E.04526
G1 X123.5 Y103.808 E.03846
G1 X124.335 Y104.985 E.04525
G1 X125.045 Y106.242 E.04526
G1 X125.622 Y107.565 E.04526
G1 X125.991 Y108.686 E.037
G1 X126.311 Y110.093 E.04524
G1 X126.485 Y111.526 E.04526
G1 X126.517 Y112.752 E.03845
G1 X126.417 Y114.192 E.04526
G1 X126.169 Y115.614 E.04526
G1 X125.859 Y116.752 E.03698
G1 X125.351 Y118.103 E.04526
G1 X124.707 Y119.394 E.04524
G1 X124.057 Y120.435 E.03848
G1 X123.18 Y121.581 E.04525
G1 X122.19 Y122.631 E.04525
G1 X121.096 Y123.574 E.04529
G1 X119.912 Y124.399 E.04525
G1 X118.886 Y124.98 E.03697
G1 X117.569 Y125.57 E.04525
G1 X116.198 Y126.022 E.04526
G1 X114.788 Y126.331 E.04526
G1 X113.354 Y126.493 E.04525
G1 X112.127 Y126.514 E.03848
G1 X110.688 Y126.401 E.04526
G1 X109.354 Y126.161 E.0425
G1 X108.133 Y125.821 E.03974
G1 X106.787 Y125.302 E.04523
G1 X105.501 Y124.646 E.04526
G1 X104.289 Y123.862 E.04526
G1 X103.327 Y123.101 E.03846
G1 X102.285 Y122.102 E.04526
G1 X101.515 Y121.209 E.03697
G1 X100.677 Y120.034 E.04525
G1 X99.965 Y118.778 E.04527
G1 X99.386 Y117.456 E.04525
G1 X99.003 Y116.29 E.03848
G1 X98.685 Y114.883 E.04523
G1 X98.513 Y113.45 E.04525
G1 X98.489 Y112.042 E.04415
G1 X98.58 Y110.831 E.03808
G1 X98.826 Y109.408 E.04528
G1 X99.148 Y108.225 E.03844
G1 X99.659 Y106.875 E.04526
G1 X100.262 Y105.661 E.0425
G1 X100.929 Y104.583 E.03975
G1 X101.805 Y103.436 E.04525
G1 X102.727 Y102.455 E.04221
G1 X102.727 Y102.455 F7200
G1 X103.001 Y102.713
G1 F2700
G1 X103.052 Y102.659 E.00233
G1 X104.114 Y101.739 E.04406
G1 X105.265 Y100.934 E.04404
G1 X106.31 Y100.343 E.03764
G1 X107.592 Y99.77 E.04403
G1 X108.927 Y99.333 E.04404
G1 X110.213 Y99.051 E.04128
G1 X111.432 Y98.899 E.03852
G1 X112.836 Y98.861 E.04404
G1 X114.237 Y98.968 E.04406
G1 X115.42 Y99.173 E.03764
G1 X116.775 Y99.544 E.04405
G1 X118.084 Y100.052 E.04403
G1 X119.334 Y100.692 E.04403
G1 X120.512 Y101.458 E.04406
G1 X121.579 Y102.317 E.04295
G1 X122.422 Y103.136 E.03685
G1 X123.332 Y104.206 E.04404
G1 X124.019 Y105.19 E.03763
G1 X124.71 Y106.414 E.04407
G1 X125.271 Y107.701 E.04402
G1 X125.696 Y109.04 E.04405
G1 X125.939 Y110.154 E.03575
G1 X126.093 Y111.345 E.03765
G1 X126.14 Y112.749 E.04405
G1 X126.042 Y114.15 E.04403
G1 X125.801 Y115.533 E.04402
G1 X125.501 Y116.634 E.03578
G1 X125.007 Y117.949 E.04404
G1 X124.38 Y119.206 E.04404
G1 X123.744 Y120.224 E.03764
G1 X122.89 Y121.34 E.04406
G1 X121.926 Y122.361 E.04403
G1 X120.862 Y123.278 E.04404
G1 X119.71 Y124.081 E.04403
G1 X118.717 Y124.643 E.03578
G1 X117.436 Y125.217 E.04401
G1 X116.102 Y125.658 E.04405
G1 X114.73 Y125.958 E.04403
G1 X113.538 Y126.102 E.03765
G1 X112.134 Y126.137 E.04404
G1 X110.733 Y126.027 E.04406
G1 X109.438 Y125.793 E.04126
G1 X108.254 Y125.464 E.03853
G1 X106.944 Y124.959 E.04402
G1 X105.87 Y124.422 E.03765
G1 X104.679 Y123.677 E.04405
G1 X103.571 Y122.814 E.04404
G1 X102.558 Y121.841 E.04404
G1 X101.672 Y120.797 E.04293
G1 X100.997 Y119.834 E.03687
G1 X100.304 Y118.612 E.04405
G1 X99.74 Y117.326 E.04403
G1 X99.365 Y116.185 E.03766
G1 X99.056 Y114.815 E.04403
G1 X98.889 Y113.42 E.04405
G1 X98.865 Y112.051 E.04293
G1 X98.954 Y110.879 E.03685
G1 X99.193 Y109.495 E.04404
G1 X99.509 Y108.336 E.03767
G1 X100.005 Y107.023 E.04401
G1 X100.592 Y105.844 E.0413
G1 X101.239 Y104.799 E.03854
G1 X102.09 Y103.682 E.04403
G1 X102.96 Y102.756 E.03984
G1 X102.96 Y102.756 F7200
G1 X103.234 Y103.014
G1 F2700
G1 X103.31 Y102.933 E.00348
G1 X104.343 Y102.039 E.04283
G1 X105.461 Y101.256 E.0428
G1 X106.655 Y100.592 E.04284
G1 X107.732 Y100.121 E.03686
G1 X109.03 Y99.696 E.04282
G1 X110.277 Y99.422 E.04003
G1 X111.458 Y99.275 E.03732
G1 X112.823 Y99.238 E.04281
G1 X114.185 Y99.342 E.04283
G1 X115.343 Y99.542 E.03685
G1 X116.66 Y99.903 E.04282
G1 X117.852 Y100.363 E.04006
G1 X118.918 Y100.89 E.03729
G1 X120.078 Y101.612 E.04284
G1 X121.012 Y102.325 E.03684
G1 X122.013 Y103.254 E.04282
G1 X122.747 Y104.075 E.03453
G1 X123.559 Y105.174 E.04284
G1 X124.253 Y106.35 E.04281
G1 X124.823 Y107.591 E.04282
G1 X125.263 Y108.884 E.04282
G1 X125.567 Y110.215 E.04281
G1 X125.718 Y111.38 E.03683
G1 X125.763 Y112.746 E.04285
G1 X125.667 Y114.108 E.04281
G1 X125.432 Y115.453 E.04281
G1 X125.142 Y116.516 E.03455
G1 X124.662 Y117.795 E.04283
G1 X124.146 Y118.85 E.03682
G1 X123.431 Y120.014 E.04283
G1 X122.601 Y121.098 E.04281
G1 X121.663 Y122.091 E.04283
G1 X120.628 Y122.982 E.04282
G1 X119.508 Y123.763 E.04281
G1 X118.549 Y124.305 E.03454
G1 X117.303 Y124.865 E.04283
G1 X116.19 Y125.241 E.03683
G1 X114.86 Y125.553 E.04283
G1 X113.505 Y125.726 E.04283
G1 X112.14 Y125.76 E.04281
G1 X110.779 Y125.652 E.04281
G1 X109.521 Y125.425 E.04008
G1 X108.375 Y125.107 E.03729
G1 X107.1 Y124.616 E.04284
G1 X105.883 Y123.997 E.04281
G1 X104.892 Y123.366 E.03684
G1 X103.815 Y122.526 E.04283
G1 X102.83 Y121.58 E.04282
G1 X102.11 Y120.746 E.03455
G1 X101.317 Y119.634 E.04282
G1 X100.643 Y118.447 E.0428
G1 X100.094 Y117.196 E.04284
G1 X99.727 Y116.08 E.03683
G1 X99.427 Y114.747 E.04284
G1 X99.265 Y113.391 E.04282
G1 X99.242 Y112.061 E.04171
G1 X99.328 Y110.927 E.03566
G1 X99.56 Y109.581 E.04283
G1 X99.869 Y108.448 E.03682
G1 X100.352 Y107.171 E.04281
G1 X100.922 Y106.027 E.04008
G1 X101.548 Y105.015 E.03731
G1 X102.375 Y103.929 E.0428
G1 X103.193 Y103.058 E.03746
G1 X103.193 Y103.058 F7200
G1 X103.468 Y103.315
G1 F2700
G1 X103.569 Y103.208 E.00461
G1 X104.572 Y102.339 E.04161
G1 X105.658 Y101.577 E.0416
G1 X106.658 Y101.011 E.03603
G1 X107.871 Y100.472 E.04162
G1 X109.132 Y100.059 E.0416
G1 X110.394 Y99.785 E.04049
G1 X111.484 Y99.651 E.03443
G1 X112.81 Y99.615 E.04159
G1 X114.133 Y99.715 E.0416
G1 X115.266 Y99.912 E.03606
G1 X116.545 Y100.263 E.04158
G1 X117.782 Y100.743 E.0416
G1 X118.733 Y101.219 E.03334
G1 X119.859 Y101.919 E.04157
G1 X120.908 Y102.732 E.04161
G1 X121.868 Y103.648 E.0416
G1 X122.619 Y104.518 E.03604
G1 X123.386 Y105.601 E.04161
G1 X124.038 Y106.757 E.04161
G1 X124.567 Y107.973 E.04158
G1 X124.969 Y109.238 E.04162
G1 X125.342 Y111.416 E.06928
G1 X125.386 Y112.742 E.0416
G1 X125.293 Y114.066 E.04162
G1 X125.064 Y115.373 E.0416
G1 X124.784 Y116.398 E.03332
G1 X124.318 Y117.641 E.04162
G1 X123.727 Y118.829 E.0416
G1 X123.119 Y119.803 E.036
G1 X122.311 Y120.857 E.04164
G1 X121.4 Y121.821 E.04159
G1 X120.394 Y122.687 E.04162
G1 X119.305 Y123.444 E.04158
G1 X118.38 Y123.968 E.03333
G1 X117.17 Y124.512 E.0416
G1 X115.91 Y124.928 E.0416
G1 X114.614 Y125.213 E.04161
G1 X113.295 Y125.363 E.04162
G1 X112.146 Y125.383 E.03603
G1 X110.824 Y125.278 E.04158
G1 X109.605 Y125.057 E.03884
G1 X108.496 Y124.75 E.03608
G1 X107.257 Y124.273 E.04163
G1 X106.075 Y123.672 E.04158
G1 X104.96 Y122.952 E.04162
G1 X103.925 Y122.121 E.04162
G1 X102.408 Y120.515 E.06927
G1 X101.637 Y119.435 E.04161
G1 X100.981 Y118.281 E.04162
G1 X100.448 Y117.066 E.0416
G1 X100.089 Y115.974 E.03604
G1 X99.798 Y114.68 E.04159
G1 X99.641 Y113.362 E.04162
G1 X99.619 Y112.071 E.04048
G1 X99.702 Y110.976 E.03443
G1 X99.927 Y109.668 E.04161
G1 X100.285 Y108.39 E.04161
G1 X100.699 Y107.319 E.036
G1 X101.252 Y106.21 E.03886
G1 X101.857 Y105.231 E.03608
G1 X102.661 Y104.175 E.04161
G1 X103.427 Y103.359 E.03509
G1 E-.7 F2400
;WIPE_START
G1 F5760
G1 X103.468 Y103.315 E-.02381
G1 X103.569 Y103.208 E-.05824
G1 X103.985 Y102.847 E-.21795
;WIPE_END
G1 X111.289 Y115.52 F7200
G1 E1 F1800
;TYPE:Perimeter
;WIDTH:0.419999
G1 F2700
G1 X111.143 Y115.493 E.00466
G1 X110.693 Y115.25 E.01604
G1 X110.035 Y114.664 E.02763
G1 X109.816 Y114.397 E.01083
G1 X109.525 Y113.907 E.01787
G1 X109.394 Y113.558 E.01169
G1 X109.266 Y113.057 E.01621
G1 X109.215 Y112.48 E.01816
G1 X109.257 Y111.978 E.01579
G1 X109.435 Y111.313 E.02158
G1 X109.65 Y110.856 E.01584
G1 X110.083 Y110.301 E.02207
G1 X110.47 Y109.912 E.0172
G1 X110.916 Y109.615 E.0168
G1 X111.408 Y109.396 E.01689
G1 X112.06 Y109.258 E.0209
G1 X112.514 Y109.212 E.01431
G1 X113.028 Y109.251 E.01616
G1 X113.534 Y109.375 E.01633
G1 X114.023 Y109.582 E.01665
G1 X114.642 Y110.01 E.0236
G1 X115.106 Y110.495 E.02105
G1 X115.392 Y110.933 E.0164
G1 X115.603 Y111.422 E.0167
G1 X115.742 Y111.943 E.01691
G1 X115.788 Y112.524 E.01827
G1 X115.743 Y113.045 E.0164
G1 X115.593 Y113.615 E.01848
G1 X115.352 Y114.129 E.0178
G1 X115.029 Y114.602 E.01796
G1 X114.611 Y115.02 E.01853
G1 X114.173 Y115.325 E.01673
G1 X113.8 Y115.513 E.0131
G1 X113.392 Y115.578 E.01295
G1 X111.608 Y115.578 E.05594
G1 X111.349 Y115.53 E.00826
G1 X111.349 Y115.53 F7200
G1 X111.381 Y115.158
G1 F2700
G1 X111.265 Y115.136 E.0037
G1 X110.816 Y114.875 E.01628
G1 X110.293 Y114.389 E.02239
G1 X109.996 Y113.972 E.01605
G1 X109.841 Y113.685 E.01023
G1 X109.748 Y113.429 E.00854
G1 X109.639 Y113.002 E.01382
G1 X109.596 Y112.451 E.01733
G1 X109.648 Y111.902 E.01729
G1 X109.798 Y111.416 E.01595
G1 X110.028 Y110.956 E.01613
G1 X110.369 Y110.548 E.01667
G1 X110.706 Y110.207 E.01503
G1 X111.162 Y109.911 E.01705
G1 X111.647 Y109.724 E.0163
G1 X112.249 Y109.604 E.01925
G1 X112.86 Y109.611 E.01916
G1 X113.408 Y109.731 E.01759
G1 X113.879 Y109.932 E.01606
G1 X114.42 Y110.315 E.02078
G1 X114.821 Y110.741 E.01834
G1 X115.111 Y111.205 E.01716
G1 X115.297 Y111.683 E.01608
G1 X115.395 Y112.221 E.01715
G1 X115.405 Y112.703 E.01512
G1 X115.337 Y113.153 E.01427
G1 X115.175 Y113.653 E.01648
G1 X114.916 Y114.126 E.01691
G1 X114.622 Y114.492 E.01472
G1 X114.24 Y114.836 E.01612
G1 X113.784 Y115.115 E.01676
G1 X113.439 Y115.2 E.01114
G1 X111.608 Y115.201 E.05741
G1 X111.44 Y115.169 E.00536
G1 X111.474 Y114.792 F7200
G1 F2700
G1 X111.356 Y114.764 E.0038
G1 X111.014 Y114.549 E.01267
G1 X110.547 Y114.111 E.02007
G1 X110.246 Y113.659 E.01703
G1 X110.102 Y113.299 E.01216
G1 X110.012 Y112.947 E.01139
G1 X109.972 Y112.482 E.01463
G1 X110.018 Y111.976 E.01593
G1 X110.171 Y111.495 E.01583
G1 X110.391 Y111.099 E.0142
G1 X110.806 Y110.618 E.01992
G1 X111.249 Y110.295 E.01719
G1 X111.721 Y110.094 E.01609
G1 X112.323 Y109.974 E.01925
G1 X112.837 Y109.987 E.01612
G1 X113.313 Y110.098 E.01533
G1 X113.766 Y110.306 E.01563
G1 X114.198 Y110.62 E.01675
G1 X114.543 Y110.997 E.01602
G1 X114.787 Y111.406 E.01493
G1 X114.949 Y111.839 E.0145
G1 X115.019 Y112.239 E.01273
G1 X115.008 Y112.84 E.01885
G1 X114.87 Y113.4 E.01808
G1 X114.637 Y113.866 E.01634
G1 X114.364 Y114.217 E.01394
G1 X114.01 Y114.536 E.01494
G1 X113.567 Y114.796 E.01611
G1 X112.824 Y114.824 E.02331
G1 X111.608 Y114.824 E.03813
G1 X111.532 Y114.806 E.00245
G1 X111.532 Y114.806 F7200
G1 X111.566 Y114.425
;TYPE:External perimeter
G1 F2700
G1 X111.284 Y114.284 E.00989
G1 X110.809 Y113.839 E.02041
G1 X110.55 Y113.426 E.01528
G1 X110.456 Y113.17 E.00855
G1 X110.344 Y112.616 E.01772
G1 X110.384 Y112.071 E.01713
G1 X110.528 Y111.618 E.0149
G1 X110.677 Y111.346 E.00972
G1 X111.092 Y110.865 E.01992
G1 X111.488 Y110.591 E.0151
G1 X111.794 Y110.464 E.01039
G1 X112.396 Y110.344 E.01925
G1 X112.962 Y110.395 E.01782
G1 X113.493 Y110.583 E.01766
G1 X113.976 Y110.925 E.01856
G1 X114.305 Y111.321 E.01614
G1 X114.55 Y111.835 E.01785
G1 X114.642 Y112.257 E.01354
G1 X114.634 Y112.794 E.01684
G1 X114.508 Y113.292 E.01611
G1 X114.308 Y113.681 E.01371
G1 X113.977 Y114.063 E.01585
G1 X113.567 Y114.37 E.01606
G1 X113.392 Y114.447 E.00599
G1 X111.621 Y114.447 E.05553
G1 E-.7 F2400
;WIPE_START
G1 F5760
G1 X111.566 Y114.425 E-.02345
G1 X111.284 Y114.284 E-.1248
G1 X111.004 Y114.022 E-.15175
;WIPE_END
G1 X111.177 Y118.716 F7200
G1 E1 F1800
;TYPE:Perimeter
G1 F2700
G1 X110.567 Y118.555 E.01978
G1 X109.954 Y118.324 E.02054
G1 X109.369 Y118.032 E.0205
G1 X108.817 Y117.681 E.02051
G1 X108.303 Y117.274 E.02056
G1 X107.835 Y116.818 E.02049
G1 X107.415 Y116.315 E.02055
G1 X107.05 Y115.772 E.02051
G1 X106.742 Y115.193 E.02056
G1 X106.527 Y114.667 E.01782
G1 X106.369 Y114.18 E.01605
G1 X106.227 Y113.532 E.0208
G1 X106.154 Y112.881 E.02054
G1 X106.149 Y112.227 E.02051
G1 X106.211 Y111.575 E.02054
G1 X106.339 Y110.932 E.02056
G1 X106.506 Y110.389 E.01781
G1 X106.693 Y109.912 E.01606
G1 X106.995 Y109.321 E.02081
G1 X107.351 Y108.772 E.02052
G1 X107.761 Y108.262 E.02052
G1 X108.12 Y107.9 E.01599
G1 X108.545 Y107.521 E.01785
G1 X109.088 Y107.136 E.02087
G1 X109.658 Y106.813 E.02054
G1 X110.258 Y106.551 E.02053
G1 X110.881 Y106.352 E.02051
G1 X111.522 Y106.218 E.02053
G1 X112.096 Y106.159 E.01809
G1 X112.605 Y106.15 E.01596
G1 X113.185 Y106.181 E.01821
G1 X113.71 Y106.266 E.01668
G1 X114.28 Y106.405 E.0184
G1 X114.765 Y106.568 E.01604
G1 X115.526 Y106.908 E.02613
G1 X116.094 Y107.256 E.02089
G1 X116.614 Y107.653 E.02051
G1 X117.091 Y108.102 E.02054
G1 X117.518 Y108.597 E.0205
G1 X117.893 Y109.134 E.02054
G1 X118.21 Y109.706 E.0205
G1 X118.446 Y110.258 E.01882
G1 X118.616 Y110.776 E.01709
G1 X118.764 Y111.438 E.02127
G1 X118.84 Y112.088 E.02052
G1 X118.85 Y112.475 E.01214
