; generated by PrusaSlicer 2.9.0 on 2025-01-26 at 16:45:28 UTC

; 

; external perimeters extrusion width = 0.36mm
; perimeters extrusion width = 0.36mm
; infill extrusion width = 0.36mm
; solid infill extrusion width = 0.36mm
; top infill extrusion width = 0.36mm
; first layer extrusion width = 0.60mm

; external perimeters extrusion width = 0.36mm
; perimeters extrusion width = 0.36mm
; infill extrusion width = 0.36mm
; solid infill extrusion width = 0.36mm
; top infill extrusion width = 0.36mm
; first layer extrusion width = 0.60mm

; external perimeters extrusion width = 0.36mm
; perimeters extrusion width = 0.36mm
; infill extrusion width = 0.36mm
; solid infill extrusion width = 0.36mm
; top infill extrusion width = 0.36mm
; first layer extrusion width = 0.60mm

; external perimeters extrusion width = 0.36mm
; perimeters extrusion width = 0.36mm
; infill extrusion width = 0.36mm
; solid infill extrusion width = 0.36mm
; top infill extrusion width = 0.36mm
; first layer extrusion width = 0.60mm

M190 S75 ; set bed temperature and wait for it to be reached
M104 S235 ; set temperature
;TYPE:Custom
G28 ; Auto home
G1 Z15 F300 ;Move up slightly
G90 ;Switch to absolute positioning
M82 ;Extruder absolute mode
G0 X10 Y20 F1500 ;Move to X10 Y20 at 1500mms
G1 Z0.5 ;Move Z to 0.8
G1 F400 X160 E35 ;Extrude a line of filament
G1 F1200 Z10 ;Raise Z
M109 S235 ; set temperature and wait for it to be reached
G21 ; set units to millimeters
G90 ; use absolute coordinates
M82 ; use absolute distances for extrusion
G92 E0
; Filament gcode
M107
;LAYER_CHANGE
;Z:0.3
;HEIGHT:0.3
G1 E-1 F1800
G1 Z.3 F6600
G1 X85.922 Y79.839
G1 E.00001 F1800
;TYPE:Skirt/Brim
;WIDTH:0.6
G1 X88.05 Y77.549 E.1984
G1 X89.568 Y76.402 E.31915
G1 X91.251 Y75.686 E.43523
G1 X93.352 Y75.382 E.56996
G1 X151.996 Y75.382 E4.29181
G1 X154.39 Y75.779 E4.44582
G1 X156.527 Y76.928 E4.59981
G1 X158.178 Y78.706 E4.7538
G1 X159.167 Y80.923 E4.90787
G1 X159.406 Y82.792 E5.02745
G1 X159.406 Y110.208 E6.76741
G1 X159.009 Y112.602 E6.92142
G1 X157.86 Y114.739 E7.07541
G1 X156.082 Y116.39 E7.2294
G1 X153.866 Y117.379 E7.38341
G1 X151.996 Y117.618 E7.50306
G1 X93.352 Y117.618 E11.22491
G1 X91.312 Y117.332 E11.35565
G1 X88.743 Y116.041 E11.53812
G1 X87.754 Y115.149 E11.62265
G1 X79.642 Y106.412 E12.3793
G1 X78.785 Y105.383 E12.46429
G1 X77.854 Y103.997 E12.57026
G1 X77.083 Y102.51 E12.67656
G1 X76.488 Y100.949 E12.78258
G1 X76.141 Y99.656 E12.86754
G1 X75.875 Y98.002 E12.97386
G1 X75.799 Y96.334 E13.07983
G1 X75.914 Y94.663 E13.18613
G1 X76.216 Y93.02 E13.29215
G1 X76.592 Y91.735 E13.37712
G1 X77.083 Y90.49 E13.46206
G1 X77.854 Y89.003 E13.56836
G1 X78.588 Y87.884 E13.65329
G1 X79.421 Y86.836 E13.73825
G1 X85.881 Y79.883 E14.34059
G1 X85.881 Y79.883 F6600
G1 X86.273 Y80.247
G1 F1800
G1 X88.421 Y77.936 E14.54083
G1 X89.834 Y76.867 E14.65328
G1 X91.398 Y76.2 E14.76119
G1 X93.352 Y75.917 E14.88649
G1 X151.996 Y75.917 E18.60834
G1 X154.299 Y76.314 E18.75666
G1 X156.335 Y77.46 E18.90494
G1 X157.871 Y79.221 E19.05324
G1 X158.727 Y81.395 E19.20152
G1 X158.871 Y82.792 E19.29065
G1 X158.871 Y110.208 E21.03061
G1 X158.474 Y112.511 E21.17893
G1 X157.328 Y114.547 E21.32721
G1 X155.567 Y116.083 E21.47551
G1 X153.393 Y116.939 E21.62379
G1 X151.996 Y117.083 E21.71292
G1 X93.352 Y117.083 E25.43477
G1 X91.459 Y116.817 E25.55609
G1 X90.913 Y116.641 E25.5925
G1 X88.495 Y115.136 E25.77326
G1 X80.041 Y106.055 E26.56067
G1 X79.216 Y105.065 E26.64246
G1 X78.311 Y103.719 E26.7454
G1 X77.574 Y102.296 E26.8471
G1 X76.996 Y100.781 E26.95001
G1 X76.663 Y99.536 E27.0318
G1 X76.409 Y97.954 E27.13349
G1 X76.335 Y96.666 E27.21537
G1 X76.409 Y95.046 E27.31829
G1 X76.599 Y93.771 E27.4001
G1 X76.996 Y92.219 E27.50177
G1 X77.574 Y90.704 E27.60468
G1 X78.311 Y89.281 E27.70638
G1 X79.018 Y88.202 E27.78825
G1 X79.82 Y87.192 E27.8701
G1 X86.232 Y80.291 E28.46795
G1 X86.232 Y80.291 F6600
G1 X86.624 Y80.655
G1 F1800
G1 X88.792 Y78.322 E28.67008
G1 X90.099 Y77.332 E28.77414
G1 X91.546 Y76.715 E28.87397
G1 X93.352 Y76.453 E28.98979
G1 X151.996 Y76.453 E32.71164
G1 X154.204 Y76.85 E32.85402
G1 X156.135 Y77.991 E32.99637
G1 X157.548 Y79.733 E33.13872
G1 X158.335 Y82.792 E33.33918
G1 X158.335 Y110.208 E35.07914
G1 X157.938 Y112.416 E35.22152
G1 X156.797 Y114.347 E35.36387
G1 X155.055 Y115.76 E35.50622
G1 X151.996 Y116.547 E35.70668
G1 X93.352 Y116.547 E39.42853
G1 X91.607 Y116.302 E39.54036
G1 X91.096 Y116.137 E39.57444
G1 X88.866 Y114.75 E39.74111
G1 X80.441 Y105.699 E40.52588
G1 X79.646 Y104.746 E40.60464
G1 X78.769 Y103.441 E40.70443
G1 X78.065 Y102.083 E40.80151
G1 X77.505 Y100.614 E40.90128
G1 X77.185 Y99.415 E40.98004
G1 X76.942 Y97.905 E41.07711
G1 X76.871 Y96.666 E41.15587
G1 X76.942 Y95.095 E41.25568
G1 X77.126 Y93.868 E41.33442
G1 X77.505 Y92.386 E41.4315
G1 X78.065 Y90.917 E41.53127
G1 X78.769 Y89.559 E41.62835
G1 X79.449 Y88.521 E41.7071
G1 X80.22 Y87.549 E41.78584
G1 X86.584 Y80.699 E42.37924
G1 X86.584 Y80.699 F6600
G1 X86.974 Y81.062
G1 F1800
G1 X89.163 Y78.708 E42.58325
G1 X90.365 Y77.798 E42.67893
G1 X91.693 Y77.23 E42.7706
G1 X93.352 Y76.989 E42.87699
G1 X151.996 Y76.989 E46.59884
G1 X154.105 Y77.385 E46.73503
G1 X155.925 Y78.521 E46.87119
G1 X157.208 Y80.24 E47.00732
G1 X157.8 Y82.792 E47.17358
G1 X157.8 Y110.208 E48.91354
G1 X157.403 Y112.316 E49.04968
G1 X156.268 Y114.137 E49.18586
G1 X154.548 Y115.42 E49.32204
G1 X151.996 Y116.011 E49.48829
G1 X93.352 Y116.011 E53.21014
G1 X91.754 Y115.787 E53.31255
G1 X91.278 Y115.634 E53.34428
G1 X89.237 Y114.363 E53.49688
G1 X80.62 Y105.094 E54.30008
G1 X79.727 Y103.944 E54.39249
G1 X79.094 Y102.934 E54.46814
G1 X78.424 Y101.565 E54.56487
G1 X77.937 Y100.193 E54.65727
G1 X77.618 Y98.845 E54.74518
G1 X77.445 Y97.525 E54.82967
G1 X77.412 Y96.07 E54.92204
G1 X77.506 Y94.881 E54.99774
G1 X77.707 Y93.706 E55.07339
G1 X78.118 Y92.239 E55.17008
G1 X78.557 Y91.13 E55.24578
G1 X79.226 Y89.838 E55.33812
G1 X79.879 Y88.84 E55.41381
G1 X80.841 Y87.658 E55.51053
G1 X86.933 Y81.106 E56.07833
G1 X86.933 Y81.106 F6600
G1 X87.322 Y81.467
G1 F1800
G1 X89.323 Y79.308 E56.26515
G1 X90.63 Y78.263 E56.37135
G1 X91.841 Y77.745 E56.45494
G1 X93.352 Y77.524 E56.55186
G1 X151.996 Y77.524 E60.27371
G1 X154 Y77.92 E60.40335
G1 X155.703 Y79.049 E60.53302
G1 X156.848 Y80.741 E60.66268
G1 X157.264 Y82.792 E60.7955
G1 X157.264 Y110.208 E62.53546
G1 X156.868 Y112.212 E62.6651
G1 X155.739 Y113.915 E62.79477
G1 X154.047 Y115.06 E62.92443
G1 X151.996 Y115.476 E63.05725
G1 X93.352 Y115.476 E66.7791
G1 X91.902 Y115.272 E66.87203
G1 X91.461 Y115.13 E66.90143
G1 X89.534 Y113.906 E67.04631
G1 X81.019 Y104.738 E67.8404
G1 X80.309 Y103.841 E67.913
G1 X79.564 Y102.676 E68.00076
G1 X78.916 Y101.352 E68.09431
G1 X78.452 Y100.049 E68.18209
G1 X78.145 Y98.748 E68.26693
G1 X77.979 Y97.477 E68.34828
G1 X77.942 Y96.334 E68.42086
G1 X78.036 Y94.954 E68.50864
G1 X78.228 Y93.827 E68.5812
G1 X78.626 Y92.407 E68.67479
G1 X79.048 Y91.344 E68.74738
G1 X79.684 Y90.116 E68.83515
G1 X80.309 Y89.159 E68.90769
G1 X81.019 Y88.262 E68.98029
G1 X87.281 Y81.511 E69.56468
G1 E68.56468
G92 E0
G1 X87.281 Y81.511 F6600
G92 E0
G1 X150.599 Y108.811
G1 E1 F1800
;TYPE:Perimeter
;WIDTH:0.656565
G1 X150.597 Y106.023 E1.19563
G1 E.19563
G92 E0
G1 X150.597 Y106.023 F6600
G1 X150.207 Y103.524
G1 E1 F1800
;WIDTH:0.408429
G1 X150.142 Y103.561 E1.00305
G1 X150.207 Y103.598 E1.0061
G1 X150.228 Y103.561 E1.00783
G1 X150.625 Y103.121 F6600
;WIDTH:0.6
G1 F1800
G1 X150.625 Y104.08 E1.06869
G1 X150.649 Y104.862 E1.11834
;WIDTH:0.550859
G1 X150.673 Y104.96 E1.12416
;WIDTH:0.503841
G1 X150.696 Y105.058 E1.1294
;WIDTH:0.456823
G1 X150.72 Y105.155 E1.13405
;WIDTH:0.409805
G1 X150.74 Y105.613 E1.15281
;WIDTH:0.418287
G1 X150.716 Y105.682 E1.15587
;WIDTH:0.465943
G1 X150.692 Y105.75 E1.1593
;WIDTH:0.513598
G1 X150.668 Y105.818 E1.16314
;WIDTH:0.561254
G1 X150.644 Y105.886 E1.16739
;WIDTH:0.608909
G1 X150.62 Y105.955 E1.1721
;WIDTH:0.656565
G1 X150.597 Y106.023 E1.17714
G1 X150.57 Y105.959 E1.18201
;WIDTH:0.608909
G1 X150.543 Y105.895 E1.18649
;WIDTH:0.561254
G1 X150.516 Y105.831 E1.19058
;WIDTH:0.513598
G1 X150.489 Y105.767 E1.19428
;WIDTH:0.465943
G1 X150.462 Y105.703 E1.19759
;WIDTH:0.418287
G1 X150.436 Y105.639 E1.20049
;WIDTH:0.415688
G1 X150.42 Y105.458 E1.20805
;WIDTH:0.460745
G1 X150.405 Y105.277 E1.21658
;WIDTH:0.505802
G1 X150.389 Y105.095 E1.22614
;WIDTH:0.550859
G1 X150.374 Y104.914 E1.23661
;WIDTH:0.6
G1 X150.229 Y104.479 E1.26571
G1 X150.103 Y104.236 E1.28308
G1 X149.679 Y103.641 E1.32945
G1 X149.108 Y103.121 E1.37846
G1 X150.565 Y103.121 E1.47093
G1 E.47093
G92 E0
G1 X150.565 Y103.121 F6600
G1 X150.599 Y84.189
G1 E1 F1800
;WIDTH:0.651655
G1 X150.599 Y86.917 E1.18983
G1 E.18983
G92 E0
G1 X150.599 Y86.917 F6600
G1 X150.206 Y89.401
G1 E1 F1800
;WIDTH:0.409605
G1 X150.141 Y89.438 E1.00306
G1 X150.206 Y89.476 E1.00614
G1 X150.228 Y89.438 E1.00794
G1 E.00794
G92 E0
G1 X150.228 Y89.438 F6600
G1 X150.599 Y86.917
G1 E1 F1800
;WIDTH:0.651655
G1 X150.622 Y86.983 E1.00486
;WIDTH:0.604817
G1 X150.646 Y87.05 E1.00942
;WIDTH:0.55798
G1 X150.669 Y87.117 E1.01356
;WIDTH:0.511143
G1 X150.693 Y87.183 E1.01728
;WIDTH:0.464305
G1 X150.716 Y87.25 E1.02064
;WIDTH:0.417468
G1 X150.74 Y87.316 E1.02358
;WIDTH:0.391933
G1 X150.729 Y87.697 E1.03837
;WIDTH:0.433546
G1 X150.708 Y87.826 E1.04409
;WIDTH:0.475159
G1 X150.687 Y87.955 E1.05045
;WIDTH:0.516773
G1 X150.666 Y88.085 E1.05751
;WIDTH:0.558386
G1 X150.646 Y88.214 E1.06515
;WIDTH:0.6
G1 X150.625 Y88.343 E1.07344
G1 X150.625 Y89.879 E1.17092
G1 X149.101 Y89.879 E1.26764
G1 X149.533 Y89.516 E1.30345
G1 X149.992 Y88.947 E1.34985
G1 X150.325 Y88.297 E1.3962
G1 X150.354 Y88.146 E1.40596
;WIDTH:0.563542
G1 X150.383 Y87.995 E1.41505
;WIDTH:0.527085
G1 X150.412 Y87.844 E1.42348
;WIDTH:0.490628
G1 X150.419 Y87.663 E1.43263
;WIDTH:0.450629
G1 X150.427 Y87.482 E1.44092
;WIDTH:0.41063
G1 X150.434 Y87.301 E1.44835
;WIDTH:0.417468
G1 X150.462 Y87.237 E1.45127
;WIDTH:0.464305
G1 X150.489 Y87.173 E1.45456
;WIDTH:0.511143
G1 X150.517 Y87.109 E1.45826
;WIDTH:0.55798
G1 X150.544 Y87.045 E1.46232
;WIDTH:0.604817
G1 X150.572 Y86.981 E1.46679
;WIDTH:0.651655
G1 X150.575 Y86.972 E1.46745
G1 E.46745
G92 E0
G1 X150.575 Y86.972 F6600
G1 X150.204 Y83.628
G1 E1 F1800
;WIDTH:0.6
G1 X151.16 Y83.628 E1.06067
G1 X151.16 Y90.149 E1.47453
G1 X151.123 Y90.327 E1.48607
G1 X150.969 Y90.414 E1.4973
G1 X147.999 Y90.414 E1.68579
G1 X147.669 Y90.432 E1.70676
;WIDTH:0.564701
G1 X147.338 Y90.45 E1.72641
;WIDTH:0.529402
G1 X146.711 Y90.456 E1.76096
;WIDTH:0.519852
G1 X146.188 Y90.484 E1.78923
;WIDTH:0.521382
G1 X145.648 Y90.561 E1.81877
;WIDTH:0.521976
G1 X145.116 Y90.685 E1.84839
G1 X144.598 Y90.856 E1.87797
;WIDTH:0.521637
G1 X144.096 Y91.071 E1.90756
;WIDTH:0.520363
G1 X143.595 Y91.343 E1.93836
;WIDTH:0.518199
G1 X143.122 Y91.664 E1.9691
;WIDTH:0.521056
G1 X142.721 Y91.997 E1.9973
;WIDTH:0.52182
G1 X142.331 Y92.379 E2.02689
G1 X141.977 Y92.795 E2.0565
G1 X141.661 Y93.239 E2.08604
;WIDTH:0.520804
G1 X141.385 Y93.71 E2.11556
;WIDTH:0.51885
G1 X141.145 Y94.228 E2.1463
;WIDTH:0.520664
G1 X140.966 Y94.745 E2.17588
;WIDTH:0.521767
G1 X140.833 Y95.274 E2.20544
;WIDTH:0.521939
G1 X140.746 Y95.813 E2.23504
G1 X140.708 Y96.357 E2.26461
;WIDTH:0.521173
G1 X140.716 Y96.897 E2.29384
;WIDTH:0.519225
G1 X140.779 Y97.45 E2.32384
;WIDTH:0.520319
G1 X140.894 Y98.002 E2.3543
;WIDTH:0.521559
G1 X141.057 Y98.526 E2.38403
;WIDTH:0.521984
G1 X141.263 Y99.031 E2.4136
G1 X141.514 Y99.516 E2.44321
;WIDTH:0.521475
G1 X141.805 Y99.978 E2.47278
;WIDTH:0.52003
G1 X142.167 Y100.444 E2.50464
;WIDTH:0.517804
G1 X142.56 Y100.859 E2.53535
;WIDTH:0.521491
G1 X142.938 Y101.188 E2.56249
;WIDTH:0.521916
G1 X143.377 Y101.512 E2.59207
G1 X143.844 Y101.796 E2.6217
;WIDTH:0.521706
G1 X144.327 Y102.036 E2.65093
;WIDTH:0.520294
G1 X144.856 Y102.239 E2.68154
;WIDTH:0.518383
G1 X145.407 Y102.394 E2.71233
;WIDTH:0.520932
G1 X145.929 Y102.485 E2.74099
;WIDTH:0.522023
G1 X146.482 Y102.533 E2.77109
G1 X147.166 Y102.546 E2.80819
;WIDTH:0.567674
G1 X147.776 Y102.569 E2.84459
;WIDTH:0.6
G1 X148.45 Y102.586 E2.88738
G1 X150.899 Y102.586 E3.04281
G1 X151.073 Y102.623 E3.0541
G1 X151.16 Y102.778 E3.06538
G1 X151.16 Y109.372 E3.48387
G1 X150.073 Y109.372 E3.55286
G1 X150.038 Y108.986 E3.57746
G1 X150.033 Y106.024 E3.76544
G1 X150.021 Y105.711 E3.78532
G1 X149.899 Y105.101 E3.8248
G1 X149.655 Y104.53 E3.86421
G1 X149.3 Y104.019 E3.9037
G1 X148.849 Y103.592 E3.94312
G1 X148.321 Y103.265 E3.98254
G1 X147.734 Y103.069 E4.02182
;WIDTH:0.567674
G1 X147.162 Y103.003 E4.05616
;WIDTH:0.522023
G1 X146.449 Y102.99 E4.09483
G1 X145.851 Y102.935 E4.12739
;WIDTH:0.520932
G1 X145.268 Y102.827 E4.15946
;WIDTH:0.519197
G1 X144.617 Y102.632 E4.19608
;WIDTH:0.520294
G1 X144.143 Y102.452 E4.22347
;WIDTH:0.521706
G1 X143.618 Y102.194 E4.25517
;WIDTH:0.521916
G1 X143.113 Y101.885 E4.28727
G1 X142.638 Y101.533 E4.31932
;WIDTH:0.521491
G1 X142.197 Y101.139 E4.35135
;WIDTH:0.519668
G1 X141.754 Y100.657 E4.38667
;WIDTH:0.51744
G1 X141.396 Y100.185 E4.41847
;WIDTH:0.521475
G1 X141.115 Y99.739 E4.44702
;WIDTH:0.521984
G1 X140.844 Y99.214 E4.47905
G1 X140.621 Y98.666 E4.51113
;WIDTH:0.521559
G1 X140.449 Y98.098 E4.54328
;WIDTH:0.520319
G1 X140.33 Y97.489 E4.5768
;WIDTH:0.517976
G1 X140.262 Y96.898 E4.60877
;WIDTH:0.521173
G1 X140.251 Y96.342 E4.63887
;WIDTH:0.521939
G1 X140.293 Y95.752 E4.67094
G1 X140.388 Y95.168 E4.70302
;WIDTH:0.521767
G1 X140.535 Y94.595 E4.73508
;WIDTH:0.520664
G1 X140.735 Y94.034 E4.76728
;WIDTH:0.518626
G1 X140.984 Y93.497 E4.79914
;WIDTH:0.520804
G1 X141.279 Y92.99 E4.83086
;WIDTH:0.521905
G1 X141.621 Y92.508 E4.8629
G1 X142.006 Y92.058 E4.89501
G1 X142.429 Y91.645 E4.92706
;WIDTH:0.521056
G1 X142.888 Y91.272 E4.95906
;WIDTH:0.519274
G1 X143.451 Y90.902 E4.99537
;WIDTH:0.517109
G1 X143.975 Y90.625 E5.02716
;WIDTH:0.521637
G1 X144.442 Y90.426 E5.05466
;WIDTH:0.521976
G1 X145.004 Y90.242 E5.08672
G1 X145.58 Y90.109 E5.11877
;WIDTH:0.521382
G1 X146.166 Y90.029 E5.1508
;WIDTH:0.519852
G1 X146.779 Y90 E5.18392
;WIDTH:0.547157
G1 X147.485 Y89.972 E5.22434
;WIDTH:0.573578
G1 X147.788 Y89.903 E5.24309
;WIDTH:0.6
G1 X148.091 Y89.834 E5.26281
G1 X148.644 Y89.552 E5.30221
G1 X149.129 Y89.164 E5.34163
G1 X149.525 Y88.684 E5.38112
G1 X149.815 Y88.135 E5.42052
G1 X149.987 Y87.538 E5.45995
G1 X150.038 Y87.001 E5.49418
G1 X150.038 Y84.189 E5.67264
G1 X150.064 Y83.628 E5.70828
G1 X150.144 Y83.628 E5.71336
G1 X150.144 Y83.628 F6600
G1 X149.673 Y83.097
;TYPE:External perimeter
G1 F1800
G1 X149.676 Y83.092 E5.71373
G1 X151.696 Y83.092 E5.84193
G1 X151.696 Y90.149 E6.2898
G1 X151.644 Y90.502 E6.31244
G1 X151.517 Y90.71 E6.32791
G1 X151.313 Y90.868 E6.34429
G1 X150.987 Y90.95 E6.36562
G1 X146.731 Y90.95 E6.63573
G1 X146.132 Y90.984 E6.67381
G1 X145.539 Y91.083 E6.71197
G1 X144.96 Y91.246 E6.75014
G1 X144.328 Y91.509 E6.79358
G1 X143.873 Y91.752 E6.82632
G1 X143.376 Y92.091 E6.8645
G1 X142.919 Y92.481 E6.90263
G1 X142.507 Y92.918 E6.94075
G1 X142.145 Y93.398 E6.97891
G1 X141.834 Y93.918 E7.01736
G1 X141.585 Y94.459 E7.05516
G1 X141.395 Y95.029 E7.09329
G1 X141.267 Y95.616 E7.13142
G1 X141.204 Y96.214 E7.16958
G1 X141.209 Y96.844 E7.20956
G1 X141.284 Y97.467 E7.24938
G1 X141.403 Y97.999 E7.28398
G1 X141.596 Y98.568 E7.32211
G1 X141.85 Y99.112 E7.36021
G1 X142.2 Y99.678 E7.40244
G1 X142.526 Y100.104 E7.43648
G1 X142.94 Y100.539 E7.47459
G1 X143.405 Y100.931 E7.51319
G1 X143.897 Y101.263 E7.55086
G1 X144.511 Y101.575 E7.59457
G1 X144.988 Y101.764 E7.62713
G1 X145.567 Y101.923 E7.66524
G1 X146.16 Y102.019 E7.70336
G1 X146.746 Y102.05 E7.7406
G1 X150.899 Y102.05 E8.00417
G1 X151.243 Y102.1 E8.02623
G1 X151.457 Y102.229 E8.04209
G1 X151.612 Y102.427 E8.05805
G1 X151.696 Y102.774 E8.08071
G1 X151.696 Y109.908 E8.53347
G1 X149.683 Y109.908 E8.66123
G1 X149.584 Y109.707 E8.67545
G1 X149.502 Y108.995 E8.72094
G1 X149.497 Y105.847 E8.92073
G1 X149.415 Y105.351 E8.95264
G1 X149.232 Y104.872 E8.98518
G1 X148.951 Y104.433 E9.01826
G1 X148.598 Y104.075 E9.05017
G1 X148.173 Y103.789 E9.08268
G1 X147.698 Y103.596 E9.11522
G1 X147.153 Y103.499 E9.15035
G1 X146.43 Y103.487 E9.19624
G1 X145.794 Y103.429 E9.23677
