; generated by PrusaSlicer 2.9.0 on 2025-02-08 at 21:53:43 UTC

; 

; external perimeters extrusion width = 0.36mm
; perimeters extrusion width = 0.40mm
; infill extrusion width = 0.40mm
; solid infill extrusion width = 0.36mm
; top infill extrusion width = 0.36mm
; first layer extrusion width = 0.60mm

M190 S75 ; set bed temperature and wait for it to be reached
M104 S235 ; set temperature
;TYPE:Custom
G28 ; Auto home
G1 Z15 F300 ;Move up slightly
G90 ;Switch to absolute positioning
M82 ;Extruder absolute mode
G0 X10 Y20 F1500 ;Move to X10 Y20 at 1500mms
G1 Z0.5 ;Move Z to 0.8
G1 F400 X160 E35 ;Extrude a line of filament
G1 F1200 Z10 ;Raise Z
M109 S235 ; set temperature and wait for it to be reached
G21 ; set units to millimeters
G90 ; use absolute coordinates
M82 ; use absolute distances for extrusion
G92 E0
; Filament gcode
M107
;LAYER_CHANGE
;Z:0.25
;HEIGHT:0.25
G1 E-1 F1800
G1 Z.25 F6000
G1 X104.632 Y102.273
G1 E.00001 F1800
;TYPE:Skirt/Brim
;WIDTH:0.6
G1 X105.35 Y101.575 E.05402
G1 X106.624 Y100.611 E.14021
G1 X107.241 Y100.24 E.17905
G1 X109.814 Y99.214 E.32848
G1 X111.316 Y98.977 E.41051
G1 X120.664 Y98.251 E.91633
G1 X122.106 Y98.241 E.99412
G1 X123.085 Y98.349 E1.04725
G1 X124.724 Y98.745 E1.13821
G1 X125.479 Y99.026 E1.18167
G1 X126.7 Y99.628 E1.25511
G1 X129.086 Y101.466 E1.41759
G1 X130.05 Y102.659 E1.50033
G1 X135.327 Y110.377 E2.00471
G1 X136.049 Y111.61 E2.08179
G1 X136.422 Y112.453 E2.13152
G1 X136.921 Y114.129 E2.22586
G1 X137.131 Y115.775 E2.31538
G1 X137.144 Y116.525 E2.35585
G1 X136.746 Y119.267 E2.50532
G1 X136.195 Y120.698 E2.58804
G1 X132.149 Y129.127 E3.09243
G1 X131.442 Y130.369 E3.16953
G1 X130.86 Y131.162 E3.2226
G1 X129.697 Y132.383 E3.31357
G1 X129.077 Y132.896 E3.35698
G1 X127.944 Y133.653 E3.43049
G1 X125.16 Y134.801 E3.59295
G1 X123.644 Y135.039 E3.67574
G1 X113.744 Y135.777 E4.2113
G1 X111.976 Y135.661 E4.30688
G1 X110.276 Y135.255 E4.40117
G1 X109.522 Y134.974 E4.44458
G1 X108.115 Y134.265 E4.52958
G1 X105.94 Y132.549 E4.67904
G1 X104.984 Y131.367 E4.76105
G1 X99.36 Y123.135 E5.29889
G1 X98.555 Y121.489 E5.39774
G1 X98.29 Y120.708 E5.44223
G1 X97.945 Y119.077 E5.53216
G1 X97.856 Y117.474 E5.61877
G1 X98.254 Y114.733 E5.76819
G1 X98.805 Y113.302 E5.85091
G1 X103.117 Y104.358 E6.38656
G1 X103.598 Y103.571 E6.43632
G1 X104.595 Y102.32 E6.52262
G1 X104.595 Y102.32 F6000
G1 X105.021 Y102.659
G1 F1800
G1 X105.03 Y102.647 E6.52343
G1 X105.713 Y101.983 E6.57482
G1 X106.918 Y101.072 E6.65631
G1 X107.514 Y100.713 E6.69384
G1 X110.017 Y99.728 E6.83895
G1 X111.358 Y99.522 E6.91214
G1 X120.706 Y98.796 E7.41796
G1 X122.07 Y98.787 E7.49155
G1 X123.002 Y98.889 E7.54213
G1 X124.551 Y99.264 E7.62811
G1 X126.426 Y100.102 E7.7389
G1 X128.743 Y101.899 E7.89708
G1 X129.599 Y102.967 E7.97092
G1 X134.876 Y110.685 E8.4753
G1 X135.559 Y111.852 E8.54825
G1 X135.913 Y112.651 E8.59539
G1 X136.386 Y114.239 E8.68478
G1 X136.589 Y115.876 E8.77377
G1 X136.598 Y116.525 E8.80879
G1 X136.2 Y119.186 E8.95394
G1 X135.702 Y120.462 E9.02783
G1 X131.657 Y128.891 E9.5322
G1 X130.988 Y130.065 E9.6051
G1 X130.434 Y130.82 E9.65562
G1 X129.334 Y131.975 E9.74167
G1 X127.671 Y133.18 E9.85246
G1 X124.957 Y134.288 E10.0106
G1 X123.603 Y134.494 E10.08448
G1 X113.731 Y135.231 E10.61853
G1 X112.06 Y135.121 E10.70887
G1 X110.449 Y134.736 E10.79823
G1 X109.729 Y134.468 E10.83968
G1 X108.389 Y133.792 E10.92065
G1 X106.283 Y132.117 E11.06582
G1 X105.435 Y131.058 E11.13901
G1 X99.827 Y122.852 E11.6752
G1 X99.065 Y121.292 E11.76886
G1 X98.814 Y120.551 E11.81107
G1 X98.487 Y119.005 E11.89632
G1 X98.402 Y117.474 E11.97904
G1 X98.8 Y114.814 E12.12414
G1 X99.298 Y113.538 E12.19803
G1 X103.596 Y104.621 E12.73204
G1 X104.053 Y103.874 E12.77928
G1 X104.983 Y102.706 E12.85982
G1 X104.983 Y102.706 F6000
G1 X105.409 Y103.045
G1 F1800
G1 X105.428 Y103.022 E12.86143
G1 X106.076 Y102.392 E12.91019
G1 X107.212 Y101.532 E12.98705
G1 X107.787 Y101.187 E13.02322
G1 X111.4 Y100.067 E13.22728
G1 X120.749 Y99.34 E13.73315
G1 X122.034 Y99.332 E13.80247
G1 X122.918 Y99.429 E13.85045
G1 X124.379 Y99.782 E13.93153
G1 X126.153 Y100.575 E14.03636
G1 X126.365 Y100.697 E14.04956
G1 X129.148 Y103.276 E14.25425
G1 X134.674 Y111.38 E14.7834
G1 X135.101 Y112.159 E14.83132
G1 X135.642 Y113.534 E14.91103
G1 X135.863 Y114.41 E14.95977
G1 X136.039 Y115.824 E15.03664
G1 X136.051 Y116.525 E15.07446
G1 X135.209 Y120.225 E15.27917
G1 X131.164 Y128.654 E15.78354
G1 X130.534 Y129.761 E15.85225
G1 X130.008 Y130.477 E15.90018
G1 X128.972 Y131.566 E15.98127
G1 X128.41 Y132.031 E16.02062
G1 X127.187 Y132.829 E16.0994
G1 X123.561 Y133.949 E16.30413
G1 X113.719 Y134.685 E16.83656
G1 X112.144 Y134.581 E16.92171
G1 X110.621 Y134.218 E17.00617
G1 X109.937 Y133.963 E17.04555
G1 X108.662 Y133.318 E17.12263
G1 X105.885 Y130.749 E17.32671
G1 X100.582 Y123.016 E17.83255
G1 X99.931 Y121.907 E17.90192
G1 X99.574 Y121.094 E17.94982
G1 X99.149 Y119.652 E18.03092
G1 X98.949 Y117.719 E18.13576
G1 X98.949 Y117.474 E18.14898
G1 X99.791 Y113.775 E18.35363
G1 X104.075 Y104.883 E18.8861
G1 X104.507 Y104.178 E18.93071
G1 X105.372 Y103.092 E19.00561
G1 X105.372 Y103.092 F6000
G1 X105.798 Y103.431
G1 F1800
G1 X105.826 Y103.396 E19.00803
G1 X106.438 Y102.8 E19.05411
G1 X107.506 Y101.993 E19.12632
G1 X108.06 Y101.66 E19.16119
G1 X111.442 Y100.611 E19.35221
G1 X120.791 Y99.885 E19.85808
G1 X121.998 Y99.877 E19.9232
G1 X122.834 Y99.969 E19.96857
G1 X124.206 Y100.301 E20.04472
G1 X125.88 Y101.048 E20.14361
G1 X126.092 Y101.17 E20.15681
G1 X128.697 Y103.584 E20.34841
G1 X134.207 Y111.664 E20.87601
G1 X134.611 Y112.4 E20.9213
G1 X135.118 Y113.691 E20.99612
G1 X135.328 Y114.52 E21.04225
G1 X135.494 Y115.848 E21.11445
G1 X135.505 Y116.525 E21.15098
G1 X134.717 Y119.989 E21.34263
G1 X130.672 Y128.418 E21.847
G1 X130.08 Y129.458 E21.91156
G1 X129.583 Y130.135 E21.95687
G1 X128.609 Y131.158 E22.03307
G1 X128.076 Y131.598 E22.07036
G1 X126.913 Y132.355 E22.14522
G1 X123.52 Y133.405 E22.33683
G1 X113.768 Y134.137 E22.8644
G1 X112.228 Y134.041 E22.94764
G1 X110.794 Y133.699 E23.02717
G1 X110.145 Y133.458 E23.06452
G1 X108.935 Y132.845 E23.13769
G1 X106.336 Y130.44 E23.32872
G1 X101.032 Y122.707 E23.83459
G1 X100.422 Y121.665 E23.89973
G1 X100.084 Y120.897 E23.945
G1 X99.685 Y119.542 E24.0212
G1 X99.495 Y117.719 E24.12008
G1 X99.495 Y117.474 E24.1333
G1 X100.283 Y114.011 E24.32489
G1 X104.554 Y105.146 E24.85574
G1 X104.961 Y104.482 E24.89775
G1 X105.76 Y103.478 E24.96697
G1 X105.76 Y103.478 F6000
G1 X106.186 Y103.817
G1 F1800
G1 X106.223 Y103.771 E24.97015
G1 X106.801 Y103.209 E25.01364
G1 X107.8 Y102.453 E25.08123
G1 X108.333 Y102.133 E25.11477
G1 X111.485 Y101.156 E25.29279
G1 X120.833 Y100.43 E25.79861
G1 X121.963 Y100.422 E25.85957
G1 X122.75 Y100.508 E25.90228
G1 X124.034 Y100.819 E25.97355
G1 X125.607 Y101.521 E26.06648
G1 X125.818 Y101.643 E26.07963
G1 X128.246 Y103.893 E26.25821
G1 X133.74 Y111.947 E26.78416
G1 X134.121 Y112.641 E26.82687
G1 X134.595 Y113.849 E26.89688
G1 X134.793 Y114.63 E26.94035
G1 X134.948 Y115.872 E27.00787
G1 X134.959 Y116.525 E27.0431
G1 X134.224 Y119.753 E27.2217
G1 X130.179 Y128.181 E27.72602
G1 X129.625 Y129.154 E27.78642
G1 X129.157 Y129.792 E27.82911
G1 X128.246 Y130.749 E27.90039
G1 X126.64 Y131.882 E28.00642
G1 X123.478 Y132.86 E28.18497
G1 X113.755 Y133.591 E28.71098
G1 X112.311 Y133.501 E28.78903
G1 X110.906 Y133.161 E28.86701
G1 X109.208 Y132.372 E28.96802
G1 X106.786 Y130.131 E29.14603
G1 X101.483 Y122.398 E29.65187
G1 X100.912 Y121.424 E29.71278
G1 X100.593 Y120.699 E29.75551
G1 X100.22 Y119.432 E29.82676
G1 X100.041 Y117.719 E29.91967
G1 X100.041 Y117.474 E29.93289
G1 X100.776 Y114.247 E30.11144
G1 X105.033 Y105.409 E30.64065
G1 X105.415 Y104.786 E30.68007
G1 X106.149 Y103.864 E30.74365
G1 X106.149 Y103.864 F6000
G1 X106.575 Y104.203
G1 F1800
G1 X106.621 Y104.145 E30.74764
G1 X107.164 Y103.618 E30.78846
G1 X108.094 Y102.914 E30.85138
G1 X108.607 Y102.606 E30.88366
G1 X111.527 Y101.701 E31.04858
G1 X120.876 Y100.974 E31.55445
G1 X121.927 Y100.967 E31.61115
G1 X122.666 Y101.048 E31.65126
G1 X123.861 Y101.337 E31.71759
G1 X125.334 Y101.994 E31.8046
G1 X125.545 Y102.116 E31.81775
G1 X127.795 Y104.201 E31.98323
G1 X133.273 Y112.231 E32.50763
G1 X133.63 Y112.883 E32.54773
G1 X134.072 Y114.006 E32.61284
G1 X134.258 Y114.74 E32.65369
G1 X134.402 Y115.897 E32.71659
G1 X134.412 Y116.525 E32.75047
G1 X133.732 Y119.516 E32.91594
G1 X129.686 Y127.945 E33.42033
G1 X129.171 Y128.85 E33.4765
G1 X128.731 Y129.45 E33.51664
G1 X127.884 Y130.34 E33.58292
G1 X126.578 Y131.287 E33.66995
G1 X126.367 Y131.409 E33.6831
G1 X123.437 Y132.315 E33.84855
G1 X113.743 Y133.045 E34.37299
G1 X112.395 Y132.961 E34.44585
G1 X111.079 Y132.643 E34.51889
G1 X109.481 Y131.899 E34.61398
G1 X107.237 Y129.822 E34.77893
G1 X101.934 Y122.089 E35.28477
G1 X101.402 Y121.182 E35.3415
G1 X101.102 Y120.502 E35.3816
G1 X100.755 Y119.322 E35.44795
G1 X100.588 Y117.719 E35.5349
G1 X100.588 Y117.474 E35.54812
G1 X101.268 Y114.484 E35.71354
G1 X105.512 Y105.671 E36.24123
G1 X105.869 Y105.089 E36.27806
G1 X106.537 Y104.25 E36.33592
G1 X106.537 Y104.25 F6000
G1 X106.981 Y104.572
G1 F1800
G1 X107.019 Y104.52 E36.33939
G1 X107.526 Y104.026 E36.37758
G1 X108.388 Y103.374 E36.43589
G1 X108.88 Y103.079 E36.46684
G1 X111.569 Y102.245 E36.61872
G1 X120.918 Y101.519 E37.12459
G1 X121.891 Y101.512 E37.17708
G1 X122.583 Y101.588 E37.21464
G1 X123.689 Y101.856 E37.27603
G1 X125.061 Y102.467 E37.35705
G1 X127.344 Y104.509 E37.52229
G1 X132.807 Y112.515 E38.04516
G1 X133.14 Y113.124 E38.0826
G1 X133.549 Y114.163 E38.14284
G1 X133.722 Y114.85 E38.18106
G1 X133.856 Y115.921 E38.23929
G1 X133.866 Y116.525 E38.27188
G1 X133.239 Y119.28 E38.4243
G1 X129.008 Y128.066 E38.95037
G1 X128.345 Y129.059 E39.01478
G1 X127.93 Y129.535 E39.04885
G1 X127.135 Y130.254 E39.10668
G1 X126.305 Y130.814 E39.16069
G1 X123.395 Y131.77 E39.32593
G1 X113.731 Y132.498 E39.84875
G1 X112.479 Y132.421 E39.91642
G1 X111.251 Y132.124 E39.98458
G1 X109.754 Y131.426 E40.07369
G1 X107.687 Y129.513 E40.22563
G1 X102.384 Y121.78 E40.73147
G1 X101.892 Y120.941 E40.78394
G1 X101.612 Y120.305 E40.82143
G1 X101.29 Y119.212 E40.8829
G1 X101.134 Y117.719 E40.96388
G1 X101.761 Y114.72 E41.12917
G1 X105.992 Y105.934 E41.65524
G1 X106.945 Y104.621 E41.74276
G1 X106.945 Y104.621 F6000
G1 X107.384 Y104.94
G1 F1800
G1 X107.417 Y104.894 E41.74581
G1 X108.682 Y103.835 E41.83481
G1 X109.179 Y103.537 E41.86607
G1 X111.646 Y102.774 E42.00538
G1 X120.969 Y102.063 E42.50979
G1 X121.855 Y102.058 E42.55759
G1 X123.015 Y102.232 E42.62087
G1 X124.56 Y102.816 E42.70997
G1 X124.999 Y103.063 E42.73714
G1 X126.893 Y104.818 E42.87644
G1 X132.34 Y112.798 E43.39767
G1 X132.65 Y113.366 E43.43258
G1 X133.025 Y114.32 E43.48788
G1 X133.31 Y115.945 E43.57688
G1 X133.32 Y116.525 E43.60817
G1 X132.747 Y119.043 E43.74748
G1 X128.529 Y127.804 E44.27204
G1 X127.532 Y129.16 E44.36284
G1 X126.802 Y129.821 E44.41597
G1 X126.032 Y130.341 E44.46609
G1 X123.354 Y131.226 E44.61824
G1 X113.719 Y131.952 E45.13949
G1 X112.563 Y131.881 E45.20197
G1 X111.424 Y131.606 E45.26518
G1 X110.001 Y130.937 E45.35001
G1 X108.107 Y129.182 E45.48931
G1 X102.629 Y121.15 E46.0138
G1 X101.974 Y119.679 E46.10067
G1 X101.69 Y118.054 E46.18966
G1 X101.68 Y117.474 E46.22095
G1 X102.253 Y114.957 E46.36021
G1 X106.471 Y106.196 E46.88477
G1 X107.349 Y104.988 E46.96533
G1 X107.349 Y104.988 F6000
G1 X107.787 Y105.307
G1 F1800
G1 X107.815 Y105.269 E46.96788
G1 X108.976 Y104.296 E47.0496
G1 X109.452 Y104.01 E47.07956
G1 X111.688 Y103.319 E47.20581
G1 X121.01 Y102.608 E47.71017
G1 X121.819 Y102.603 E47.75381
G1 X122.89 Y102.764 E47.81224
G1 X124.309 Y103.301 E47.89409
G1 X124.726 Y103.536 E47.91991
G1 X126.442 Y105.126 E48.04611
G1 X131.873 Y113.082 E48.56578
G1 X132.502 Y114.478 E48.64838
G1 X132.765 Y115.97 E48.73011
G1 X132.773 Y116.525 E48.76005
G1 X132.254 Y118.807 E48.8863
G1 X128.05 Y127.541 E49.40922
G1 X127.134 Y128.786 E49.4926
G1 X126.468 Y129.389 E49.54107
G1 X125.759 Y129.868 E49.58723
G1 X123.312 Y130.681 E49.72633
G1 X113.707 Y131.406 E50.24597
G1 X112.647 Y131.341 E50.30326
G1 X111.596 Y131.087 E50.36159
G1 X110.274 Y130.464 E50.44043
G1 X108.558 Y128.874 E50.56663
G1 X103.096 Y120.866 E51.08956
G1 X102.498 Y119.522 E51.16892
G1 X102.235 Y118.03 E51.25065
G1 X102.227 Y117.474 E51.28065
G1 X102.746 Y115.193 E51.40685
G1 X106.95 Y106.459 E51.92977
G1 X107.752 Y105.355 E52.00338
G1 E51.00338
G92 E0
G1 X107.752 Y105.355 F6000
G92 E0
G1 X117.495 Y117.28
G1 E1 F1800
;TYPE:Perimeter
;WIDTH:0.537528
G1 X117.256 Y117.136 E1.01333
G1 X117.26 Y116.856 E1.02671
G1 X117.505 Y116.72 E1.0401
G1 X117.744 Y116.864 E1.05343
G1 X117.74 Y117.144 E1.06681
G1 X117.548 Y117.251 E1.07731
G1 X117.548 Y117.251 F6000
G1 X116.826 Y117.482
;WIDTH:0.599999
G1 F1800
G1 X116.73 Y117.425 E1.08333
G1 X116.738 Y117.3 E1.09009
G1 X116.747 Y116.544 E1.13088
G1 X116.863 Y116.487 E1.13785
G1 X117.518 Y116.12 E1.17835
G1 X117.626 Y116.192 E1.18535
G1 X118.27 Y116.575 E1.22577
G1 X118.262 Y116.7 E1.23253
G1 X118.253 Y117.455 E1.27326
G1 X118.137 Y117.513 E1.28026
G1 X117.482 Y117.88 E1.32076
G1 X117.374 Y117.808 E1.32776
G1 X116.878 Y117.513 E1.35889
G1 X116.878 Y117.513 F6000
G1 X116.116 Y117.574
G1 F1800
G1 X116.192 Y117.291 E1.3747
G1 X116.202 Y116.629 E1.41042
G1 X116.177 Y116.126 E1.43759
G1 X116.293 Y116.107 E1.44393
G1 X116.598 Y116.009 E1.46121
G1 X117.172 Y115.691 E1.49661
G1 X117.595 Y115.417 E1.5238
G1 X117.67 Y115.508 E1.53016
G1 X117.907 Y115.724 E1.54746
G1 X118.469 Y116.061 E1.58281
G1 X118.916 Y116.295 E1.61003
G1 X118.808 Y116.709 E1.63311
G1 X118.798 Y117.371 E1.66883
G1 X118.823 Y117.874 E1.696
G1 X118.707 Y117.893 E1.70234
G1 X118.402 Y117.991 E1.71962
G1 X117.828 Y118.309 E1.75502
G1 X117.405 Y118.583 E1.78221
G1 X117.33 Y118.492 E1.78857
G1 X117.093 Y118.276 E1.80587
G1 X116.529 Y117.938 E1.84134
G1 X116.083 Y117.696 E1.86871
G1 X116.1 Y117.632 E1.87228
G1 X116.1 Y117.632 F6000
G1 X115.596 Y117.406
;TYPE:External perimeter
G1 F1800
G1 X115.645 Y117.282 E1.87947
G1 X115.656 Y116.601 E1.91621
G1 X115.612 Y116.067 E1.94512
G1 X115.45 Y115.81 E1.96151
;WIDTH:0.558151
G1 X115.288 Y115.553 E1.97664
;WIDTH:0.516303
G1 X111.781 Y109.476 E2.29717
;WIDTH:0.513315
G1 X111.748 Y109.37 E2.30221
G1 X111.788 Y109.165 E2.31169
G1 X111.976 Y108.942 E2.32493
G1 X112.179 Y109.246 E2.34152
;WIDTH:0.516303
G1 X115.688 Y115.322 E2.66205
;WIDTH:0.547816
G1 X115.782 Y115.423 E2.66878
;WIDTH:0.579328
G1 X115.876 Y115.524 E2.67594
;WIDTH:0.599999
G1 X115.992 Y115.582 E2.68294
G1 X116.333 Y115.532 E2.70153
G1 X116.924 Y115.203 E2.73802
G1 X117.364 Y114.898 E2.7669
G1 X117.505 Y114.629 E2.78328
;WIDTH:0.558151
G1 X117.647 Y114.361 E2.79839
;WIDTH:0.516303
G1 X121.177 Y108.249 E3.12083
;WIDTH:0.513322
G1 X121.375 Y108.14 E3.13109
G1 X121.717 Y108.187 E3.14676
G1 X121.555 Y108.515 E3.16336
;WIDTH:0.516303
G1 X118.047 Y114.592 E3.48391
;WIDTH:0.547816
G1 X118.007 Y114.724 E3.49064
;WIDTH:0.579329
G1 X117.967 Y114.856 E3.4978
;WIDTH:0.599999
G1 X117.974 Y114.985 E3.50477
G1 X118.188 Y115.255 E3.52336
G1 X118.768 Y115.602 E3.55982
G1 X119.252 Y115.831 E3.58871
G1 X119.555 Y115.819 E3.60507
;WIDTH:0.55815
G1 X119.859 Y115.807 E3.62023
;WIDTH:0.5163
G1 X126.863 Y115.809 E3.94019
;WIDTH:0.51332
G1 X127.022 Y115.858 E3.94774
G1 X127.143 Y115.967 E3.95513
G1 X127.24 Y116.245 E3.96849
G1 X126.863 Y116.269 E3.98564
;WIDTH:0.5163
G1 X119.859 Y116.27 E4.3056
;WIDTH:0.519803
G1 X119.819 Y116.272 E4.30744
;WIDTH:0.559901
G1 X119.667 Y116.319 E4.31539
;WIDTH:0.599999
G1 X119.516 Y116.366 E4.32392
G1 X119.378 Y116.611 E4.33909
G1 X119.349 Y117.03 E4.36175
G1 X119.362 Y117.733 E4.39968
G1 X119.43 Y118.036 E4.41643
G1 X119.571 Y118.241 E4.42985
;WIDTH:0.55815
G1 X119.713 Y118.447 E4.44231
;WIDTH:0.516301
G1 X123.219 Y124.524 E4.76281
;WIDTH:0.513315
G1 X123.251 Y124.63 E4.76784
G1 X123.212 Y124.835 E4.77731
G1 X123.024 Y125.058 E4.79055
G1 X122.821 Y124.754 E4.80714
;WIDTH:0.516301
G1 X119.312 Y118.678 E5.12767
;WIDTH:0.55573
G1 X119.22 Y118.574 E5.13455
;WIDTH:0.595159
G1 X119.128 Y118.47 E5.14197
;WIDTH:0.599999
G1 X119.008 Y118.418 E5.14903
G1 X118.667 Y118.468 E5.16762
